; Marlin GCODE for the MS&T Chem E Cube team's Creality Ender-3
; --angle=0.125
; --circle-resolution=40
; --layer-height=0.5
; --layers=40
; --line-spacing=3
; --monolith-spacing=25
; --monoliths=16
; --move-feedrate=3000
; --print-feedrate=200
; --radius=8
; --tangent=16
; --wait=500
; --x-max=220
; --x-min=40
; --y-max=220
; --y-min=40
; --z-feedrate=3000
M84 E ; Disable extruder
G28 ; Home all axes
G90 ; Absolute positioning
G0 Z.5 F3000
G0 X68.5 Y44.5 F3000
M106 S255
G1 X68.5 Y60.5 F200
G1 X68.4015 Y61.7515
G1 X68.1085 Y62.9721
G1 X67.6281 Y64.1319
G1 X66.9721 Y65.2023
G1 X66.1569 Y66.1569
G1 X65.2023 Y66.9721
G1 X64.1319 Y67.6281
G1 X62.9721 Y68.1085
G1 X61.7515 Y68.4015
G1 X60.5 Y68.5
G1 X59.2485 Y68.4015
G1 X58.0279 Y68.1085
G1 X56.8681 Y67.6281
G1 X55.7977 Y66.9721
G1 X54.8431 Y66.1569
G1 X54.0279 Y65.2023
G1 X53.3719 Y64.1319
G1 X52.8915 Y62.9721
G1 X52.5985 Y61.7515
G1 X52.5 Y60.5
G1 X52.5985 Y59.2485
G1 X52.8915 Y58.0279
G1 X53.3719 Y56.8681
G1 X54.0279 Y55.7977
G1 X54.8431 Y54.8431
G1 X55.7977 Y54.0279
G1 X56.8681 Y53.3719
G1 X58.0279 Y52.8915
G1 X59.2485 Y52.5985
G1 X60.5 Y52.5
G1 X61.7515 Y52.5985
G1 X62.9721 Y52.8915
G1 X64.1319 Y53.3719
G1 X65.2023 Y54.0279
G1 X66.1569 Y54.8431
G1 X66.9721 Y55.7977
G1 X67.6281 Y56.8681
G1 X68.1085 Y58.0279
G1 X68.4015 Y59.2485
G1 X68.5 Y60.5
G0 X52.5415 Y61.0267 F3000
G1 X59.9733 Y68.4585 F200
G0 X63.6041 Y67.8467 F3000
G1 X53.1533 Y57.3959 F200
G0 X54.8431 Y54.8431 F3000
G1 X66.1569 Y66.1569 F200
G0 X67.8467 Y63.6041 F3000
G1 X57.3959 Y53.1533 F200
G0 X61.0267 Y52.5415 F3000
G1 X68.4585 Y59.9733 F200
M106 S0
G0 X109.5 Y44.5 F3000
M106 S255
G1 X109.5 Y60.5 F200
G1 X109.4015 Y61.7515
G1 X109.1085 Y62.9721
G1 X108.6281 Y64.1319
G1 X107.9721 Y65.2023
G1 X107.1569 Y66.1569
G1 X106.2023 Y66.9721
G1 X105.1319 Y67.6281
G1 X103.9721 Y68.1085
G1 X102.7515 Y68.4015
G1 X101.5 Y68.5
G1 X100.2485 Y68.4015
G1 X99.0279 Y68.1085
G1 X97.8681 Y67.6281
G1 X96.7977 Y66.9721
G1 X95.8431 Y66.1569
G1 X95.0279 Y65.2023
G1 X94.3719 Y64.1319
G1 X93.8915 Y62.9721
G1 X93.5985 Y61.7515
G1 X93.5 Y60.5
G1 X93.5985 Y59.2485
G1 X93.8915 Y58.0279
G1 X94.3719 Y56.8681
G1 X95.0279 Y55.7977
G1 X95.8431 Y54.8431
G1 X96.7977 Y54.0279
G1 X97.8681 Y53.3719
G1 X99.0279 Y52.8915
G1 X100.2485 Y52.5985
G1 X101.5 Y52.5
G1 X102.7515 Y52.5985
G1 X103.9721 Y52.8915
G1 X105.1319 Y53.3719
G1 X106.2023 Y54.0279
G1 X107.1569 Y54.8431
G1 X107.9721 Y55.7977
G1 X108.6281 Y56.8681
G1 X109.1085 Y58.0279
G1 X109.4015 Y59.2485
G1 X109.5 Y60.5
G0 X93.5415 Y61.0267 F3000
G1 X100.9733 Y68.4585 F200
G0 X104.6041 Y67.8467 F3000
G1 X94.1533 Y57.3959 F200
G0 X95.8431 Y54.8431 F3000
G1 X107.1569 Y66.1569 F200
G0 X108.8467 Y63.6041 F3000
G1 X98.3959 Y53.1533 F200
G0 X102.0267 Y52.5415 F3000
G1 X109.4585 Y59.9733 F200
M106 S0
G0 X150.5 Y44.5 F3000
M106 S255
G1 X150.5 Y60.5 F200
G1 X150.4015 Y61.7515
G1 X150.1085 Y62.9721
G1 X149.6281 Y64.1319
G1 X148.9721 Y65.2023
G1 X148.1569 Y66.1569
G1 X147.2023 Y66.9721
G1 X146.1319 Y67.6281
G1 X144.9721 Y68.1085
G1 X143.7515 Y68.4015
G1 X142.5 Y68.5
G1 X141.2485 Y68.4015
G1 X140.0279 Y68.1085
G1 X138.8681 Y67.6281
G1 X137.7977 Y66.9721
G1 X136.8431 Y66.1569
G1 X136.0279 Y65.2023
G1 X135.3719 Y64.1319
G1 X134.8915 Y62.9721
G1 X134.5985 Y61.7515
G1 X134.5 Y60.5
G1 X134.5985 Y59.2485
G1 X134.8915 Y58.0279
G1 X135.3719 Y56.8681
G1 X136.0279 Y55.7977
G1 X136.8431 Y54.8431
G1 X137.7977 Y54.0279
G1 X138.8681 Y53.3719
G1 X140.0279 Y52.8915
G1 X141.2485 Y52.5985
G1 X142.5 Y52.5
G1 X143.7515 Y52.5985
G1 X144.9721 Y52.8915
G1 X146.1319 Y53.3719
G1 X147.2023 Y54.0279
G1 X148.1569 Y54.8431
G1 X148.9721 Y55.7977
G1 X149.6281 Y56.8681
G1 X150.1085 Y58.0279
G1 X150.4015 Y59.2485
G1 X150.5 Y60.5
G0 X134.5415 Y61.0267 F3000
G1 X141.9733 Y68.4585 F200
G0 X145.6041 Y67.8467 F3000
G1 X135.1533 Y57.3959 F200
G0 X136.8431 Y54.8431 F3000
G1 X148.1569 Y66.1569 F200
G0 X149.8467 Y63.6041 F3000
G1 X139.3959 Y53.1533 F200
G0 X143.0267 Y52.5415 F3000
G1 X150.4585 Y59.9733 F200
M106 S0
G0 X191.5 Y44.5 F3000
M106 S255
G1 X191.5 Y60.5 F200
G1 X191.4015 Y61.7515
G1 X191.1085 Y62.9721
G1 X190.6281 Y64.1319
G1 X189.9721 Y65.2023
G1 X189.1569 Y66.1569
G1 X188.2023 Y66.9721
G1 X187.1319 Y67.6281
G1 X185.9721 Y68.1085
G1 X184.7515 Y68.4015
G1 X183.5 Y68.5
G1 X182.2485 Y68.4015
G1 X181.0279 Y68.1085
G1 X179.8681 Y67.6281
G1 X178.7977 Y66.9721
G1 X177.8431 Y66.1569
G1 X177.0279 Y65.2023
G1 X176.3719 Y64.1319
G1 X175.8915 Y62.9721
G1 X175.5985 Y61.7515
G1 X175.5 Y60.5
G1 X175.5985 Y59.2485
G1 X175.8915 Y58.0279
G1 X176.3719 Y56.8681
G1 X177.0279 Y55.7977
G1 X177.8431 Y54.8431
G1 X178.7977 Y54.0279
G1 X179.8681 Y53.3719
G1 X181.0279 Y52.8915
G1 X182.2485 Y52.5985
G1 X183.5 Y52.5
G1 X184.7515 Y52.5985
G1 X185.9721 Y52.8915
G1 X187.1319 Y53.3719
G1 X188.2023 Y54.0279
G1 X189.1569 Y54.8431
G1 X189.9721 Y55.7977
G1 X190.6281 Y56.8681
G1 X191.1085 Y58.0279
G1 X191.4015 Y59.2485
G1 X191.5 Y60.5
G0 X175.5415 Y61.0267 F3000
G1 X182.9733 Y68.4585 F200
G0 X186.6041 Y67.8467 F3000
G1 X176.1533 Y57.3959 F200
G0 X177.8431 Y54.8431 F3000
G1 X189.1569 Y66.1569 F200
G0 X190.8467 Y63.6041 F3000
G1 X180.3959 Y53.1533 F200
G0 X184.0267 Y52.5415 F3000
G1 X191.4585 Y59.9733 F200
M106 S0
G0 X68.5 Y85.5 F3000
M106 S255
G1 X68.5 Y101.5 F200
G1 X68.4015 Y102.7515
G1 X68.1085 Y103.9721
G1 X67.6281 Y105.1319
G1 X66.9721 Y106.2023
G1 X66.1569 Y107.1569
G1 X65.2023 Y107.9721
G1 X64.1319 Y108.6281
G1 X62.9721 Y109.1085
G1 X61.7515 Y109.4015
G1 X60.5 Y109.5
G1 X59.2485 Y109.4015
G1 X58.0279 Y109.1085
G1 X56.8681 Y108.6281
G1 X55.7977 Y107.9721
G1 X54.8431 Y107.1569
G1 X54.0279 Y106.2023
G1 X53.3719 Y105.1319
G1 X52.8915 Y103.9721
G1 X52.5985 Y102.7515
G1 X52.5 Y101.5
G1 X52.5985 Y100.2485
G1 X52.8915 Y99.0279
G1 X53.3719 Y97.8681
G1 X54.0279 Y96.7977
G1 X54.8431 Y95.8431
G1 X55.7977 Y95.0279
G1 X56.8681 Y94.3719
G1 X58.0279 Y93.8915
G1 X59.2485 Y93.5985
G1 X60.5 Y93.5
G1 X61.7515 Y93.5985
G1 X62.9721 Y93.8915
G1 X64.1319 Y94.3719
G1 X65.2023 Y95.0279
G1 X66.1569 Y95.8431
G1 X66.9721 Y96.7977
G1 X67.6281 Y97.8681
G1 X68.1085 Y99.0279
G1 X68.4015 Y100.2485
G1 X68.5 Y101.5
G0 X52.5415 Y102.0267 F3000
G1 X59.9733 Y109.4585 F200
G0 X63.6041 Y108.8467 F3000
G1 X53.1533 Y98.3959 F200
G0 X54.8431 Y95.8431 F3000
G1 X66.1569 Y107.1569 F200
G0 X67.8467 Y104.6041 F3000
G1 X57.3959 Y94.1533 F200
G0 X61.0267 Y93.5415 F3000
G1 X68.4585 Y100.9733 F200
M106 S0
G0 X109.5 Y85.5 F3000
M106 S255
G1 X109.5 Y101.5 F200
G1 X109.4015 Y102.7515
G1 X109.1085 Y103.9721
G1 X108.6281 Y105.1319
G1 X107.9721 Y106.2023
G1 X107.1569 Y107.1569
G1 X106.2023 Y107.9721
G1 X105.1319 Y108.6281
G1 X103.9721 Y109.1085
G1 X102.7515 Y109.4015
G1 X101.5 Y109.5
G1 X100.2485 Y109.4015
G1 X99.0279 Y109.1085
G1 X97.8681 Y108.6281
G1 X96.7977 Y107.9721
G1 X95.8431 Y107.1569
G1 X95.0279 Y106.2023
G1 X94.3719 Y105.1319
G1 X93.8915 Y103.9721
G1 X93.5985 Y102.7515
G1 X93.5 Y101.5
G1 X93.5985 Y100.2485
G1 X93.8915 Y99.0279
G1 X94.3719 Y97.8681
G1 X95.0279 Y96.7977
G1 X95.8431 Y95.8431
G1 X96.7977 Y95.0279
G1 X97.8681 Y94.3719
G1 X99.0279 Y93.8915
G1 X100.2485 Y93.5985
G1 X101.5 Y93.5
G1 X102.7515 Y93.5985
G1 X103.9721 Y93.8915
G1 X105.1319 Y94.3719
G1 X106.2023 Y95.0279
G1 X107.1569 Y95.8431
G1 X107.9721 Y96.7977
G1 X108.6281 Y97.8681
G1 X109.1085 Y99.0279
G1 X109.4015 Y100.2485
G1 X109.5 Y101.5
G0 X93.5415 Y102.0267 F3000
G1 X100.9733 Y109.4585 F200
G0 X104.6041 Y108.8467 F3000
G1 X94.1533 Y98.3959 F200
G0 X95.8431 Y95.8431 F3000
G1 X107.1569 Y107.1569 F200
G0 X108.8467 Y104.6041 F3000
G1 X98.3959 Y94.1533 F200
G0 X102.0267 Y93.5415 F3000
G1 X109.4585 Y100.9733 F200
M106 S0
G0 X150.5 Y85.5 F3000
M106 S255
G1 X150.5 Y101.5 F200
G1 X150.4015 Y102.7515
G1 X150.1085 Y103.9721
G1 X149.6281 Y105.1319
G1 X148.9721 Y106.2023
G1 X148.1569 Y107.1569
G1 X147.2023 Y107.9721
G1 X146.1319 Y108.6281
G1 X144.9721 Y109.1085
G1 X143.7515 Y109.4015
G1 X142.5 Y109.5
G1 X141.2485 Y109.4015
G1 X140.0279 Y109.1085
G1 X138.8681 Y108.6281
G1 X137.7977 Y107.9721
G1 X136.8431 Y107.1569
G1 X136.0279 Y106.2023
G1 X135.3719 Y105.1319
G1 X134.8915 Y103.9721
G1 X134.5985 Y102.7515
G1 X134.5 Y101.5
G1 X134.5985 Y100.2485
G1 X134.8915 Y99.0279
G1 X135.3719 Y97.8681
G1 X136.0279 Y96.7977
G1 X136.8431 Y95.8431
G1 X137.7977 Y95.0279
G1 X138.8681 Y94.3719
G1 X140.0279 Y93.8915
G1 X141.2485 Y93.5985
G1 X142.5 Y93.5
G1 X143.7515 Y93.5985
G1 X144.9721 Y93.8915
G1 X146.1319 Y94.3719
G1 X147.2023 Y95.0279
G1 X148.1569 Y95.8431
G1 X148.9721 Y96.7977
G1 X149.6281 Y97.8681
G1 X150.1085 Y99.0279
G1 X150.4015 Y100.2485
G1 X150.5 Y101.5
G0 X134.5415 Y102.0267 F3000
G1 X141.9733 Y109.4585 F200
G0 X145.6041 Y108.8467 F3000
G1 X135.1533 Y98.3959 F200
G0 X136.8431 Y95.8431 F3000
G1 X148.1569 Y107.1569 F200
G0 X149.8467 Y104.6041 F3000
G1 X139.3959 Y94.1533 F200
G0 X143.0267 Y93.5415 F3000
G1 X150.4585 Y100.9733 F200
M106 S0
G0 X191.5 Y85.5 F3000
M106 S255
G1 X191.5 Y101.5 F200
G1 X191.4015 Y102.7515
G1 X191.1085 Y103.9721
G1 X190.6281 Y105.1319
G1 X189.9721 Y106.2023
G1 X189.1569 Y107.1569
G1 X188.2023 Y107.9721
G1 X187.1319 Y108.6281
G1 X185.9721 Y109.1085
G1 X184.7515 Y109.4015
G1 X183.5 Y109.5
G1 X182.2485 Y109.4015
G1 X181.0279 Y109.1085
G1 X179.8681 Y108.6281
G1 X178.7977 Y107.9721
G1 X177.8431 Y107.1569
G1 X177.0279 Y106.2023
G1 X176.3719 Y105.1319
G1 X175.8915 Y103.9721
G1 X175.5985 Y102.7515
G1 X175.5 Y101.5
G1 X175.5985 Y100.2485
G1 X175.8915 Y99.0279
G1 X176.3719 Y97.8681
G1 X177.0279 Y96.7977
G1 X177.8431 Y95.8431
G1 X178.7977 Y95.0279
G1 X179.8681 Y94.3719
G1 X181.0279 Y93.8915
G1 X182.2485 Y93.5985
G1 X183.5 Y93.5
G1 X184.7515 Y93.5985
G1 X185.9721 Y93.8915
G1 X187.1319 Y94.3719
G1 X188.2023 Y95.0279
G1 X189.1569 Y95.8431
G1 X189.9721 Y96.7977
G1 X190.6281 Y97.8681
G1 X191.1085 Y99.0279
G1 X191.4015 Y100.2485
G1 X191.5 Y101.5
G0 X175.5415 Y102.0267 F3000
G1 X182.9733 Y109.4585 F200
G0 X186.6041 Y108.8467 F3000
G1 X176.1533 Y98.3959 F200
G0 X177.8431 Y95.8431 F3000
G1 X189.1569 Y107.1569 F200
G0 X190.8467 Y104.6041 F3000
G1 X180.3959 Y94.1533 F200
G0 X184.0267 Y93.5415 F3000
G1 X191.4585 Y100.9733 F200
M106 S0
G0 X68.5 Y126.5 F3000
M106 S255
G1 X68.5 Y142.5 F200
G1 X68.4015 Y143.7515
G1 X68.1085 Y144.9721
G1 X67.6281 Y146.1319
G1 X66.9721 Y147.2023
G1 X66.1569 Y148.1569
G1 X65.2023 Y148.9721
G1 X64.1319 Y149.6281
G1 X62.9721 Y150.1085
G1 X61.7515 Y150.4015
G1 X60.5 Y150.5
G1 X59.2485 Y150.4015
G1 X58.0279 Y150.1085
G1 X56.8681 Y149.6281
G1 X55.7977 Y148.9721
G1 X54.8431 Y148.1569
G1 X54.0279 Y147.2023
G1 X53.3719 Y146.1319
G1 X52.8915 Y144.9721
G1 X52.5985 Y143.7515
G1 X52.5 Y142.5
G1 X52.5985 Y141.2485
G1 X52.8915 Y140.0279
G1 X53.3719 Y138.8681
G1 X54.0279 Y137.7977
G1 X54.8431 Y136.8431
G1 X55.7977 Y136.0279
G1 X56.8681 Y135.3719
G1 X58.0279 Y134.8915
G1 X59.2485 Y134.5985
G1 X60.5 Y134.5
G1 X61.7515 Y134.5985
G1 X62.9721 Y134.8915
G1 X64.1319 Y135.3719
G1 X65.2023 Y136.0279
G1 X66.1569 Y136.8431
G1 X66.9721 Y137.7977
G1 X67.6281 Y138.8681
G1 X68.1085 Y140.0279
G1 X68.4015 Y141.2485
G1 X68.5 Y142.5
G0 X52.5415 Y143.0267 F3000
G1 X59.9733 Y150.4585 F200
G0 X63.6041 Y149.8467 F3000
G1 X53.1533 Y139.3959 F200
G0 X54.8431 Y136.8431 F3000
G1 X66.1569 Y148.1569 F200
G0 X67.8467 Y145.6041 F3000
G1 X57.3959 Y135.1533 F200
G0 X61.0267 Y134.5415 F3000
G1 X68.4585 Y141.9733 F200
M106 S0
G0 X109.5 Y126.5 F3000
M106 S255
G1 X109.5 Y142.5 F200
G1 X109.4015 Y143.7515
G1 X109.1085 Y144.9721
G1 X108.6281 Y146.1319
G1 X107.9721 Y147.2023
G1 X107.1569 Y148.1569
G1 X106.2023 Y148.9721
G1 X105.1319 Y149.6281
G1 X103.9721 Y150.1085
G1 X102.7515 Y150.4015
G1 X101.5 Y150.5
G1 X100.2485 Y150.4015
G1 X99.0279 Y150.1085
G1 X97.8681 Y149.6281
G1 X96.7977 Y148.9721
G1 X95.8431 Y148.1569
G1 X95.0279 Y147.2023
G1 X94.3719 Y146.1319
G1 X93.8915 Y144.9721
G1 X93.5985 Y143.7515
G1 X93.5 Y142.5
G1 X93.5985 Y141.2485
G1 X93.8915 Y140.0279
G1 X94.3719 Y138.8681
G1 X95.0279 Y137.7977
G1 X95.8431 Y136.8431
G1 X96.7977 Y136.0279
G1 X97.8681 Y135.3719
G1 X99.0279 Y134.8915
G1 X100.2485 Y134.5985
G1 X101.5 Y134.5
G1 X102.7515 Y134.5985
G1 X103.9721 Y134.8915
G1 X105.1319 Y135.3719
G1 X106.2023 Y136.0279
G1 X107.1569 Y136.8431
G1 X107.9721 Y137.7977
G1 X108.6281 Y138.8681
G1 X109.1085 Y140.0279
G1 X109.4015 Y141.2485
G1 X109.5 Y142.5
G0 X93.5415 Y143.0267 F3000
G1 X100.9733 Y150.4585 F200
G0 X104.6041 Y149.8467 F3000
G1 X94.1533 Y139.3959 F200
G0 X95.8431 Y136.8431 F3000
G1 X107.1569 Y148.1569 F200
G0 X108.8467 Y145.6041 F3000
G1 X98.3959 Y135.1533 F200
G0 X102.0267 Y134.5415 F3000
G1 X109.4585 Y141.9733 F200
M106 S0
G0 X150.5 Y126.5 F3000
M106 S255
G1 X150.5 Y142.5 F200
G1 X150.4015 Y143.7515
G1 X150.1085 Y144.9721
G1 X149.6281 Y146.1319
G1 X148.9721 Y147.2023
G1 X148.1569 Y148.1569
G1 X147.2023 Y148.9721
G1 X146.1319 Y149.6281
G1 X144.9721 Y150.1085
G1 X143.7515 Y150.4015
G1 X142.5 Y150.5
G1 X141.2485 Y150.4015
G1 X140.0279 Y150.1085
G1 X138.8681 Y149.6281
G1 X137.7977 Y148.9721
G1 X136.8431 Y148.1569
G1 X136.0279 Y147.2023
G1 X135.3719 Y146.1319
G1 X134.8915 Y144.9721
G1 X134.5985 Y143.7515
G1 X134.5 Y142.5
G1 X134.5985 Y141.2485
G1 X134.8915 Y140.0279
G1 X135.3719 Y138.8681
G1 X136.0279 Y137.7977
G1 X136.8431 Y136.8431
G1 X137.7977 Y136.0279
G1 X138.8681 Y135.3719
G1 X140.0279 Y134.8915
G1 X141.2485 Y134.5985
G1 X142.5 Y134.5
G1 X143.7515 Y134.5985
G1 X144.9721 Y134.8915
G1 X146.1319 Y135.3719
G1 X147.2023 Y136.0279
G1 X148.1569 Y136.8431
G1 X148.9721 Y137.7977
G1 X149.6281 Y138.8681
G1 X150.1085 Y140.0279
G1 X150.4015 Y141.2485
G1 X150.5 Y142.5
G0 X134.5415 Y143.0267 F3000
G1 X141.9733 Y150.4585 F200
G0 X145.6041 Y149.8467 F3000
G1 X135.1533 Y139.3959 F200
G0 X136.8431 Y136.8431 F3000
G1 X148.1569 Y148.1569 F200
G0 X149.8467 Y145.6041 F3000
G1 X139.3959 Y135.1533 F200
G0 X143.0267 Y134.5415 F3000
G1 X150.4585 Y141.9733 F200
M106 S0
G0 X191.5 Y126.5 F3000
M106 S255
G1 X191.5 Y142.5 F200
G1 X191.4015 Y143.7515
G1 X191.1085 Y144.9721
G1 X190.6281 Y146.1319
G1 X189.9721 Y147.2023
G1 X189.1569 Y148.1569
G1 X188.2023 Y148.9721
G1 X187.1319 Y149.6281
G1 X185.9721 Y150.1085
G1 X184.7515 Y150.4015
G1 X183.5 Y150.5
G1 X182.2485 Y150.4015
G1 X181.0279 Y150.1085
G1 X179.8681 Y149.6281
G1 X178.7977 Y148.9721
G1 X177.8431 Y148.1569
G1 X177.0279 Y147.2023
G1 X176.3719 Y146.1319
G1 X175.8915 Y144.9721
G1 X175.5985 Y143.7515
G1 X175.5 Y142.5
G1 X175.5985 Y141.2485
G1 X175.8915 Y140.0279
G1 X176.3719 Y138.8681
G1 X177.0279 Y137.7977
G1 X177.8431 Y136.8431
G1 X178.7977 Y136.0279
G1 X179.8681 Y135.3719
G1 X181.0279 Y134.8915
G1 X182.2485 Y134.5985
G1 X183.5 Y134.5
G1 X184.7515 Y134.5985
G1 X185.9721 Y134.8915
G1 X187.1319 Y135.3719
G1 X188.2023 Y136.0279
G1 X189.1569 Y136.8431
G1 X189.9721 Y137.7977
G1 X190.6281 Y138.8681
G1 X191.1085 Y140.0279
G1 X191.4015 Y141.2485
G1 X191.5 Y142.5
G0 X175.5415 Y143.0267 F3000
G1 X182.9733 Y150.4585 F200
G0 X186.6041 Y149.8467 F3000
G1 X176.1533 Y139.3959 F200
G0 X177.8431 Y136.8431 F3000
G1 X189.1569 Y148.1569 F200
G0 X190.8467 Y145.6041 F3000
G1 X180.3959 Y135.1533 F200
G0 X184.0267 Y134.5415 F3000
G1 X191.4585 Y141.9733 F200
M106 S0
G0 X68.5 Y167.5 F3000
M106 S255
G1 X68.5 Y183.5 F200
G1 X68.4015 Y184.7515
G1 X68.1085 Y185.9721
G1 X67.6281 Y187.1319
G1 X66.9721 Y188.2023
G1 X66.1569 Y189.1569
G1 X65.2023 Y189.9721
G1 X64.1319 Y190.6281
G1 X62.9721 Y191.1085
G1 X61.7515 Y191.4015
G1 X60.5 Y191.5
G1 X59.2485 Y191.4015
G1 X58.0279 Y191.1085
G1 X56.8681 Y190.6281
G1 X55.7977 Y189.9721
G1 X54.8431 Y189.1569
G1 X54.0279 Y188.2023
G1 X53.3719 Y187.1319
G1 X52.8915 Y185.9721
G1 X52.5985 Y184.7515
G1 X52.5 Y183.5
G1 X52.5985 Y182.2485
G1 X52.8915 Y181.0279
G1 X53.3719 Y179.8681
G1 X54.0279 Y178.7977
G1 X54.8431 Y177.8431
G1 X55.7977 Y177.0279
G1 X56.8681 Y176.3719
G1 X58.0279 Y175.8915
G1 X59.2485 Y175.5985
G1 X60.5 Y175.5
G1 X61.7515 Y175.5985
G1 X62.9721 Y175.8915
G1 X64.1319 Y176.3719
G1 X65.2023 Y177.0279
G1 X66.1569 Y177.8431
G1 X66.9721 Y178.7977
G1 X67.6281 Y179.8681
G1 X68.1085 Y181.0279
G1 X68.4015 Y182.2485
G1 X68.5 Y183.5
G0 X52.5415 Y184.0267 F3000
G1 X59.9733 Y191.4585 F200
G0 X63.6041 Y190.8467 F3000
G1 X53.1533 Y180.3959 F200
G0 X54.8431 Y177.8431 F3000
G1 X66.1569 Y189.1569 F200
G0 X67.8467 Y186.6041 F3000
G1 X57.3959 Y176.1533 F200
G0 X61.0267 Y175.5415 F3000
G1 X68.4585 Y182.9733 F200
M106 S0
G0 X109.5 Y167.5 F3000
M106 S255
G1 X109.5 Y183.5 F200
G1 X109.4015 Y184.7515
G1 X109.1085 Y185.9721
G1 X108.6281 Y187.1319
G1 X107.9721 Y188.2023
G1 X107.1569 Y189.1569
G1 X106.2023 Y189.9721
G1 X105.1319 Y190.6281
G1 X103.9721 Y191.1085
G1 X102.7515 Y191.4015
G1 X101.5 Y191.5
G1 X100.2485 Y191.4015
G1 X99.0279 Y191.1085
G1 X97.8681 Y190.6281
G1 X96.7977 Y189.9721
G1 X95.8431 Y189.1569
G1 X95.0279 Y188.2023
G1 X94.3719 Y187.1319
G1 X93.8915 Y185.9721
G1 X93.5985 Y184.7515
G1 X93.5 Y183.5
G1 X93.5985 Y182.2485
G1 X93.8915 Y181.0279
G1 X94.3719 Y179.8681
G1 X95.0279 Y178.7977
G1 X95.8431 Y177.8431
G1 X96.7977 Y177.0279
G1 X97.8681 Y176.3719
G1 X99.0279 Y175.8915
G1 X100.2485 Y175.5985
G1 X101.5 Y175.5
G1 X102.7515 Y175.5985
G1 X103.9721 Y175.8915
G1 X105.1319 Y176.3719
G1 X106.2023 Y177.0279
G1 X107.1569 Y177.8431
G1 X107.9721 Y178.7977
G1 X108.6281 Y179.8681
G1 X109.1085 Y181.0279
G1 X109.4015 Y182.2485
G1 X109.5 Y183.5
G0 X93.5415 Y184.0267 F3000
G1 X100.9733 Y191.4585 F200
G0 X104.6041 Y190.8467 F3000
G1 X94.1533 Y180.3959 F200
G0 X95.8431 Y177.8431 F3000
G1 X107.1569 Y189.1569 F200
G0 X108.8467 Y186.6041 F3000
G1 X98.3959 Y176.1533 F200
G0 X102.0267 Y175.5415 F3000
G1 X109.4585 Y182.9733 F200
M106 S0
G0 X150.5 Y167.5 F3000
M106 S255
G1 X150.5 Y183.5 F200
G1 X150.4015 Y184.7515
G1 X150.1085 Y185.9721
G1 X149.6281 Y187.1319
G1 X148.9721 Y188.2023
G1 X148.1569 Y189.1569
G1 X147.2023 Y189.9721
G1 X146.1319 Y190.6281
G1 X144.9721 Y191.1085
G1 X143.7515 Y191.4015
G1 X142.5 Y191.5
G1 X141.2485 Y191.4015
G1 X140.0279 Y191.1085
G1 X138.8681 Y190.6281
G1 X137.7977 Y189.9721
G1 X136.8431 Y189.1569
G1 X136.0279 Y188.2023
G1 X135.3719 Y187.1319
G1 X134.8915 Y185.9721
G1 X134.5985 Y184.7515
G1 X134.5 Y183.5
G1 X134.5985 Y182.2485
G1 X134.8915 Y181.0279
G1 X135.3719 Y179.8681
G1 X136.0279 Y178.7977
G1 X136.8431 Y177.8431
G1 X137.7977 Y177.0279
G1 X138.8681 Y176.3719
G1 X140.0279 Y175.8915
G1 X141.2485 Y175.5985
G1 X142.5 Y175.5
G1 X143.7515 Y175.5985
G1 X144.9721 Y175.8915
G1 X146.1319 Y176.3719
G1 X147.2023 Y177.0279
G1 X148.1569 Y177.8431
G1 X148.9721 Y178.7977
G1 X149.6281 Y179.8681
G1 X150.1085 Y181.0279
G1 X150.4015 Y182.2485
G1 X150.5 Y183.5
G0 X134.5415 Y184.0267 F3000
G1 X141.9733 Y191.4585 F200
G0 X145.6041 Y190.8467 F3000
G1 X135.1533 Y180.3959 F200
G0 X136.8431 Y177.8431 F3000
G1 X148.1569 Y189.1569 F200
G0 X149.8467 Y186.6041 F3000
G1 X139.3959 Y176.1533 F200
G0 X143.0267 Y175.5415 F3000
G1 X150.4585 Y182.9733 F200
M106 S0
G0 X191.5 Y167.5 F3000
M106 S255
G1 X191.5 Y183.5 F200
G1 X191.4015 Y184.7515
G1 X191.1085 Y185.9721
G1 X190.6281 Y187.1319
G1 X189.9721 Y188.2023
G1 X189.1569 Y189.1569
G1 X188.2023 Y189.9721
G1 X187.1319 Y190.6281
G1 X185.9721 Y191.1085
G1 X184.7515 Y191.4015
G1 X183.5 Y191.5
G1 X182.2485 Y191.4015
G1 X181.0279 Y191.1085
G1 X179.8681 Y190.6281
G1 X178.7977 Y189.9721
G1 X177.8431 Y189.1569
G1 X177.0279 Y188.2023
G1 X176.3719 Y187.1319
G1 X175.8915 Y185.9721
G1 X175.5985 Y184.7515
G1 X175.5 Y183.5
G1 X175.5985 Y182.2485
G1 X175.8915 Y181.0279
G1 X176.3719 Y179.8681
G1 X177.0279 Y178.7977
G1 X177.8431 Y177.8431
G1 X178.7977 Y177.0279
G1 X179.8681 Y176.3719
G1 X181.0279 Y175.8915
G1 X182.2485 Y175.5985
G1 X183.5 Y175.5
G1 X184.7515 Y175.5985
G1 X185.9721 Y175.8915
G1 X187.1319 Y176.3719
G1 X188.2023 Y177.0279
G1 X189.1569 Y177.8431
G1 X189.9721 Y178.7977
G1 X190.6281 Y179.8681
G1 X191.1085 Y181.0279
G1 X191.4015 Y182.2485
G1 X191.5 Y183.5
G0 X175.5415 Y184.0267 F3000
G1 X182.9733 Y191.4585 F200
G0 X186.6041 Y190.8467 F3000
G1 X176.1533 Y180.3959 F200
G0 X177.8431 Y177.8431 F3000
G1 X189.1569 Y189.1569 F200
G0 X190.8467 Y186.6041 F3000
G1 X180.3959 Y176.1533 F200
G0 X184.0267 Y175.5415 F3000
G1 X191.4585 Y182.9733 F200
M106 S0
G0 Z1 F3000
G0 X68.5 Y44.5 F3000
M106 S255
G1 X68.5 Y60.5 F200
G1 X68.4015 Y61.7515
G1 X68.1085 Y62.9721
G1 X67.6281 Y64.1319
G1 X66.9721 Y65.2023
G1 X66.1569 Y66.1569
G1 X65.2023 Y66.9721
G1 X64.1319 Y67.6281
G1 X62.9721 Y68.1085
G1 X61.7515 Y68.4015
G1 X60.5 Y68.5
G1 X59.2485 Y68.4015
G1 X58.0279 Y68.1085
G1 X56.8681 Y67.6281
G1 X55.7977 Y66.9721
G1 X54.8431 Y66.1569
G1 X54.0279 Y65.2023
G1 X53.3719 Y64.1319
G1 X52.8915 Y62.9721
G1 X52.5985 Y61.7515
G1 X52.5 Y60.5
G1 X52.5985 Y59.2485
G1 X52.8915 Y58.0279
G1 X53.3719 Y56.8681
G1 X54.0279 Y55.7977
G1 X54.8431 Y54.8431
G1 X55.7977 Y54.0279
G1 X56.8681 Y53.3719
G1 X58.0279 Y52.8915
G1 X59.2485 Y52.5985
G1 X60.5 Y52.5
G1 X61.7515 Y52.5985
G1 X62.9721 Y52.8915
G1 X64.1319 Y53.3719
G1 X65.2023 Y54.0279
G1 X66.1569 Y54.8431
G1 X66.9721 Y55.7977
G1 X67.6281 Y56.8681
G1 X68.1085 Y58.0279
G1 X68.4015 Y59.2485
G1 X68.5 Y60.5
G0 X54.5 Y55.2449 F3000
G1 X54.5 Y65.7551 F200
G0 X57.5 Y67.8898 F3000
G1 X57.5 Y53.1102 F200
G0 X60.5 Y52.5 F3000
G1 X60.5 Y68.5 F200
G0 X63.5 Y67.8898 F3000
G1 X63.5 Y53.1102 F200
G0 X66.5 Y55.2449 F3000
G1 X66.5 Y65.7551 F200
M106 S0
G0 X109.5 Y44.5 F3000
M106 S255
G1 X109.5 Y60.5 F200
G1 X109.4015 Y61.7515
G1 X109.1085 Y62.9721
G1 X108.6281 Y64.1319
G1 X107.9721 Y65.2023
G1 X107.1569 Y66.1569
G1 X106.2023 Y66.9721
G1 X105.1319 Y67.6281
G1 X103.9721 Y68.1085
G1 X102.7515 Y68.4015
G1 X101.5 Y68.5
G1 X100.2485 Y68.4015
G1 X99.0279 Y68.1085
G1 X97.8681 Y67.6281
G1 X96.7977 Y66.9721
G1 X95.8431 Y66.1569
G1 X95.0279 Y65.2023
G1 X94.3719 Y64.1319
G1 X93.8915 Y62.9721
G1 X93.5985 Y61.7515
G1 X93.5 Y60.5
G1 X93.5985 Y59.2485
G1 X93.8915 Y58.0279
G1 X94.3719 Y56.8681
G1 X95.0279 Y55.7977
G1 X95.8431 Y54.8431
G1 X96.7977 Y54.0279
G1 X97.8681 Y53.3719
G1 X99.0279 Y52.8915
G1 X100.2485 Y52.5985
G1 X101.5 Y52.5
G1 X102.7515 Y52.5985
G1 X103.9721 Y52.8915
G1 X105.1319 Y53.3719
G1 X106.2023 Y54.0279
G1 X107.1569 Y54.8431
G1 X107.9721 Y55.7977
G1 X108.6281 Y56.8681
G1 X109.1085 Y58.0279
G1 X109.4015 Y59.2485
G1 X109.5 Y60.5
G0 X95.5 Y55.2449 F3000
G1 X95.5 Y65.7551 F200
G0 X98.5 Y67.8898 F3000
G1 X98.5 Y53.1102 F200
G0 X101.5 Y52.5 F3000
G1 X101.5 Y68.5 F200
G0 X104.5 Y67.8898 F3000
G1 X104.5 Y53.1102 F200
G0 X107.5 Y55.2449 F3000
G1 X107.5 Y65.7551 F200
M106 S0
G0 X150.5 Y44.5 F3000
M106 S255
G1 X150.5 Y60.5 F200
G1 X150.4015 Y61.7515
G1 X150.1085 Y62.9721
G1 X149.6281 Y64.1319
G1 X148.9721 Y65.2023
G1 X148.1569 Y66.1569
G1 X147.2023 Y66.9721
G1 X146.1319 Y67.6281
G1 X144.9721 Y68.1085
G1 X143.7515 Y68.4015
G1 X142.5 Y68.5
G1 X141.2485 Y68.4015
G1 X140.0279 Y68.1085
G1 X138.8681 Y67.6281
G1 X137.7977 Y66.9721
G1 X136.8431 Y66.1569
G1 X136.0279 Y65.2023
G1 X135.3719 Y64.1319
G1 X134.8915 Y62.9721
G1 X134.5985 Y61.7515
G1 X134.5 Y60.5
G1 X134.5985 Y59.2485
G1 X134.8915 Y58.0279
G1 X135.3719 Y56.8681
G1 X136.0279 Y55.7977
G1 X136.8431 Y54.8431
G1 X137.7977 Y54.0279
G1 X138.8681 Y53.3719
G1 X140.0279 Y52.8915
G1 X141.2485 Y52.5985
G1 X142.5 Y52.5
G1 X143.7515 Y52.5985
G1 X144.9721 Y52.8915
G1 X146.1319 Y53.3719
G1 X147.2023 Y54.0279
G1 X148.1569 Y54.8431
G1 X148.9721 Y55.7977
G1 X149.6281 Y56.8681
G1 X150.1085 Y58.0279
G1 X150.4015 Y59.2485
G1 X150.5 Y60.5
G0 X136.5 Y55.2449 F3000
G1 X136.5 Y65.7551 F200
G0 X139.5 Y67.8898 F3000
G1 X139.5 Y53.1102 F200
G0 X142.5 Y52.5 F3000
G1 X142.5 Y68.5 F200
G0 X145.5 Y67.8898 F3000
G1 X145.5 Y53.1102 F200
G0 X148.5 Y55.2449 F3000
G1 X148.5 Y65.7551 F200
M106 S0
G0 X191.5 Y44.5 F3000
M106 S255
G1 X191.5 Y60.5 F200
G1 X191.4015 Y61.7515
G1 X191.1085 Y62.9721
G1 X190.6281 Y64.1319
G1 X189.9721 Y65.2023
G1 X189.1569 Y66.1569
G1 X188.2023 Y66.9721
G1 X187.1319 Y67.6281
G1 X185.9721 Y68.1085
G1 X184.7515 Y68.4015
G1 X183.5 Y68.5
G1 X182.2485 Y68.4015
G1 X181.0279 Y68.1085
G1 X179.8681 Y67.6281
G1 X178.7977 Y66.9721
G1 X177.8431 Y66.1569
G1 X177.0279 Y65.2023
G1 X176.3719 Y64.1319
G1 X175.8915 Y62.9721
G1 X175.5985 Y61.7515
G1 X175.5 Y60.5
G1 X175.5985 Y59.2485
G1 X175.8915 Y58.0279
G1 X176.3719 Y56.8681
G1 X177.0279 Y55.7977
G1 X177.8431 Y54.8431
G1 X178.7977 Y54.0279
G1 X179.8681 Y53.3719
G1 X181.0279 Y52.8915
G1 X182.2485 Y52.5985
G1 X183.5 Y52.5
G1 X184.7515 Y52.5985
G1 X185.9721 Y52.8915
G1 X187.1319 Y53.3719
G1 X188.2023 Y54.0279
G1 X189.1569 Y54.8431
G1 X189.9721 Y55.7977
G1 X190.6281 Y56.8681
G1 X191.1085 Y58.0279
G1 X191.4015 Y59.2485
G1 X191.5 Y60.5
G0 X177.5 Y55.2449 F3000
G1 X177.5 Y65.7551 F200
G0 X180.5 Y67.8898 F3000
G1 X180.5 Y53.1102 F200
G0 X183.5 Y52.5 F3000
G1 X183.5 Y68.5 F200
G0 X186.5 Y67.8898 F3000
G1 X186.5 Y53.1102 F200
G0 X189.5 Y55.2449 F3000
G1 X189.5 Y65.7551 F200
M106 S0
G0 X68.5 Y85.5 F3000
M106 S255
G1 X68.5 Y101.5 F200
G1 X68.4015 Y102.7515
G1 X68.1085 Y103.9721
G1 X67.6281 Y105.1319
G1 X66.9721 Y106.2023
G1 X66.1569 Y107.1569
G1 X65.2023 Y107.9721
G1 X64.1319 Y108.6281
G1 X62.9721 Y109.1085
G1 X61.7515 Y109.4015
G1 X60.5 Y109.5
G1 X59.2485 Y109.4015
G1 X58.0279 Y109.1085
G1 X56.8681 Y108.6281
G1 X55.7977 Y107.9721
G1 X54.8431 Y107.1569
G1 X54.0279 Y106.2023
G1 X53.3719 Y105.1319
G1 X52.8915 Y103.9721
G1 X52.5985 Y102.7515
G1 X52.5 Y101.5
G1 X52.5985 Y100.2485
G1 X52.8915 Y99.0279
G1 X53.3719 Y97.8681
G1 X54.0279 Y96.7977
G1 X54.8431 Y95.8431
G1 X55.7977 Y95.0279
G1 X56.8681 Y94.3719
G1 X58.0279 Y93.8915
G1 X59.2485 Y93.5985
G1 X60.5 Y93.5
G1 X61.7515 Y93.5985
G1 X62.9721 Y93.8915
G1 X64.1319 Y94.3719
G1 X65.2023 Y95.0279
G1 X66.1569 Y95.8431
G1 X66.9721 Y96.7977
G1 X67.6281 Y97.8681
G1 X68.1085 Y99.0279
G1 X68.4015 Y100.2485
G1 X68.5 Y101.5
G0 X54.5 Y96.2449 F3000
G1 X54.5 Y106.7551 F200
G0 X57.5 Y108.8898 F3000
G1 X57.5 Y94.1102 F200
G0 X60.5 Y93.5 F3000
G1 X60.5 Y109.5 F200
G0 X63.5 Y108.8898 F3000
G1 X63.5 Y94.1102 F200
G0 X66.5 Y96.2449 F3000
G1 X66.5 Y106.7551 F200
M106 S0
G0 X109.5 Y85.5 F3000
M106 S255
G1 X109.5 Y101.5 F200
G1 X109.4015 Y102.7515
G1 X109.1085 Y103.9721
G1 X108.6281 Y105.1319
G1 X107.9721 Y106.2023
G1 X107.1569 Y107.1569
G1 X106.2023 Y107.9721
G1 X105.1319 Y108.6281
G1 X103.9721 Y109.1085
G1 X102.7515 Y109.4015
G1 X101.5 Y109.5
G1 X100.2485 Y109.4015
G1 X99.0279 Y109.1085
G1 X97.8681 Y108.6281
G1 X96.7977 Y107.9721
G1 X95.8431 Y107.1569
G1 X95.0279 Y106.2023
G1 X94.3719 Y105.1319
G1 X93.8915 Y103.9721
G1 X93.5985 Y102.7515
G1 X93.5 Y101.5
G1 X93.5985 Y100.2485
G1 X93.8915 Y99.0279
G1 X94.3719 Y97.8681
G1 X95.0279 Y96.7977
G1 X95.8431 Y95.8431
G1 X96.7977 Y95.0279
G1 X97.8681 Y94.3719
G1 X99.0279 Y93.8915
G1 X100.2485 Y93.5985
G1 X101.5 Y93.5
G1 X102.7515 Y93.5985
G1 X103.9721 Y93.8915
G1 X105.1319 Y94.3719
G1 X106.2023 Y95.0279
G1 X107.1569 Y95.8431
G1 X107.9721 Y96.7977
G1 X108.6281 Y97.8681
G1 X109.1085 Y99.0279
G1 X109.4015 Y100.2485
G1 X109.5 Y101.5
G0 X95.5 Y96.2449 F3000
G1 X95.5 Y106.7551 F200
G0 X98.5 Y108.8898 F3000
G1 X98.5 Y94.1102 F200
G0 X101.5 Y93.5 F3000
G1 X101.5 Y109.5 F200
G0 X104.5 Y108.8898 F3000
G1 X104.5 Y94.1102 F200
G0 X107.5 Y96.2449 F3000
G1 X107.5 Y106.7551 F200
M106 S0
G0 X150.5 Y85.5 F3000
M106 S255
G1 X150.5 Y101.5 F200
G1 X150.4015 Y102.7515
G1 X150.1085 Y103.9721
G1 X149.6281 Y105.1319
G1 X148.9721 Y106.2023
G1 X148.1569 Y107.1569
G1 X147.2023 Y107.9721
G1 X146.1319 Y108.6281
G1 X144.9721 Y109.1085
G1 X143.7515 Y109.4015
G1 X142.5 Y109.5
G1 X141.2485 Y109.4015
G1 X140.0279 Y109.1085
G1 X138.8681 Y108.6281
G1 X137.7977 Y107.9721
G1 X136.8431 Y107.1569
G1 X136.0279 Y106.2023
G1 X135.3719 Y105.1319
G1 X134.8915 Y103.9721
G1 X134.5985 Y102.7515
G1 X134.5 Y101.5
G1 X134.5985 Y100.2485
G1 X134.8915 Y99.0279
G1 X135.3719 Y97.8681
G1 X136.0279 Y96.7977
G1 X136.8431 Y95.8431
G1 X137.7977 Y95.0279
G1 X138.8681 Y94.3719
G1 X140.0279 Y93.8915
G1 X141.2485 Y93.5985
G1 X142.5 Y93.5
G1 X143.7515 Y93.5985
G1 X144.9721 Y93.8915
G1 X146.1319 Y94.3719
G1 X147.2023 Y95.0279
G1 X148.1569 Y95.8431
G1 X148.9721 Y96.7977
G1 X149.6281 Y97.8681
G1 X150.1085 Y99.0279
G1 X150.4015 Y100.2485
G1 X150.5 Y101.5
G0 X136.5 Y96.2449 F3000
G1 X136.5 Y106.7551 F200
G0 X139.5 Y108.8898 F3000
G1 X139.5 Y94.1102 F200
G0 X142.5 Y93.5 F3000
G1 X142.5 Y109.5 F200
G0 X145.5 Y108.8898 F3000
G1 X145.5 Y94.1102 F200
G0 X148.5 Y96.2449 F3000
G1 X148.5 Y106.7551 F200
M106 S0
G0 X191.5 Y85.5 F3000
M106 S255
G1 X191.5 Y101.5 F200
G1 X191.4015 Y102.7515
G1 X191.1085 Y103.9721
G1 X190.6281 Y105.1319
G1 X189.9721 Y106.2023
G1 X189.1569 Y107.1569
G1 X188.2023 Y107.9721
G1 X187.1319 Y108.6281
G1 X185.9721 Y109.1085
G1 X184.7515 Y109.4015
G1 X183.5 Y109.5
G1 X182.2485 Y109.4015
G1 X181.0279 Y109.1085
G1 X179.8681 Y108.6281
G1 X178.7977 Y107.9721
G1 X177.8431 Y107.1569
G1 X177.0279 Y106.2023
G1 X176.3719 Y105.1319
G1 X175.8915 Y103.9721
G1 X175.5985 Y102.7515
G1 X175.5 Y101.5
G1 X175.5985 Y100.2485
G1 X175.8915 Y99.0279
G1 X176.3719 Y97.8681
G1 X177.0279 Y96.7977
G1 X177.8431 Y95.8431
G1 X178.7977 Y95.0279
G1 X179.8681 Y94.3719
G1 X181.0279 Y93.8915
G1 X182.2485 Y93.5985
G1 X183.5 Y93.5
G1 X184.7515 Y93.5985
G1 X185.9721 Y93.8915
G1 X187.1319 Y94.3719
G1 X188.2023 Y95.0279
G1 X189.1569 Y95.8431
G1 X189.9721 Y96.7977
G1 X190.6281 Y97.8681
G1 X191.1085 Y99.0279
G1 X191.4015 Y100.2485
G1 X191.5 Y101.5
G0 X177.5 Y96.2449 F3000
G1 X177.5 Y106.7551 F200
G0 X180.5 Y108.8898 F3000
G1 X180.5 Y94.1102 F200
G0 X183.5 Y93.5 F3000
G1 X183.5 Y109.5 F200
G0 X186.5 Y108.8898 F3000
G1 X186.5 Y94.1102 F200
G0 X189.5 Y96.2449 F3000
G1 X189.5 Y106.7551 F200
M106 S0
G0 X68.5 Y126.5 F3000
M106 S255
G1 X68.5 Y142.5 F200
G1 X68.4015 Y143.7515
G1 X68.1085 Y144.9721
G1 X67.6281 Y146.1319
G1 X66.9721 Y147.2023
G1 X66.1569 Y148.1569
G1 X65.2023 Y148.9721
G1 X64.1319 Y149.6281
G1 X62.9721 Y150.1085
G1 X61.7515 Y150.4015
G1 X60.5 Y150.5
G1 X59.2485 Y150.4015
G1 X58.0279 Y150.1085
G1 X56.8681 Y149.6281
G1 X55.7977 Y148.9721
G1 X54.8431 Y148.1569
G1 X54.0279 Y147.2023
G1 X53.3719 Y146.1319
G1 X52.8915 Y144.9721
G1 X52.5985 Y143.7515
G1 X52.5 Y142.5
G1 X52.5985 Y141.2485
G1 X52.8915 Y140.0279
G1 X53.3719 Y138.8681
G1 X54.0279 Y137.7977
G1 X54.8431 Y136.8431
G1 X55.7977 Y136.0279
G1 X56.8681 Y135.3719
G1 X58.0279 Y134.8915
G1 X59.2485 Y134.5985
G1 X60.5 Y134.5
G1 X61.7515 Y134.5985
G1 X62.9721 Y134.8915
G1 X64.1319 Y135.3719
G1 X65.2023 Y136.0279
G1 X66.1569 Y136.8431
G1 X66.9721 Y137.7977
G1 X67.6281 Y138.8681
G1 X68.1085 Y140.0279
G1 X68.4015 Y141.2485
G1 X68.5 Y142.5
G0 X54.5 Y137.2449 F3000
G1 X54.5 Y147.7551 F200
G0 X57.5 Y149.8898 F3000
G1 X57.5 Y135.1102 F200
G0 X60.5 Y134.5 F3000
G1 X60.5 Y150.5 F200
G0 X63.5 Y149.8898 F3000
G1 X63.5 Y135.1102 F200
G0 X66.5 Y137.2449 F3000
G1 X66.5 Y147.7551 F200
M106 S0
G0 X109.5 Y126.5 F3000
M106 S255
G1 X109.5 Y142.5 F200
G1 X109.4015 Y143.7515
G1 X109.1085 Y144.9721
G1 X108.6281 Y146.1319
G1 X107.9721 Y147.2023
G1 X107.1569 Y148.1569
G1 X106.2023 Y148.9721
G1 X105.1319 Y149.6281
G1 X103.9721 Y150.1085
G1 X102.7515 Y150.4015
G1 X101.5 Y150.5
G1 X100.2485 Y150.4015
G1 X99.0279 Y150.1085
G1 X97.8681 Y149.6281
G1 X96.7977 Y148.9721
G1 X95.8431 Y148.1569
G1 X95.0279 Y147.2023
G1 X94.3719 Y146.1319
G1 X93.8915 Y144.9721
G1 X93.5985 Y143.7515
G1 X93.5 Y142.5
G1 X93.5985 Y141.2485
G1 X93.8915 Y140.0279
G1 X94.3719 Y138.8681
G1 X95.0279 Y137.7977
G1 X95.8431 Y136.8431
G1 X96.7977 Y136.0279
G1 X97.8681 Y135.3719
G1 X99.0279 Y134.8915
G1 X100.2485 Y134.5985
G1 X101.5 Y134.5
G1 X102.7515 Y134.5985
G1 X103.9721 Y134.8915
G1 X105.1319 Y135.3719
G1 X106.2023 Y136.0279
G1 X107.1569 Y136.8431
G1 X107.9721 Y137.7977
G1 X108.6281 Y138.8681
G1 X109.1085 Y140.0279
G1 X109.4015 Y141.2485
G1 X109.5 Y142.5
G0 X95.5 Y137.2449 F3000
G1 X95.5 Y147.7551 F200
G0 X98.5 Y149.8898 F3000
G1 X98.5 Y135.1102 F200
G0 X101.5 Y134.5 F3000
G1 X101.5 Y150.5 F200
G0 X104.5 Y149.8898 F3000
G1 X104.5 Y135.1102 F200
G0 X107.5 Y137.2449 F3000
G1 X107.5 Y147.7551 F200
M106 S0
G0 X150.5 Y126.5 F3000
M106 S255
G1 X150.5 Y142.5 F200
G1 X150.4015 Y143.7515
G1 X150.1085 Y144.9721
G1 X149.6281 Y146.1319
G1 X148.9721 Y147.2023
G1 X148.1569 Y148.1569
G1 X147.2023 Y148.9721
G1 X146.1319 Y149.6281
G1 X144.9721 Y150.1085
G1 X143.7515 Y150.4015
G1 X142.5 Y150.5
G1 X141.2485 Y150.4015
G1 X140.0279 Y150.1085
G1 X138.8681 Y149.6281
G1 X137.7977 Y148.9721
G1 X136.8431 Y148.1569
G1 X136.0279 Y147.2023
G1 X135.3719 Y146.1319
G1 X134.8915 Y144.9721
G1 X134.5985 Y143.7515
G1 X134.5 Y142.5
G1 X134.5985 Y141.2485
G1 X134.8915 Y140.0279
G1 X135.3719 Y138.8681
G1 X136.0279 Y137.7977
G1 X136.8431 Y136.8431
G1 X137.7977 Y136.0279
G1 X138.8681 Y135.3719
G1 X140.0279 Y134.8915
G1 X141.2485 Y134.5985
G1 X142.5 Y134.5
G1 X143.7515 Y134.5985
G1 X144.9721 Y134.8915
G1 X146.1319 Y135.3719
G1 X147.2023 Y136.0279
G1 X148.1569 Y136.8431
G1 X148.9721 Y137.7977
G1 X149.6281 Y138.8681
G1 X150.1085 Y140.0279
G1 X150.4015 Y141.2485
G1 X150.5 Y142.5
G0 X136.5 Y137.2449 F3000
G1 X136.5 Y147.7551 F200
G0 X139.5 Y149.8898 F3000
G1 X139.5 Y135.1102 F200
G0 X142.5 Y134.5 F3000
G1 X142.5 Y150.5 F200
G0 X145.5 Y149.8898 F3000
G1 X145.5 Y135.1102 F200
G0 X148.5 Y137.2449 F3000
G1 X148.5 Y147.7551 F200
M106 S0
G0 X191.5 Y126.5 F3000
M106 S255
G1 X191.5 Y142.5 F200
G1 X191.4015 Y143.7515
G1 X191.1085 Y144.9721
G1 X190.6281 Y146.1319
G1 X189.9721 Y147.2023
G1 X189.1569 Y148.1569
G1 X188.2023 Y148.9721
G1 X187.1319 Y149.6281
G1 X185.9721 Y150.1085
G1 X184.7515 Y150.4015
G1 X183.5 Y150.5
G1 X182.2485 Y150.4015
G1 X181.0279 Y150.1085
G1 X179.8681 Y149.6281
G1 X178.7977 Y148.9721
G1 X177.8431 Y148.1569
G1 X177.0279 Y147.2023
G1 X176.3719 Y146.1319
G1 X175.8915 Y144.9721
G1 X175.5985 Y143.7515
G1 X175.5 Y142.5
G1 X175.5985 Y141.2485
G1 X175.8915 Y140.0279
G1 X176.3719 Y138.8681
G1 X177.0279 Y137.7977
G1 X177.8431 Y136.8431
G1 X178.7977 Y136.0279
G1 X179.8681 Y135.3719
G1 X181.0279 Y134.8915
G1 X182.2485 Y134.5985
G1 X183.5 Y134.5
G1 X184.7515 Y134.5985
G1 X185.9721 Y134.8915
G1 X187.1319 Y135.3719
G1 X188.2023 Y136.0279
G1 X189.1569 Y136.8431
G1 X189.9721 Y137.7977
G1 X190.6281 Y138.8681
G1 X191.1085 Y140.0279
G1 X191.4015 Y141.2485
G1 X191.5 Y142.5
G0 X177.5 Y137.2449 F3000
G1 X177.5 Y147.7551 F200
G0 X180.5 Y149.8898 F3000
G1 X180.5 Y135.1102 F200
G0 X183.5 Y134.5 F3000
G1 X183.5 Y150.5 F200
G0 X186.5 Y149.8898 F3000
G1 X186.5 Y135.1102 F200
G0 X189.5 Y137.2449 F3000
G1 X189.5 Y147.7551 F200
M106 S0
G0 X68.5 Y167.5 F3000
M106 S255
G1 X68.5 Y183.5 F200
G1 X68.4015 Y184.7515
G1 X68.1085 Y185.9721
G1 X67.6281 Y187.1319
G1 X66.9721 Y188.2023
G1 X66.1569 Y189.1569
G1 X65.2023 Y189.9721
G1 X64.1319 Y190.6281
G1 X62.9721 Y191.1085
G1 X61.7515 Y191.4015
G1 X60.5 Y191.5
G1 X59.2485 Y191.4015
G1 X58.0279 Y191.1085
G1 X56.8681 Y190.6281
G1 X55.7977 Y189.9721
G1 X54.8431 Y189.1569
G1 X54.0279 Y188.2023
G1 X53.3719 Y187.1319
G1 X52.8915 Y185.9721
G1 X52.5985 Y184.7515
G1 X52.5 Y183.5
G1 X52.5985 Y182.2485
G1 X52.8915 Y181.0279
G1 X53.3719 Y179.8681
G1 X54.0279 Y178.7977
G1 X54.8431 Y177.8431
G1 X55.7977 Y177.0279
G1 X56.8681 Y176.3719
G1 X58.0279 Y175.8915
G1 X59.2485 Y175.5985
G1 X60.5 Y175.5
G1 X61.7515 Y175.5985
G1 X62.9721 Y175.8915
G1 X64.1319 Y176.3719
G1 X65.2023 Y177.0279
G1 X66.1569 Y177.8431
G1 X66.9721 Y178.7977
G1 X67.6281 Y179.8681
G1 X68.1085 Y181.0279
G1 X68.4015 Y182.2485
G1 X68.5 Y183.5
G0 X54.5 Y178.2449 F3000
G1 X54.5 Y188.7551 F200
G0 X57.5 Y190.8898 F3000
G1 X57.5 Y176.1102 F200
G0 X60.5 Y175.5 F3000
G1 X60.5 Y191.5 F200
G0 X63.5 Y190.8898 F3000
G1 X63.5 Y176.1102 F200
G0 X66.5 Y178.2449 F3000
G1 X66.5 Y188.7551 F200
M106 S0
G0 X109.5 Y167.5 F3000
M106 S255
G1 X109.5 Y183.5 F200
G1 X109.4015 Y184.7515
G1 X109.1085 Y185.9721
G1 X108.6281 Y187.1319
G1 X107.9721 Y188.2023
G1 X107.1569 Y189.1569
G1 X106.2023 Y189.9721
G1 X105.1319 Y190.6281
G1 X103.9721 Y191.1085
G1 X102.7515 Y191.4015
G1 X101.5 Y191.5
G1 X100.2485 Y191.4015
G1 X99.0279 Y191.1085
G1 X97.8681 Y190.6281
G1 X96.7977 Y189.9721
G1 X95.8431 Y189.1569
G1 X95.0279 Y188.2023
G1 X94.3719 Y187.1319
G1 X93.8915 Y185.9721
G1 X93.5985 Y184.7515
G1 X93.5 Y183.5
G1 X93.5985 Y182.2485
G1 X93.8915 Y181.0279
G1 X94.3719 Y179.8681
G1 X95.0279 Y178.7977
G1 X95.8431 Y177.8431
G1 X96.7977 Y177.0279
G1 X97.8681 Y176.3719
G1 X99.0279 Y175.8915
G1 X100.2485 Y175.5985
G1 X101.5 Y175.5
G1 X102.7515 Y175.5985
G1 X103.9721 Y175.8915
G1 X105.1319 Y176.3719
G1 X106.2023 Y177.0279
G1 X107.1569 Y177.8431
G1 X107.9721 Y178.7977
G1 X108.6281 Y179.8681
G1 X109.1085 Y181.0279
G1 X109.4015 Y182.2485
G1 X109.5 Y183.5
G0 X95.5 Y178.2449 F3000
G1 X95.5 Y188.7551 F200
G0 X98.5 Y190.8898 F3000
G1 X98.5 Y176.1102 F200
G0 X101.5 Y175.5 F3000
G1 X101.5 Y191.5 F200
G0 X104.5 Y190.8898 F3000
G1 X104.5 Y176.1102 F200
G0 X107.5 Y178.2449 F3000
G1 X107.5 Y188.7551 F200
M106 S0
G0 X150.5 Y167.5 F3000
M106 S255
G1 X150.5 Y183.5 F200
G1 X150.4015 Y184.7515
G1 X150.1085 Y185.9721
G1 X149.6281 Y187.1319
G1 X148.9721 Y188.2023
G1 X148.1569 Y189.1569
G1 X147.2023 Y189.9721
G1 X146.1319 Y190.6281
G1 X144.9721 Y191.1085
G1 X143.7515 Y191.4015
G1 X142.5 Y191.5
G1 X141.2485 Y191.4015
G1 X140.0279 Y191.1085
G1 X138.8681 Y190.6281
G1 X137.7977 Y189.9721
G1 X136.8431 Y189.1569
G1 X136.0279 Y188.2023
G1 X135.3719 Y187.1319
G1 X134.8915 Y185.9721
G1 X134.5985 Y184.7515
G1 X134.5 Y183.5
G1 X134.5985 Y182.2485
G1 X134.8915 Y181.0279
G1 X135.3719 Y179.8681
G1 X136.0279 Y178.7977
G1 X136.8431 Y177.8431
G1 X137.7977 Y177.0279
G1 X138.8681 Y176.3719
G1 X140.0279 Y175.8915
G1 X141.2485 Y175.5985
G1 X142.5 Y175.5
G1 X143.7515 Y175.5985
G1 X144.9721 Y175.8915
G1 X146.1319 Y176.3719
G1 X147.2023 Y177.0279
G1 X148.1569 Y177.8431
G1 X148.9721 Y178.7977
G1 X149.6281 Y179.8681
G1 X150.1085 Y181.0279
G1 X150.4015 Y182.2485
G1 X150.5 Y183.5
G0 X136.5 Y178.2449 F3000
G1 X136.5 Y188.7551 F200
G0 X139.5 Y190.8898 F3000
G1 X139.5 Y176.1102 F200
G0 X142.5 Y175.5 F3000
G1 X142.5 Y191.5 F200
G0 X145.5 Y190.8898 F3000
G1 X145.5 Y176.1102 F200
G0 X148.5 Y178.2449 F3000
G1 X148.5 Y188.7551 F200
M106 S0
G0 X191.5 Y167.5 F3000
M106 S255
G1 X191.5 Y183.5 F200
G1 X191.4015 Y184.7515
G1 X191.1085 Y185.9721
G1 X190.6281 Y187.1319
G1 X189.9721 Y188.2023
G1 X189.1569 Y189.1569
G1 X188.2023 Y189.9721
G1 X187.1319 Y190.6281
G1 X185.9721 Y191.1085
G1 X184.7515 Y191.4015
G1 X183.5 Y191.5
G1 X182.2485 Y191.4015
G1 X181.0279 Y191.1085
G1 X179.8681 Y190.6281
G1 X178.7977 Y189.9721
G1 X177.8431 Y189.1569
G1 X177.0279 Y188.2023
G1 X176.3719 Y187.1319
G1 X175.8915 Y185.9721
G1 X175.5985 Y184.7515
G1 X175.5 Y183.5
G1 X175.5985 Y182.2485
G1 X175.8915 Y181.0279
G1 X176.3719 Y179.8681
G1 X177.0279 Y178.7977
G1 X177.8431 Y177.8431
G1 X178.7977 Y177.0279
G1 X179.8681 Y176.3719
G1 X181.0279 Y175.8915
G1 X182.2485 Y175.5985
G1 X183.5 Y175.5
G1 X184.7515 Y175.5985
G1 X185.9721 Y175.8915
G1 X187.1319 Y176.3719
G1 X188.2023 Y177.0279
G1 X189.1569 Y177.8431
G1 X189.9721 Y178.7977
G1 X190.6281 Y179.8681
G1 X191.1085 Y181.0279
G1 X191.4015 Y182.2485
G1 X191.5 Y183.5
G0 X177.5 Y178.2449 F3000
G1 X177.5 Y188.7551 F200
G0 X180.5 Y190.8898 F3000
G1 X180.5 Y176.1102 F200
G0 X183.5 Y175.5 F3000
G1 X183.5 Y191.5 F200
G0 X186.5 Y190.8898 F3000
G1 X186.5 Y176.1102 F200
G0 X189.5 Y178.2449 F3000
G1 X189.5 Y188.7551 F200
M106 S0
G0 Z1.5 F3000
G0 X68.5 Y44.5 F3000
M106 S255
G1 X68.5 Y60.5 F200
G1 X68.4015 Y61.7515
G1 X68.1085 Y62.9721
G1 X67.6281 Y64.1319
G1 X66.9721 Y65.2023
G1 X66.1569 Y66.1569
G1 X65.2023 Y66.9721
G1 X64.1319 Y67.6281
G1 X62.9721 Y68.1085
G1 X61.7515 Y68.4015
G1 X60.5 Y68.5
G1 X59.2485 Y68.4015
G1 X58.0279 Y68.1085
G1 X56.8681 Y67.6281
G1 X55.7977 Y66.9721
G1 X54.8431 Y66.1569
G1 X54.0279 Y65.2023
G1 X53.3719 Y64.1319
G1 X52.8915 Y62.9721
G1 X52.5985 Y61.7515
G1 X52.5 Y60.5
G1 X52.5985 Y59.2485
G1 X52.8915 Y58.0279
G1 X53.3719 Y56.8681
G1 X54.0279 Y55.7977
G1 X54.8431 Y54.8431
G1 X55.7977 Y54.0279
G1 X56.8681 Y53.3719
G1 X58.0279 Y52.8915
G1 X59.2485 Y52.5985
G1 X60.5 Y52.5
G1 X61.7515 Y52.5985
G1 X62.9721 Y52.8915
G1 X64.1319 Y53.3719
G1 X65.2023 Y54.0279
G1 X66.1569 Y54.8431
G1 X66.9721 Y55.7977
G1 X67.6281 Y56.8681
G1 X68.1085 Y58.0279
G1 X68.4015 Y59.2485
G1 X68.5 Y60.5
G0 X59.9733 Y52.5415 F3000
G1 X52.5415 Y59.9733 F200
G0 X53.1533 Y63.6041 F3000
G1 X63.6041 Y53.1533 F200
G0 X66.1569 Y54.8431 F3000
G1 X54.8431 Y66.1569 F200
G0 X57.3959 Y67.8467 F3000
G1 X67.8467 Y57.3959 F200
G0 X68.4585 Y61.0267 F3000
G1 X61.0267 Y68.4585 F200
M106 S0
G0 X109.5 Y44.5 F3000
M106 S255
G1 X109.5 Y60.5 F200
G1 X109.4015 Y61.7515
G1 X109.1085 Y62.9721
G1 X108.6281 Y64.1319
G1 X107.9721 Y65.2023
G1 X107.1569 Y66.1569
G1 X106.2023 Y66.9721
G1 X105.1319 Y67.6281
G1 X103.9721 Y68.1085
G1 X102.7515 Y68.4015
G1 X101.5 Y68.5
G1 X100.2485 Y68.4015
G1 X99.0279 Y68.1085
G1 X97.8681 Y67.6281
G1 X96.7977 Y66.9721
G1 X95.8431 Y66.1569
G1 X95.0279 Y65.2023
G1 X94.3719 Y64.1319
G1 X93.8915 Y62.9721
G1 X93.5985 Y61.7515
G1 X93.5 Y60.5
G1 X93.5985 Y59.2485
G1 X93.8915 Y58.0279
G1 X94.3719 Y56.8681
G1 X95.0279 Y55.7977
G1 X95.8431 Y54.8431
G1 X96.7977 Y54.0279
G1 X97.8681 Y53.3719
G1 X99.0279 Y52.8915
G1 X100.2485 Y52.5985
G1 X101.5 Y52.5
G1 X102.7515 Y52.5985
G1 X103.9721 Y52.8915
G1 X105.1319 Y53.3719
G1 X106.2023 Y54.0279
G1 X107.1569 Y54.8431
G1 X107.9721 Y55.7977
G1 X108.6281 Y56.8681
G1 X109.1085 Y58.0279
G1 X109.4015 Y59.2485
G1 X109.5 Y60.5
G0 X100.9733 Y52.5415 F3000
G1 X93.5415 Y59.9733 F200
G0 X94.1533 Y63.6041 F3000
G1 X104.6041 Y53.1533 F200
G0 X107.1569 Y54.8431 F3000
G1 X95.8431 Y66.1569 F200
G0 X98.3959 Y67.8467 F3000
G1 X108.8467 Y57.3959 F200
G0 X109.4585 Y61.0267 F3000
G1 X102.0267 Y68.4585 F200
M106 S0
G0 X150.5 Y44.5 F3000
M106 S255
G1 X150.5 Y60.5 F200
G1 X150.4015 Y61.7515
G1 X150.1085 Y62.9721
G1 X149.6281 Y64.1319
G1 X148.9721 Y65.2023
G1 X148.1569 Y66.1569
G1 X147.2023 Y66.9721
G1 X146.1319 Y67.6281
G1 X144.9721 Y68.1085
G1 X143.7515 Y68.4015
G1 X142.5 Y68.5
G1 X141.2485 Y68.4015
G1 X140.0279 Y68.1085
G1 X138.8681 Y67.6281
G1 X137.7977 Y66.9721
G1 X136.8431 Y66.1569
G1 X136.0279 Y65.2023
G1 X135.3719 Y64.1319
G1 X134.8915 Y62.9721
G1 X134.5985 Y61.7515
G1 X134.5 Y60.5
G1 X134.5985 Y59.2485
G1 X134.8915 Y58.0279
G1 X135.3719 Y56.8681
G1 X136.0279 Y55.7977
G1 X136.8431 Y54.8431
G1 X137.7977 Y54.0279
G1 X138.8681 Y53.3719
G1 X140.0279 Y52.8915
G1 X141.2485 Y52.5985
G1 X142.5 Y52.5
G1 X143.7515 Y52.5985
G1 X144.9721 Y52.8915
G1 X146.1319 Y53.3719
G1 X147.2023 Y54.0279
G1 X148.1569 Y54.8431
G1 X148.9721 Y55.7977
G1 X149.6281 Y56.8681
G1 X150.1085 Y58.0279
G1 X150.4015 Y59.2485
G1 X150.5 Y60.5
G0 X141.9733 Y52.5415 F3000
G1 X134.5415 Y59.9733 F200
G0 X135.1533 Y63.6041 F3000
G1 X145.6041 Y53.1533 F200
G0 X148.1569 Y54.8431 F3000
G1 X136.8431 Y66.1569 F200
G0 X139.3959 Y67.8467 F3000
G1 X149.8467 Y57.3959 F200
G0 X150.4585 Y61.0267 F3000
G1 X143.0267 Y68.4585 F200
M106 S0
G0 X191.5 Y44.5 F3000
M106 S255
G1 X191.5 Y60.5 F200
G1 X191.4015 Y61.7515
G1 X191.1085 Y62.9721
G1 X190.6281 Y64.1319
G1 X189.9721 Y65.2023
G1 X189.1569 Y66.1569
G1 X188.2023 Y66.9721
G1 X187.1319 Y67.6281
G1 X185.9721 Y68.1085
G1 X184.7515 Y68.4015
G1 X183.5 Y68.5
G1 X182.2485 Y68.4015
G1 X181.0279 Y68.1085
G1 X179.8681 Y67.6281
G1 X178.7977 Y66.9721
G1 X177.8431 Y66.1569
G1 X177.0279 Y65.2023
G1 X176.3719 Y64.1319
G1 X175.8915 Y62.9721
G1 X175.5985 Y61.7515
G1 X175.5 Y60.5
G1 X175.5985 Y59.2485
G1 X175.8915 Y58.0279
G1 X176.3719 Y56.8681
G1 X177.0279 Y55.7977
G1 X177.8431 Y54.8431
G1 X178.7977 Y54.0279
G1 X179.8681 Y53.3719
G1 X181.0279 Y52.8915
G1 X182.2485 Y52.5985
G1 X183.5 Y52.5
G1 X184.7515 Y52.5985
G1 X185.9721 Y52.8915
G1 X187.1319 Y53.3719
G1 X188.2023 Y54.0279
G1 X189.1569 Y54.8431
G1 X189.9721 Y55.7977
G1 X190.6281 Y56.8681
G1 X191.1085 Y58.0279
G1 X191.4015 Y59.2485
G1 X191.5 Y60.5
G0 X182.9733 Y52.5415 F3000
G1 X175.5415 Y59.9733 F200
G0 X176.1533 Y63.6041 F3000
G1 X186.6041 Y53.1533 F200
G0 X189.1569 Y54.8431 F3000
G1 X177.8431 Y66.1569 F200
G0 X180.3959 Y67.8467 F3000
G1 X190.8467 Y57.3959 F200
G0 X191.4585 Y61.0267 F3000
G1 X184.0267 Y68.4585 F200
M106 S0
G0 X68.5 Y85.5 F3000
M106 S255
G1 X68.5 Y101.5 F200
G1 X68.4015 Y102.7515
G1 X68.1085 Y103.9721
G1 X67.6281 Y105.1319
G1 X66.9721 Y106.2023
G1 X66.1569 Y107.1569
G1 X65.2023 Y107.9721
G1 X64.1319 Y108.6281
G1 X62.9721 Y109.1085
G1 X61.7515 Y109.4015
G1 X60.5 Y109.5
G1 X59.2485 Y109.4015
G1 X58.0279 Y109.1085
G1 X56.8681 Y108.6281
G1 X55.7977 Y107.9721
G1 X54.8431 Y107.1569
G1 X54.0279 Y106.2023
G1 X53.3719 Y105.1319
G1 X52.8915 Y103.9721
G1 X52.5985 Y102.7515
G1 X52.5 Y101.5
G1 X52.5985 Y100.2485
G1 X52.8915 Y99.0279
G1 X53.3719 Y97.8681
G1 X54.0279 Y96.7977
G1 X54.8431 Y95.8431
G1 X55.7977 Y95.0279
G1 X56.8681 Y94.3719
G1 X58.0279 Y93.8915
G1 X59.2485 Y93.5985
G1 X60.5 Y93.5
G1 X61.7515 Y93.5985
G1 X62.9721 Y93.8915
G1 X64.1319 Y94.3719
G1 X65.2023 Y95.0279
G1 X66.1569 Y95.8431
G1 X66.9721 Y96.7977
G1 X67.6281 Y97.8681
G1 X68.1085 Y99.0279
G1 X68.4015 Y100.2485
G1 X68.5 Y101.5
G0 X59.9733 Y93.5415 F3000
G1 X52.5415 Y100.9733 F200
G0 X53.1533 Y104.6041 F3000
G1 X63.6041 Y94.1533 F200
G0 X66.1569 Y95.8431 F3000
G1 X54.8431 Y107.1569 F200
G0 X57.3959 Y108.8467 F3000
G1 X67.8467 Y98.3959 F200
G0 X68.4585 Y102.0267 F3000
G1 X61.0267 Y109.4585 F200
M106 S0
G0 X109.5 Y85.5 F3000
M106 S255
G1 X109.5 Y101.5 F200
G1 X109.4015 Y102.7515
G1 X109.1085 Y103.9721
G1 X108.6281 Y105.1319
G1 X107.9721 Y106.2023
G1 X107.1569 Y107.1569
G1 X106.2023 Y107.9721
G1 X105.1319 Y108.6281
G1 X103.9721 Y109.1085
G1 X102.7515 Y109.4015
G1 X101.5 Y109.5
G1 X100.2485 Y109.4015
G1 X99.0279 Y109.1085
G1 X97.8681 Y108.6281
G1 X96.7977 Y107.9721
G1 X95.8431 Y107.1569
G1 X95.0279 Y106.2023
G1 X94.3719 Y105.1319
G1 X93.8915 Y103.9721
G1 X93.5985 Y102.7515
G1 X93.5 Y101.5
G1 X93.5985 Y100.2485
G1 X93.8915 Y99.0279
G1 X94.3719 Y97.8681
G1 X95.0279 Y96.7977
G1 X95.8431 Y95.8431
G1 X96.7977 Y95.0279
G1 X97.8681 Y94.3719
G1 X99.0279 Y93.8915
G1 X100.2485 Y93.5985
G1 X101.5 Y93.5
G1 X102.7515 Y93.5985
G1 X103.9721 Y93.8915
G1 X105.1319 Y94.3719
G1 X106.2023 Y95.0279
G1 X107.1569 Y95.8431
G1 X107.9721 Y96.7977
G1 X108.6281 Y97.8681
G1 X109.1085 Y99.0279
G1 X109.4015 Y100.2485
G1 X109.5 Y101.5
G0 X100.9733 Y93.5415 F3000
G1 X93.5415 Y100.9733 F200
G0 X94.1533 Y104.6041 F3000
G1 X104.6041 Y94.1533 F200
G0 X107.1569 Y95.8431 F3000
G1 X95.8431 Y107.1569 F200
G0 X98.3959 Y108.8467 F3000
G1 X108.8467 Y98.3959 F200
G0 X109.4585 Y102.0267 F3000
G1 X102.0267 Y109.4585 F200
M106 S0
G0 X150.5 Y85.5 F3000
M106 S255
G1 X150.5 Y101.5 F200
G1 X150.4015 Y102.7515
G1 X150.1085 Y103.9721
G1 X149.6281 Y105.1319
G1 X148.9721 Y106.2023
G1 X148.1569 Y107.1569
G1 X147.2023 Y107.9721
G1 X146.1319 Y108.6281
G1 X144.9721 Y109.1085
G1 X143.7515 Y109.4015
G1 X142.5 Y109.5
G1 X141.2485 Y109.4015
G1 X140.0279 Y109.1085
G1 X138.8681 Y108.6281
G1 X137.7977 Y107.9721
G1 X136.8431 Y107.1569
G1 X136.0279 Y106.2023
G1 X135.3719 Y105.1319
G1 X134.8915 Y103.9721
G1 X134.5985 Y102.7515
G1 X134.5 Y101.5
G1 X134.5985 Y100.2485
G1 X134.8915 Y99.0279
G1 X135.3719 Y97.8681
G1 X136.0279 Y96.7977
G1 X136.8431 Y95.8431
G1 X137.7977 Y95.0279
G1 X138.8681 Y94.3719
G1 X140.0279 Y93.8915
G1 X141.2485 Y93.5985
G1 X142.5 Y93.5
G1 X143.7515 Y93.5985
G1 X144.9721 Y93.8915
G1 X146.1319 Y94.3719
G1 X147.2023 Y95.0279
G1 X148.1569 Y95.8431
G1 X148.9721 Y96.7977
G1 X149.6281 Y97.8681
G1 X150.1085 Y99.0279
G1 X150.4015 Y100.2485
G1 X150.5 Y101.5
G0 X141.9733 Y93.5415 F3000
G1 X134.5415 Y100.9733 F200
G0 X135.1533 Y104.6041 F3000
G1 X145.6041 Y94.1533 F200
G0 X148.1569 Y95.8431 F3000
G1 X136.8431 Y107.1569 F200
G0 X139.3959 Y108.8467 F3000
G1 X149.8467 Y98.3959 F200
G0 X150.4585 Y102.0267 F3000
G1 X143.0267 Y109.4585 F200
M106 S0
G0 X191.5 Y85.5 F3000
M106 S255
G1 X191.5 Y101.5 F200
G1 X191.4015 Y102.7515
G1 X191.1085 Y103.9721
G1 X190.6281 Y105.1319
G1 X189.9721 Y106.2023
G1 X189.1569 Y107.1569
G1 X188.2023 Y107.9721
G1 X187.1319 Y108.6281
G1 X185.9721 Y109.1085
G1 X184.7515 Y109.4015
G1 X183.5 Y109.5
G1 X182.2485 Y109.4015
G1 X181.0279 Y109.1085
G1 X179.8681 Y108.6281
G1 X178.7977 Y107.9721
G1 X177.8431 Y107.1569
G1 X177.0279 Y106.2023
G1 X176.3719 Y105.1319
G1 X175.8915 Y103.9721
G1 X175.5985 Y102.7515
G1 X175.5 Y101.5
G1 X175.5985 Y100.2485
G1 X175.8915 Y99.0279
G1 X176.3719 Y97.8681
G1 X177.0279 Y96.7977
G1 X177.8431 Y95.8431
G1 X178.7977 Y95.0279
G1 X179.8681 Y94.3719
G1 X181.0279 Y93.8915
G1 X182.2485 Y93.5985
G1 X183.5 Y93.5
G1 X184.7515 Y93.5985
G1 X185.9721 Y93.8915
G1 X187.1319 Y94.3719
G1 X188.2023 Y95.0279
G1 X189.1569 Y95.8431
G1 X189.9721 Y96.7977
G1 X190.6281 Y97.8681
G1 X191.1085 Y99.0279
G1 X191.4015 Y100.2485
G1 X191.5 Y101.5
G0 X182.9733 Y93.5415 F3000
G1 X175.5415 Y100.9733 F200
G0 X176.1533 Y104.6041 F3000
G1 X186.6041 Y94.1533 F200
G0 X189.1569 Y95.8431 F3000
G1 X177.8431 Y107.1569 F200
G0 X180.3959 Y108.8467 F3000
G1 X190.8467 Y98.3959 F200
G0 X191.4585 Y102.0267 F3000
G1 X184.0267 Y109.4585 F200
M106 S0
G0 X68.5 Y126.5 F3000
M106 S255
G1 X68.5 Y142.5 F200
G1 X68.4015 Y143.7515
G1 X68.1085 Y144.9721
G1 X67.6281 Y146.1319
G1 X66.9721 Y147.2023
G1 X66.1569 Y148.1569
G1 X65.2023 Y148.9721
G1 X64.1319 Y149.6281
G1 X62.9721 Y150.1085
G1 X61.7515 Y150.4015
G1 X60.5 Y150.5
G1 X59.2485 Y150.4015
G1 X58.0279 Y150.1085
G1 X56.8681 Y149.6281
G1 X55.7977 Y148.9721
G1 X54.8431 Y148.1569
G1 X54.0279 Y147.2023
G1 X53.3719 Y146.1319
G1 X52.8915 Y144.9721
G1 X52.5985 Y143.7515
G1 X52.5 Y142.5
G1 X52.5985 Y141.2485
G1 X52.8915 Y140.0279
G1 X53.3719 Y138.8681
G1 X54.0279 Y137.7977
G1 X54.8431 Y136.8431
G1 X55.7977 Y136.0279
G1 X56.8681 Y135.3719
G1 X58.0279 Y134.8915
G1 X59.2485 Y134.5985
G1 X60.5 Y134.5
G1 X61.7515 Y134.5985
G1 X62.9721 Y134.8915
G1 X64.1319 Y135.3719
G1 X65.2023 Y136.0279
G1 X66.1569 Y136.8431
G1 X66.9721 Y137.7977
G1 X67.6281 Y138.8681
G1 X68.1085 Y140.0279
G1 X68.4015 Y141.2485
G1 X68.5 Y142.5
G0 X59.9733 Y134.5415 F3000
G1 X52.5415 Y141.9733 F200
G0 X53.1533 Y145.6041 F3000
G1 X63.6041 Y135.1533 F200
G0 X66.1569 Y136.8431 F3000
G1 X54.8431 Y148.1569 F200
G0 X57.3959 Y149.8467 F3000
G1 X67.8467 Y139.3959 F200
G0 X68.4585 Y143.0267 F3000
G1 X61.0267 Y150.4585 F200
M106 S0
G0 X109.5 Y126.5 F3000
M106 S255
G1 X109.5 Y142.5 F200
G1 X109.4015 Y143.7515
G1 X109.1085 Y144.9721
G1 X108.6281 Y146.1319
G1 X107.9721 Y147.2023
G1 X107.1569 Y148.1569
G1 X106.2023 Y148.9721
G1 X105.1319 Y149.6281
G1 X103.9721 Y150.1085
G1 X102.7515 Y150.4015
G1 X101.5 Y150.5
G1 X100.2485 Y150.4015
G1 X99.0279 Y150.1085
G1 X97.8681 Y149.6281
G1 X96.7977 Y148.9721
G1 X95.8431 Y148.1569
G1 X95.0279 Y147.2023
G1 X94.3719 Y146.1319
G1 X93.8915 Y144.9721
G1 X93.5985 Y143.7515
G1 X93.5 Y142.5
G1 X93.5985 Y141.2485
G1 X93.8915 Y140.0279
G1 X94.3719 Y138.8681
G1 X95.0279 Y137.7977
G1 X95.8431 Y136.8431
G1 X96.7977 Y136.0279
G1 X97.8681 Y135.3719
G1 X99.0279 Y134.8915
G1 X100.2485 Y134.5985
G1 X101.5 Y134.5
G1 X102.7515 Y134.5985
G1 X103.9721 Y134.8915
G1 X105.1319 Y135.3719
G1 X106.2023 Y136.0279
G1 X107.1569 Y136.8431
G1 X107.9721 Y137.7977
G1 X108.6281 Y138.8681
G1 X109.1085 Y140.0279
G1 X109.4015 Y141.2485
G1 X109.5 Y142.5
G0 X100.9733 Y134.5415 F3000
G1 X93.5415 Y141.9733 F200
G0 X94.1533 Y145.6041 F3000
G1 X104.6041 Y135.1533 F200
G0 X107.1569 Y136.8431 F3000
G1 X95.8431 Y148.1569 F200
G0 X98.3959 Y149.8467 F3000
G1 X108.8467 Y139.3959 F200
G0 X109.4585 Y143.0267 F3000
G1 X102.0267 Y150.4585 F200
M106 S0
G0 X150.5 Y126.5 F3000
M106 S255
G1 X150.5 Y142.5 F200
G1 X150.4015 Y143.7515
G1 X150.1085 Y144.9721
G1 X149.6281 Y146.1319
G1 X148.9721 Y147.2023
G1 X148.1569 Y148.1569
G1 X147.2023 Y148.9721
G1 X146.1319 Y149.6281
G1 X144.9721 Y150.1085
G1 X143.7515 Y150.4015
G1 X142.5 Y150.5
G1 X141.2485 Y150.4015
G1 X140.0279 Y150.1085
G1 X138.8681 Y149.6281
G1 X137.7977 Y148.9721
G1 X136.8431 Y148.1569
G1 X136.0279 Y147.2023
G1 X135.3719 Y146.1319
G1 X134.8915 Y144.9721
G1 X134.5985 Y143.7515
G1 X134.5 Y142.5
G1 X134.5985 Y141.2485
G1 X134.8915 Y140.0279
G1 X135.3719 Y138.8681
G1 X136.0279 Y137.7977
G1 X136.8431 Y136.8431
G1 X137.7977 Y136.0279
G1 X138.8681 Y135.3719
G1 X140.0279 Y134.8915
G1 X141.2485 Y134.5985
G1 X142.5 Y134.5
G1 X143.7515 Y134.5985
G1 X144.9721 Y134.8915
G1 X146.1319 Y135.3719
G1 X147.2023 Y136.0279
G1 X148.1569 Y136.8431
G1 X148.9721 Y137.7977
G1 X149.6281 Y138.8681
G1 X150.1085 Y140.0279
G1 X150.4015 Y141.2485
G1 X150.5 Y142.5
G0 X141.9733 Y134.5415 F3000
G1 X134.5415 Y141.9733 F200
G0 X135.1533 Y145.6041 F3000
G1 X145.6041 Y135.1533 F200
G0 X148.1569 Y136.8431 F3000
G1 X136.8431 Y148.1569 F200
G0 X139.3959 Y149.8467 F3000
G1 X149.8467 Y139.3959 F200
G0 X150.4585 Y143.0267 F3000
G1 X143.0267 Y150.4585 F200
M106 S0
G0 X191.5 Y126.5 F3000
M106 S255
G1 X191.5 Y142.5 F200
G1 X191.4015 Y143.7515
G1 X191.1085 Y144.9721
G1 X190.6281 Y146.1319
G1 X189.9721 Y147.2023
G1 X189.1569 Y148.1569
G1 X188.2023 Y148.9721
G1 X187.1319 Y149.6281
G1 X185.9721 Y150.1085
G1 X184.7515 Y150.4015
G1 X183.5 Y150.5
G1 X182.2485 Y150.4015
G1 X181.0279 Y150.1085
G1 X179.8681 Y149.6281
G1 X178.7977 Y148.9721
G1 X177.8431 Y148.1569
G1 X177.0279 Y147.2023
G1 X176.3719 Y146.1319
G1 X175.8915 Y144.9721
G1 X175.5985 Y143.7515
G1 X175.5 Y142.5
G1 X175.5985 Y141.2485
G1 X175.8915 Y140.0279
G1 X176.3719 Y138.8681
G1 X177.0279 Y137.7977
G1 X177.8431 Y136.8431
G1 X178.7977 Y136.0279
G1 X179.8681 Y135.3719
G1 X181.0279 Y134.8915
G1 X182.2485 Y134.5985
G1 X183.5 Y134.5
G1 X184.7515 Y134.5985
G1 X185.9721 Y134.8915
G1 X187.1319 Y135.3719
G1 X188.2023 Y136.0279
G1 X189.1569 Y136.8431
G1 X189.9721 Y137.7977
G1 X190.6281 Y138.8681
G1 X191.1085 Y140.0279
G1 X191.4015 Y141.2485
G1 X191.5 Y142.5
G0 X182.9733 Y134.5415 F3000
G1 X175.5415 Y141.9733 F200
G0 X176.1533 Y145.6041 F3000
G1 X186.6041 Y135.1533 F200
G0 X189.1569 Y136.8431 F3000
G1 X177.8431 Y148.1569 F200
G0 X180.3959 Y149.8467 F3000
G1 X190.8467 Y139.3959 F200
G0 X191.4585 Y143.0267 F3000
G1 X184.0267 Y150.4585 F200
M106 S0
G0 X68.5 Y167.5 F3000
M106 S255
G1 X68.5 Y183.5 F200
G1 X68.4015 Y184.7515
G1 X68.1085 Y185.9721
G1 X67.6281 Y187.1319
G1 X66.9721 Y188.2023
G1 X66.1569 Y189.1569
G1 X65.2023 Y189.9721
G1 X64.1319 Y190.6281
G1 X62.9721 Y191.1085
G1 X61.7515 Y191.4015
G1 X60.5 Y191.5
G1 X59.2485 Y191.4015
G1 X58.0279 Y191.1085
G1 X56.8681 Y190.6281
G1 X55.7977 Y189.9721
G1 X54.8431 Y189.1569
G1 X54.0279 Y188.2023
G1 X53.3719 Y187.1319
G1 X52.8915 Y185.9721
G1 X52.5985 Y184.7515
G1 X52.5 Y183.5
G1 X52.5985 Y182.2485
G1 X52.8915 Y181.0279
G1 X53.3719 Y179.8681
G1 X54.0279 Y178.7977
G1 X54.8431 Y177.8431
G1 X55.7977 Y177.0279
G1 X56.8681 Y176.3719
G1 X58.0279 Y175.8915
G1 X59.2485 Y175.5985
G1 X60.5 Y175.5
G1 X61.7515 Y175.5985
G1 X62.9721 Y175.8915
G1 X64.1319 Y176.3719
G1 X65.2023 Y177.0279
G1 X66.1569 Y177.8431
G1 X66.9721 Y178.7977
G1 X67.6281 Y179.8681
G1 X68.1085 Y181.0279
G1 X68.4015 Y182.2485
G1 X68.5 Y183.5
G0 X59.9733 Y175.5415 F3000
G1 X52.5415 Y182.9733 F200
G0 X53.1533 Y186.6041 F3000
G1 X63.6041 Y176.1533 F200
G0 X66.1569 Y177.8431 F3000
G1 X54.8431 Y189.1569 F200
G0 X57.3959 Y190.8467 F3000
G1 X67.8467 Y180.3959 F200
G0 X68.4585 Y184.0267 F3000
G1 X61.0267 Y191.4585 F200
M106 S0
G0 X109.5 Y167.5 F3000
M106 S255
G1 X109.5 Y183.5 F200
G1 X109.4015 Y184.7515
G1 X109.1085 Y185.9721
G1 X108.6281 Y187.1319
G1 X107.9721 Y188.2023
G1 X107.1569 Y189.1569
G1 X106.2023 Y189.9721
G1 X105.1319 Y190.6281
G1 X103.9721 Y191.1085
G1 X102.7515 Y191.4015
G1 X101.5 Y191.5
G1 X100.2485 Y191.4015
G1 X99.0279 Y191.1085
G1 X97.8681 Y190.6281
G1 X96.7977 Y189.9721
G1 X95.8431 Y189.1569
G1 X95.0279 Y188.2023
G1 X94.3719 Y187.1319
G1 X93.8915 Y185.9721
G1 X93.5985 Y184.7515
G1 X93.5 Y183.5
G1 X93.5985 Y182.2485
G1 X93.8915 Y181.0279
G1 X94.3719 Y179.8681
G1 X95.0279 Y178.7977
G1 X95.8431 Y177.8431
G1 X96.7977 Y177.0279
G1 X97.8681 Y176.3719
G1 X99.0279 Y175.8915
G1 X100.2485 Y175.5985
G1 X101.5 Y175.5
G1 X102.7515 Y175.5985
G1 X103.9721 Y175.8915
G1 X105.1319 Y176.3719
G1 X106.2023 Y177.0279
G1 X107.1569 Y177.8431
G1 X107.9721 Y178.7977
G1 X108.6281 Y179.8681
G1 X109.1085 Y181.0279
G1 X109.4015 Y182.2485
G1 X109.5 Y183.5
G0 X100.9733 Y175.5415 F3000
G1 X93.5415 Y182.9733 F200
G0 X94.1533 Y186.6041 F3000
G1 X104.6041 Y176.1533 F200
G0 X107.1569 Y177.8431 F3000
G1 X95.8431 Y189.1569 F200
G0 X98.3959 Y190.8467 F3000
G1 X108.8467 Y180.3959 F200
G0 X109.4585 Y184.0267 F3000
G1 X102.0267 Y191.4585 F200
M106 S0
G0 X150.5 Y167.5 F3000
M106 S255
G1 X150.5 Y183.5 F200
G1 X150.4015 Y184.7515
G1 X150.1085 Y185.9721
G1 X149.6281 Y187.1319
G1 X148.9721 Y188.2023
G1 X148.1569 Y189.1569
G1 X147.2023 Y189.9721
G1 X146.1319 Y190.6281
G1 X144.9721 Y191.1085
G1 X143.7515 Y191.4015
G1 X142.5 Y191.5
G1 X141.2485 Y191.4015
G1 X140.0279 Y191.1085
G1 X138.8681 Y190.6281
G1 X137.7977 Y189.9721
G1 X136.8431 Y189.1569
G1 X136.0279 Y188.2023
G1 X135.3719 Y187.1319
G1 X134.8915 Y185.9721
G1 X134.5985 Y184.7515
G1 X134.5 Y183.5
G1 X134.5985 Y182.2485
G1 X134.8915 Y181.0279
G1 X135.3719 Y179.8681
G1 X136.0279 Y178.7977
G1 X136.8431 Y177.8431
G1 X137.7977 Y177.0279
G1 X138.8681 Y176.3719
G1 X140.0279 Y175.8915
G1 X141.2485 Y175.5985
G1 X142.5 Y175.5
G1 X143.7515 Y175.5985
G1 X144.9721 Y175.8915
G1 X146.1319 Y176.3719
G1 X147.2023 Y177.0279
G1 X148.1569 Y177.8431
G1 X148.9721 Y178.7977
G1 X149.6281 Y179.8681
G1 X150.1085 Y181.0279
G1 X150.4015 Y182.2485
G1 X150.5 Y183.5
G0 X141.9733 Y175.5415 F3000
G1 X134.5415 Y182.9733 F200
G0 X135.1533 Y186.6041 F3000
G1 X145.6041 Y176.1533 F200
G0 X148.1569 Y177.8431 F3000
G1 X136.8431 Y189.1569 F200
G0 X139.3959 Y190.8467 F3000
G1 X149.8467 Y180.3959 F200
G0 X150.4585 Y184.0267 F3000
G1 X143.0267 Y191.4585 F200
M106 S0
G0 X191.5 Y167.5 F3000
M106 S255
G1 X191.5 Y183.5 F200
G1 X191.4015 Y184.7515
G1 X191.1085 Y185.9721
G1 X190.6281 Y187.1319
G1 X189.9721 Y188.2023
G1 X189.1569 Y189.1569
G1 X188.2023 Y189.9721
G1 X187.1319 Y190.6281
G1 X185.9721 Y191.1085
G1 X184.7515 Y191.4015
G1 X183.5 Y191.5
G1 X182.2485 Y191.4015
G1 X181.0279 Y191.1085
G1 X179.8681 Y190.6281
G1 X178.7977 Y189.9721
G1 X177.8431 Y189.1569
G1 X177.0279 Y188.2023
G1 X176.3719 Y187.1319
G1 X175.8915 Y185.9721
G1 X175.5985 Y184.7515
G1 X175.5 Y183.5
G1 X175.5985 Y182.2485
G1 X175.8915 Y181.0279
G1 X176.3719 Y179.8681
G1 X177.0279 Y178.7977
G1 X177.8431 Y177.8431
G1 X178.7977 Y177.0279
G1 X179.8681 Y176.3719
G1 X181.0279 Y175.8915
G1 X182.2485 Y175.5985
G1 X183.5 Y175.5
G1 X184.7515 Y175.5985
G1 X185.9721 Y175.8915
G1 X187.1319 Y176.3719
G1 X188.2023 Y177.0279
G1 X189.1569 Y177.8431
G1 X189.9721 Y178.7977
G1 X190.6281 Y179.8681
G1 X191.1085 Y181.0279
G1 X191.4015 Y182.2485
G1 X191.5 Y183.5
G0 X182.9733 Y175.5415 F3000
G1 X175.5415 Y182.9733 F200
G0 X176.1533 Y186.6041 F3000
G1 X186.6041 Y176.1533 F200
G0 X189.1569 Y177.8431 F3000
G1 X177.8431 Y189.1569 F200
G0 X180.3959 Y190.8467 F3000
G1 X190.8467 Y180.3959 F200
G0 X191.4585 Y184.0267 F3000
G1 X184.0267 Y191.4585 F200
M106 S0
G0 Z2 F3000
G0 X68.5 Y44.5 F3000
M106 S255
G1 X68.5 Y60.5 F200
G1 X68.4015 Y61.7515
G1 X68.1085 Y62.9721
G1 X67.6281 Y64.1319
G1 X66.9721 Y65.2023
G1 X66.1569 Y66.1569
G1 X65.2023 Y66.9721
G1 X64.1319 Y67.6281
G1 X62.9721 Y68.1085
G1 X61.7515 Y68.4015
G1 X60.5 Y68.5
G1 X59.2485 Y68.4015
G1 X58.0279 Y68.1085
G1 X56.8681 Y67.6281
G1 X55.7977 Y66.9721
G1 X54.8431 Y66.1569
G1 X54.0279 Y65.2023
G1 X53.3719 Y64.1319
G1 X52.8915 Y62.9721
G1 X52.5985 Y61.7515
G1 X52.5 Y60.5
G1 X52.5985 Y59.2485
G1 X52.8915 Y58.0279
G1 X53.3719 Y56.8681
G1 X54.0279 Y55.7977
G1 X54.8431 Y54.8431
G1 X55.7977 Y54.0279
G1 X56.8681 Y53.3719
G1 X58.0279 Y52.8915
G1 X59.2485 Y52.5985
G1 X60.5 Y52.5
G1 X61.7515 Y52.5985
G1 X62.9721 Y52.8915
G1 X64.1319 Y53.3719
G1 X65.2023 Y54.0279
G1 X66.1569 Y54.8431
G1 X66.9721 Y55.7977
G1 X67.6281 Y56.8681
G1 X68.1085 Y58.0279
G1 X68.4015 Y59.2485
G1 X68.5 Y60.5
G0 X55.2449 Y66.5 F3000
G1 X65.7551 Y66.5 F200
G0 X67.8898 Y63.5 F3000
G1 X53.1102 Y63.5 F200
G0 X52.5 Y60.5 F3000
G1 X68.5 Y60.5 F200
G0 X67.8898 Y57.5 F3000
G1 X53.1102 Y57.5 F200
G0 X55.2449 Y54.5 F3000
G1 X65.7551 Y54.5 F200
M106 S0
G0 X109.5 Y44.5 F3000
M106 S255
G1 X109.5 Y60.5 F200
G1 X109.4015 Y61.7515
G1 X109.1085 Y62.9721
G1 X108.6281 Y64.1319
G1 X107.9721 Y65.2023
G1 X107.1569 Y66.1569
G1 X106.2023 Y66.9721
G1 X105.1319 Y67.6281
G1 X103.9721 Y68.1085
G1 X102.7515 Y68.4015
G1 X101.5 Y68.5
G1 X100.2485 Y68.4015
G1 X99.0279 Y68.1085
G1 X97.8681 Y67.6281
G1 X96.7977 Y66.9721
G1 X95.8431 Y66.1569
G1 X95.0279 Y65.2023
G1 X94.3719 Y64.1319
G1 X93.8915 Y62.9721
G1 X93.5985 Y61.7515
G1 X93.5 Y60.5
G1 X93.5985 Y59.2485
G1 X93.8915 Y58.0279
G1 X94.3719 Y56.8681
G1 X95.0279 Y55.7977
G1 X95.8431 Y54.8431
G1 X96.7977 Y54.0279
G1 X97.8681 Y53.3719
G1 X99.0279 Y52.8915
G1 X100.2485 Y52.5985
G1 X101.5 Y52.5
G1 X102.7515 Y52.5985
G1 X103.9721 Y52.8915
G1 X105.1319 Y53.3719
G1 X106.2023 Y54.0279
G1 X107.1569 Y54.8431
G1 X107.9721 Y55.7977
G1 X108.6281 Y56.8681
G1 X109.1085 Y58.0279
G1 X109.4015 Y59.2485
G1 X109.5 Y60.5
G0 X96.2449 Y66.5 F3000
G1 X106.7551 Y66.5 F200
G0 X108.8898 Y63.5 F3000
G1 X94.1102 Y63.5 F200
G0 X93.5 Y60.5 F3000
G1 X109.5 Y60.5 F200
G0 X108.8898 Y57.5 F3000
G1 X94.1102 Y57.5 F200
G0 X96.2449 Y54.5 F3000
G1 X106.7551 Y54.5 F200
M106 S0
G0 X150.5 Y44.5 F3000
M106 S255
G1 X150.5 Y60.5 F200
G1 X150.4015 Y61.7515
G1 X150.1085 Y62.9721
G1 X149.6281 Y64.1319
G1 X148.9721 Y65.2023
G1 X148.1569 Y66.1569
G1 X147.2023 Y66.9721
G1 X146.1319 Y67.6281
G1 X144.9721 Y68.1085
G1 X143.7515 Y68.4015
G1 X142.5 Y68.5
G1 X141.2485 Y68.4015
G1 X140.0279 Y68.1085
G1 X138.8681 Y67.6281
G1 X137.7977 Y66.9721
G1 X136.8431 Y66.1569
G1 X136.0279 Y65.2023
G1 X135.3719 Y64.1319
G1 X134.8915 Y62.9721
G1 X134.5985 Y61.7515
G1 X134.5 Y60.5
G1 X134.5985 Y59.2485
G1 X134.8915 Y58.0279
G1 X135.3719 Y56.8681
G1 X136.0279 Y55.7977
G1 X136.8431 Y54.8431
G1 X137.7977 Y54.0279
G1 X138.8681 Y53.3719
G1 X140.0279 Y52.8915
G1 X141.2485 Y52.5985
G1 X142.5 Y52.5
G1 X143.7515 Y52.5985
G1 X144.9721 Y52.8915
G1 X146.1319 Y53.3719
G1 X147.2023 Y54.0279
G1 X148.1569 Y54.8431
G1 X148.9721 Y55.7977
G1 X149.6281 Y56.8681
G1 X150.1085 Y58.0279
G1 X150.4015 Y59.2485
G1 X150.5 Y60.5
G0 X137.2449 Y66.5 F3000
G1 X147.7551 Y66.5 F200
G0 X149.8898 Y63.5 F3000
G1 X135.1102 Y63.5 F200
G0 X134.5 Y60.5 F3000
G1 X150.5 Y60.5 F200
G0 X149.8898 Y57.5 F3000
G1 X135.1102 Y57.5 F200
G0 X137.2449 Y54.5 F3000
G1 X147.7551 Y54.5 F200
M106 S0
G0 X191.5 Y44.5 F3000
M106 S255
G1 X191.5 Y60.5 F200
G1 X191.4015 Y61.7515
G1 X191.1085 Y62.9721
G1 X190.6281 Y64.1319
G1 X189.9721 Y65.2023
G1 X189.1569 Y66.1569
G1 X188.2023 Y66.9721
G1 X187.1319 Y67.6281
G1 X185.9721 Y68.1085
G1 X184.7515 Y68.4015
G1 X183.5 Y68.5
G1 X182.2485 Y68.4015
G1 X181.0279 Y68.1085
G1 X179.8681 Y67.6281
G1 X178.7977 Y66.9721
G1 X177.8431 Y66.1569
G1 X177.0279 Y65.2023
G1 X176.3719 Y64.1319
G1 X175.8915 Y62.9721
G1 X175.5985 Y61.7515
G1 X175.5 Y60.5
G1 X175.5985 Y59.2485
G1 X175.8915 Y58.0279
G1 X176.3719 Y56.8681
G1 X177.0279 Y55.7977
G1 X177.8431 Y54.8431
G1 X178.7977 Y54.0279
G1 X179.8681 Y53.3719
G1 X181.0279 Y52.8915
G1 X182.2485 Y52.5985
G1 X183.5 Y52.5
G1 X184.7515 Y52.5985
G1 X185.9721 Y52.8915
G1 X187.1319 Y53.3719
G1 X188.2023 Y54.0279
G1 X189.1569 Y54.8431
G1 X189.9721 Y55.7977
G1 X190.6281 Y56.8681
G1 X191.1085 Y58.0279
G1 X191.4015 Y59.2485
G1 X191.5 Y60.5
G0 X178.2449 Y66.5 F3000
G1 X188.7551 Y66.5 F200
G0 X190.8898 Y63.5 F3000
G1 X176.1102 Y63.5 F200
G0 X175.5 Y60.5 F3000
G1 X191.5 Y60.5 F200
G0 X190.8898 Y57.5 F3000
G1 X176.1102 Y57.5 F200
G0 X178.2449 Y54.5 F3000
G1 X188.7551 Y54.5 F200
M106 S0
G0 X68.5 Y85.5 F3000
M106 S255
G1 X68.5 Y101.5 F200
G1 X68.4015 Y102.7515
G1 X68.1085 Y103.9721
G1 X67.6281 Y105.1319
G1 X66.9721 Y106.2023
G1 X66.1569 Y107.1569
G1 X65.2023 Y107.9721
G1 X64.1319 Y108.6281
G1 X62.9721 Y109.1085
G1 X61.7515 Y109.4015
G1 X60.5 Y109.5
G1 X59.2485 Y109.4015
G1 X58.0279 Y109.1085
G1 X56.8681 Y108.6281
G1 X55.7977 Y107.9721
G1 X54.8431 Y107.1569
G1 X54.0279 Y106.2023
G1 X53.3719 Y105.1319
G1 X52.8915 Y103.9721
G1 X52.5985 Y102.7515
G1 X52.5 Y101.5
G1 X52.5985 Y100.2485
G1 X52.8915 Y99.0279
G1 X53.3719 Y97.8681
G1 X54.0279 Y96.7977
G1 X54.8431 Y95.8431
G1 X55.7977 Y95.0279
G1 X56.8681 Y94.3719
G1 X58.0279 Y93.8915
G1 X59.2485 Y93.5985
G1 X60.5 Y93.5
G1 X61.7515 Y93.5985
G1 X62.9721 Y93.8915
G1 X64.1319 Y94.3719
G1 X65.2023 Y95.0279
G1 X66.1569 Y95.8431
G1 X66.9721 Y96.7977
G1 X67.6281 Y97.8681
G1 X68.1085 Y99.0279
G1 X68.4015 Y100.2485
G1 X68.5 Y101.5
G0 X55.2449 Y107.5 F3000
G1 X65.7551 Y107.5 F200
G0 X67.8898 Y104.5 F3000
G1 X53.1102 Y104.5 F200
G0 X52.5 Y101.5 F3000
G1 X68.5 Y101.5 F200
G0 X67.8898 Y98.5 F3000
G1 X53.1102 Y98.5 F200
G0 X55.2449 Y95.5 F3000
G1 X65.7551 Y95.5 F200
M106 S0
G0 X109.5 Y85.5 F3000
M106 S255
G1 X109.5 Y101.5 F200
G1 X109.4015 Y102.7515
G1 X109.1085 Y103.9721
G1 X108.6281 Y105.1319
G1 X107.9721 Y106.2023
G1 X107.1569 Y107.1569
G1 X106.2023 Y107.9721
G1 X105.1319 Y108.6281
G1 X103.9721 Y109.1085
G1 X102.7515 Y109.4015
G1 X101.5 Y109.5
G1 X100.2485 Y109.4015
G1 X99.0279 Y109.1085
G1 X97.8681 Y108.6281
G1 X96.7977 Y107.9721
G1 X95.8431 Y107.1569
G1 X95.0279 Y106.2023
G1 X94.3719 Y105.1319
G1 X93.8915 Y103.9721
G1 X93.5985 Y102.7515
G1 X93.5 Y101.5
G1 X93.5985 Y100.2485
G1 X93.8915 Y99.0279
G1 X94.3719 Y97.8681
G1 X95.0279 Y96.7977
G1 X95.8431 Y95.8431
G1 X96.7977 Y95.0279
G1 X97.8681 Y94.3719
G1 X99.0279 Y93.8915
G1 X100.2485 Y93.5985
G1 X101.5 Y93.5
G1 X102.7515 Y93.5985
G1 X103.9721 Y93.8915
G1 X105.1319 Y94.3719
G1 X106.2023 Y95.0279
G1 X107.1569 Y95.8431
G1 X107.9721 Y96.7977
G1 X108.6281 Y97.8681
G1 X109.1085 Y99.0279
G1 X109.4015 Y100.2485
G1 X109.5 Y101.5
G0 X96.2449 Y107.5 F3000
G1 X106.7551 Y107.5 F200
G0 X108.8898 Y104.5 F3000
G1 X94.1102 Y104.5 F200
G0 X93.5 Y101.5 F3000
G1 X109.5 Y101.5 F200
G0 X108.8898 Y98.5 F3000
G1 X94.1102 Y98.5 F200
G0 X96.2449 Y95.5 F3000
G1 X106.7551 Y95.5 F200
M106 S0
G0 X150.5 Y85.5 F3000
M106 S255
G1 X150.5 Y101.5 F200
G1 X150.4015 Y102.7515
G1 X150.1085 Y103.9721
G1 X149.6281 Y105.1319
G1 X148.9721 Y106.2023
G1 X148.1569 Y107.1569
G1 X147.2023 Y107.9721
G1 X146.1319 Y108.6281
G1 X144.9721 Y109.1085
G1 X143.7515 Y109.4015
G1 X142.5 Y109.5
G1 X141.2485 Y109.4015
G1 X140.0279 Y109.1085
G1 X138.8681 Y108.6281
G1 X137.7977 Y107.9721
G1 X136.8431 Y107.1569
G1 X136.0279 Y106.2023
G1 X135.3719 Y105.1319
G1 X134.8915 Y103.9721
G1 X134.5985 Y102.7515
G1 X134.5 Y101.5
G1 X134.5985 Y100.2485
G1 X134.8915 Y99.0279
G1 X135.3719 Y97.8681
G1 X136.0279 Y96.7977
G1 X136.8431 Y95.8431
G1 X137.7977 Y95.0279
G1 X138.8681 Y94.3719
G1 X140.0279 Y93.8915
G1 X141.2485 Y93.5985
G1 X142.5 Y93.5
G1 X143.7515 Y93.5985
G1 X144.9721 Y93.8915
G1 X146.1319 Y94.3719
G1 X147.2023 Y95.0279
G1 X148.1569 Y95.8431
G1 X148.9721 Y96.7977
G1 X149.6281 Y97.8681
G1 X150.1085 Y99.0279
G1 X150.4015 Y100.2485
G1 X150.5 Y101.5
G0 X137.2449 Y107.5 F3000
G1 X147.7551 Y107.5 F200
G0 X149.8898 Y104.5 F3000
G1 X135.1102 Y104.5 F200
G0 X134.5 Y101.5 F3000
G1 X150.5 Y101.5 F200
G0 X149.8898 Y98.5 F3000
G1 X135.1102 Y98.5 F200
G0 X137.2449 Y95.5 F3000
G1 X147.7551 Y95.5 F200
M106 S0
G0 X191.5 Y85.5 F3000
M106 S255
G1 X191.5 Y101.5 F200
G1 X191.4015 Y102.7515
G1 X191.1085 Y103.9721
G1 X190.6281 Y105.1319
G1 X189.9721 Y106.2023
G1 X189.1569 Y107.1569
G1 X188.2023 Y107.9721
G1 X187.1319 Y108.6281
G1 X185.9721 Y109.1085
G1 X184.7515 Y109.4015
G1 X183.5 Y109.5
G1 X182.2485 Y109.4015
G1 X181.0279 Y109.1085
G1 X179.8681 Y108.6281
G1 X178.7977 Y107.9721
G1 X177.8431 Y107.1569
G1 X177.0279 Y106.2023
G1 X176.3719 Y105.1319
G1 X175.8915 Y103.9721
G1 X175.5985 Y102.7515
G1 X175.5 Y101.5
G1 X175.5985 Y100.2485
G1 X175.8915 Y99.0279
G1 X176.3719 Y97.8681
G1 X177.0279 Y96.7977
G1 X177.8431 Y95.8431
G1 X178.7977 Y95.0279
G1 X179.8681 Y94.3719
G1 X181.0279 Y93.8915
G1 X182.2485 Y93.5985
G1 X183.5 Y93.5
G1 X184.7515 Y93.5985
G1 X185.9721 Y93.8915
G1 X187.1319 Y94.3719
G1 X188.2023 Y95.0279
G1 X189.1569 Y95.8431
G1 X189.9721 Y96.7977
G1 X190.6281 Y97.8681
G1 X191.1085 Y99.0279
G1 X191.4015 Y100.2485
G1 X191.5 Y101.5
G0 X178.2449 Y107.5 F3000
G1 X188.7551 Y107.5 F200
G0 X190.8898 Y104.5 F3000
G1 X176.1102 Y104.5 F200
G0 X175.5 Y101.5 F3000
G1 X191.5 Y101.5 F200
G0 X190.8898 Y98.5 F3000
G1 X176.1102 Y98.5 F200
G0 X178.2449 Y95.5 F3000
G1 X188.7551 Y95.5 F200
M106 S0
G0 X68.5 Y126.5 F3000
M106 S255
G1 X68.5 Y142.5 F200
G1 X68.4015 Y143.7515
G1 X68.1085 Y144.9721
G1 X67.6281 Y146.1319
G1 X66.9721 Y147.2023
G1 X66.1569 Y148.1569
G1 X65.2023 Y148.9721
G1 X64.1319 Y149.6281
G1 X62.9721 Y150.1085
G1 X61.7515 Y150.4015
G1 X60.5 Y150.5
G1 X59.2485 Y150.4015
G1 X58.0279 Y150.1085
G1 X56.8681 Y149.6281
G1 X55.7977 Y148.9721
G1 X54.8431 Y148.1569
G1 X54.0279 Y147.2023
G1 X53.3719 Y146.1319
G1 X52.8915 Y144.9721
G1 X52.5985 Y143.7515
G1 X52.5 Y142.5
G1 X52.5985 Y141.2485
G1 X52.8915 Y140.0279
G1 X53.3719 Y138.8681
G1 X54.0279 Y137.7977
G1 X54.8431 Y136.8431
G1 X55.7977 Y136.0279
G1 X56.8681 Y135.3719
G1 X58.0279 Y134.8915
G1 X59.2485 Y134.5985
G1 X60.5 Y134.5
G1 X61.7515 Y134.5985
G1 X62.9721 Y134.8915
G1 X64.1319 Y135.3719
G1 X65.2023 Y136.0279
G1 X66.1569 Y136.8431
G1 X66.9721 Y137.7977
G1 X67.6281 Y138.8681
G1 X68.1085 Y140.0279
G1 X68.4015 Y141.2485
G1 X68.5 Y142.5
G0 X55.2449 Y148.5 F3000
G1 X65.7551 Y148.5 F200
G0 X67.8898 Y145.5 F3000
G1 X53.1102 Y145.5 F200
G0 X52.5 Y142.5 F3000
G1 X68.5 Y142.5 F200
G0 X67.8898 Y139.5 F3000
G1 X53.1102 Y139.5 F200
G0 X55.2449 Y136.5 F3000
G1 X65.7551 Y136.5 F200
M106 S0
G0 X109.5 Y126.5 F3000
M106 S255
G1 X109.5 Y142.5 F200
G1 X109.4015 Y143.7515
G1 X109.1085 Y144.9721
G1 X108.6281 Y146.1319
G1 X107.9721 Y147.2023
G1 X107.1569 Y148.1569
G1 X106.2023 Y148.9721
G1 X105.1319 Y149.6281
G1 X103.9721 Y150.1085
G1 X102.7515 Y150.4015
G1 X101.5 Y150.5
G1 X100.2485 Y150.4015
G1 X99.0279 Y150.1085
G1 X97.8681 Y149.6281
G1 X96.7977 Y148.9721
G1 X95.8431 Y148.1569
G1 X95.0279 Y147.2023
G1 X94.3719 Y146.1319
G1 X93.8915 Y144.9721
G1 X93.5985 Y143.7515
G1 X93.5 Y142.5
G1 X93.5985 Y141.2485
G1 X93.8915 Y140.0279
G1 X94.3719 Y138.8681
G1 X95.0279 Y137.7977
G1 X95.8431 Y136.8431
G1 X96.7977 Y136.0279
G1 X97.8681 Y135.3719
G1 X99.0279 Y134.8915
G1 X100.2485 Y134.5985
G1 X101.5 Y134.5
G1 X102.7515 Y134.5985
G1 X103.9721 Y134.8915
G1 X105.1319 Y135.3719
G1 X106.2023 Y136.0279
G1 X107.1569 Y136.8431
G1 X107.9721 Y137.7977
G1 X108.6281 Y138.8681
G1 X109.1085 Y140.0279
G1 X109.4015 Y141.2485
G1 X109.5 Y142.5
G0 X96.2449 Y148.5 F3000
G1 X106.7551 Y148.5 F200
G0 X108.8898 Y145.5 F3000
G1 X94.1102 Y145.5 F200
G0 X93.5 Y142.5 F3000
G1 X109.5 Y142.5 F200
G0 X108.8898 Y139.5 F3000
G1 X94.1102 Y139.5 F200
G0 X96.2449 Y136.5 F3000
G1 X106.7551 Y136.5 F200
M106 S0
G0 X150.5 Y126.5 F3000
M106 S255
G1 X150.5 Y142.5 F200
G1 X150.4015 Y143.7515
G1 X150.1085 Y144.9721
G1 X149.6281 Y146.1319
G1 X148.9721 Y147.2023
G1 X148.1569 Y148.1569
G1 X147.2023 Y148.9721
G1 X146.1319 Y149.6281
G1 X144.9721 Y150.1085
G1 X143.7515 Y150.4015
G1 X142.5 Y150.5
G1 X141.2485 Y150.4015
G1 X140.0279 Y150.1085
G1 X138.8681 Y149.6281
G1 X137.7977 Y148.9721
G1 X136.8431 Y148.1569
G1 X136.0279 Y147.2023
G1 X135.3719 Y146.1319
G1 X134.8915 Y144.9721
G1 X134.5985 Y143.7515
G1 X134.5 Y142.5
G1 X134.5985 Y141.2485
G1 X134.8915 Y140.0279
G1 X135.3719 Y138.8681
G1 X136.0279 Y137.7977
G1 X136.8431 Y136.8431
G1 X137.7977 Y136.0279
G1 X138.8681 Y135.3719
G1 X140.0279 Y134.8915
G1 X141.2485 Y134.5985
G1 X142.5 Y134.5
G1 X143.7515 Y134.5985
G1 X144.9721 Y134.8915
G1 X146.1319 Y135.3719
G1 X147.2023 Y136.0279
G1 X148.1569 Y136.8431
G1 X148.9721 Y137.7977
G1 X149.6281 Y138.8681
G1 X150.1085 Y140.0279
G1 X150.4015 Y141.2485
G1 X150.5 Y142.5
G0 X137.2449 Y148.5 F3000
G1 X147.7551 Y148.5 F200
G0 X149.8898 Y145.5 F3000
G1 X135.1102 Y145.5 F200
G0 X134.5 Y142.5 F3000
G1 X150.5 Y142.5 F200
G0 X149.8898 Y139.5 F3000
G1 X135.1102 Y139.5 F200
G0 X137.2449 Y136.5 F3000
G1 X147.7551 Y136.5 F200
M106 S0
G0 X191.5 Y126.5 F3000
M106 S255
G1 X191.5 Y142.5 F200
G1 X191.4015 Y143.7515
G1 X191.1085 Y144.9721
G1 X190.6281 Y146.1319
G1 X189.9721 Y147.2023
G1 X189.1569 Y148.1569
G1 X188.2023 Y148.9721
G1 X187.1319 Y149.6281
G1 X185.9721 Y150.1085
G1 X184.7515 Y150.4015
G1 X183.5 Y150.5
G1 X182.2485 Y150.4015
G1 X181.0279 Y150.1085
G1 X179.8681 Y149.6281
G1 X178.7977 Y148.9721
G1 X177.8431 Y148.1569
G1 X177.0279 Y147.2023
G1 X176.3719 Y146.1319
G1 X175.8915 Y144.9721
G1 X175.5985 Y143.7515
G1 X175.5 Y142.5
G1 X175.5985 Y141.2485
G1 X175.8915 Y140.0279
G1 X176.3719 Y138.8681
G1 X177.0279 Y137.7977
G1 X177.8431 Y136.8431
G1 X178.7977 Y136.0279
G1 X179.8681 Y135.3719
G1 X181.0279 Y134.8915
G1 X182.2485 Y134.5985
G1 X183.5 Y134.5
G1 X184.7515 Y134.5985
G1 X185.9721 Y134.8915
G1 X187.1319 Y135.3719
G1 X188.2023 Y136.0279
G1 X189.1569 Y136.8431
G1 X189.9721 Y137.7977
G1 X190.6281 Y138.8681
G1 X191.1085 Y140.0279
G1 X191.4015 Y141.2485
G1 X191.5 Y142.5
G0 X178.2449 Y148.5 F3000
G1 X188.7551 Y148.5 F200
G0 X190.8898 Y145.5 F3000
G1 X176.1102 Y145.5 F200
G0 X175.5 Y142.5 F3000
G1 X191.5 Y142.5 F200
G0 X190.8898 Y139.5 F3000
G1 X176.1102 Y139.5 F200
G0 X178.2449 Y136.5 F3000
G1 X188.7551 Y136.5 F200
M106 S0
G0 X68.5 Y167.5 F3000
M106 S255
G1 X68.5 Y183.5 F200
G1 X68.4015 Y184.7515
G1 X68.1085 Y185.9721
G1 X67.6281 Y187.1319
G1 X66.9721 Y188.2023
G1 X66.1569 Y189.1569
G1 X65.2023 Y189.9721
G1 X64.1319 Y190.6281
G1 X62.9721 Y191.1085
G1 X61.7515 Y191.4015
G1 X60.5 Y191.5
G1 X59.2485 Y191.4015
G1 X58.0279 Y191.1085
G1 X56.8681 Y190.6281
G1 X55.7977 Y189.9721
G1 X54.8431 Y189.1569
G1 X54.0279 Y188.2023
G1 X53.3719 Y187.1319
G1 X52.8915 Y185.9721
G1 X52.5985 Y184.7515
G1 X52.5 Y183.5
G1 X52.5985 Y182.2485
G1 X52.8915 Y181.0279
G1 X53.3719 Y179.8681
G1 X54.0279 Y178.7977
G1 X54.8431 Y177.8431
G1 X55.7977 Y177.0279
G1 X56.8681 Y176.3719
G1 X58.0279 Y175.8915
G1 X59.2485 Y175.5985
G1 X60.5 Y175.5
G1 X61.7515 Y175.5985
G1 X62.9721 Y175.8915
G1 X64.1319 Y176.3719
G1 X65.2023 Y177.0279
G1 X66.1569 Y177.8431
G1 X66.9721 Y178.7977
G1 X67.6281 Y179.8681
G1 X68.1085 Y181.0279
G1 X68.4015 Y182.2485
G1 X68.5 Y183.5
G0 X55.2449 Y189.5 F3000
G1 X65.7551 Y189.5 F200
G0 X67.8898 Y186.5 F3000
G1 X53.1102 Y186.5 F200
G0 X52.5 Y183.5 F3000
G1 X68.5 Y183.5 F200
G0 X67.8898 Y180.5 F3000
G1 X53.1102 Y180.5 F200
G0 X55.2449 Y177.5 F3000
G1 X65.7551 Y177.5 F200
M106 S0
G0 X109.5 Y167.5 F3000
M106 S255
G1 X109.5 Y183.5 F200
G1 X109.4015 Y184.7515
G1 X109.1085 Y185.9721
G1 X108.6281 Y187.1319
G1 X107.9721 Y188.2023
G1 X107.1569 Y189.1569
G1 X106.2023 Y189.9721
G1 X105.1319 Y190.6281
G1 X103.9721 Y191.1085
G1 X102.7515 Y191.4015
G1 X101.5 Y191.5
G1 X100.2485 Y191.4015
G1 X99.0279 Y191.1085
G1 X97.8681 Y190.6281
G1 X96.7977 Y189.9721
G1 X95.8431 Y189.1569
G1 X95.0279 Y188.2023
G1 X94.3719 Y187.1319
G1 X93.8915 Y185.9721
G1 X93.5985 Y184.7515
G1 X93.5 Y183.5
G1 X93.5985 Y182.2485
G1 X93.8915 Y181.0279
G1 X94.3719 Y179.8681
G1 X95.0279 Y178.7977
G1 X95.8431 Y177.8431
G1 X96.7977 Y177.0279
G1 X97.8681 Y176.3719
G1 X99.0279 Y175.8915
G1 X100.2485 Y175.5985
G1 X101.5 Y175.5
G1 X102.7515 Y175.5985
G1 X103.9721 Y175.8915
G1 X105.1319 Y176.3719
G1 X106.2023 Y177.0279
G1 X107.1569 Y177.8431
G1 X107.9721 Y178.7977
G1 X108.6281 Y179.8681
G1 X109.1085 Y181.0279
G1 X109.4015 Y182.2485
G1 X109.5 Y183.5
G0 X96.2449 Y189.5 F3000
G1 X106.7551 Y189.5 F200
G0 X108.8898 Y186.5 F3000
G1 X94.1102 Y186.5 F200
G0 X93.5 Y183.5 F3000
G1 X109.5 Y183.5 F200
G0 X108.8898 Y180.5 F3000
G1 X94.1102 Y180.5 F200
G0 X96.2449 Y177.5 F3000
G1 X106.7551 Y177.5 F200
M106 S0
G0 X150.5 Y167.5 F3000
M106 S255
G1 X150.5 Y183.5 F200
G1 X150.4015 Y184.7515
G1 X150.1085 Y185.9721
G1 X149.6281 Y187.1319
G1 X148.9721 Y188.2023
G1 X148.1569 Y189.1569
G1 X147.2023 Y189.9721
G1 X146.1319 Y190.6281
G1 X144.9721 Y191.1085
G1 X143.7515 Y191.4015
G1 X142.5 Y191.5
G1 X141.2485 Y191.4015
G1 X140.0279 Y191.1085
G1 X138.8681 Y190.6281
G1 X137.7977 Y189.9721
G1 X136.8431 Y189.1569
G1 X136.0279 Y188.2023
G1 X135.3719 Y187.1319
G1 X134.8915 Y185.9721
G1 X134.5985 Y184.7515
G1 X134.5 Y183.5
G1 X134.5985 Y182.2485
G1 X134.8915 Y181.0279
G1 X135.3719 Y179.8681
G1 X136.0279 Y178.7977
G1 X136.8431 Y177.8431
G1 X137.7977 Y177.0279
G1 X138.8681 Y176.3719
G1 X140.0279 Y175.8915
G1 X141.2485 Y175.5985
G1 X142.5 Y175.5
G1 X143.7515 Y175.5985
G1 X144.9721 Y175.8915
G1 X146.1319 Y176.3719
G1 X147.2023 Y177.0279
G1 X148.1569 Y177.8431
G1 X148.9721 Y178.7977
G1 X149.6281 Y179.8681
G1 X150.1085 Y181.0279
G1 X150.4015 Y182.2485
G1 X150.5 Y183.5
G0 X137.2449 Y189.5 F3000
G1 X147.7551 Y189.5 F200
G0 X149.8898 Y186.5 F3000
G1 X135.1102 Y186.5 F200
G0 X134.5 Y183.5 F3000
G1 X150.5 Y183.5 F200
G0 X149.8898 Y180.5 F3000
G1 X135.1102 Y180.5 F200
G0 X137.2449 Y177.5 F3000
G1 X147.7551 Y177.5 F200
M106 S0
G0 X191.5 Y167.5 F3000
M106 S255
G1 X191.5 Y183.5 F200
G1 X191.4015 Y184.7515
G1 X191.1085 Y185.9721
G1 X190.6281 Y187.1319
G1 X189.9721 Y188.2023
G1 X189.1569 Y189.1569
G1 X188.2023 Y189.9721
G1 X187.1319 Y190.6281
G1 X185.9721 Y191.1085
G1 X184.7515 Y191.4015
G1 X183.5 Y191.5
G1 X182.2485 Y191.4015
G1 X181.0279 Y191.1085
G1 X179.8681 Y190.6281
G1 X178.7977 Y189.9721
G1 X177.8431 Y189.1569
G1 X177.0279 Y188.2023
G1 X176.3719 Y187.1319
G1 X175.8915 Y185.9721
G1 X175.5985 Y184.7515
G1 X175.5 Y183.5
G1 X175.5985 Y182.2485
G1 X175.8915 Y181.0279
G1 X176.3719 Y179.8681
G1 X177.0279 Y178.7977
G1 X177.8431 Y177.8431
G1 X178.7977 Y177.0279
G1 X179.8681 Y176.3719
G1 X181.0279 Y175.8915
G1 X182.2485 Y175.5985
G1 X183.5 Y175.5
G1 X184.7515 Y175.5985
G1 X185.9721 Y175.8915
G1 X187.1319 Y176.3719
G1 X188.2023 Y177.0279
G1 X189.1569 Y177.8431
G1 X189.9721 Y178.7977
G1 X190.6281 Y179.8681
G1 X191.1085 Y181.0279
G1 X191.4015 Y182.2485
G1 X191.5 Y183.5
G0 X178.2449 Y189.5 F3000
G1 X188.7551 Y189.5 F200
G0 X190.8898 Y186.5 F3000
G1 X176.1102 Y186.5 F200
G0 X175.5 Y183.5 F3000
G1 X191.5 Y183.5 F200
G0 X190.8898 Y180.5 F3000
G1 X176.1102 Y180.5 F200
G0 X178.2449 Y177.5 F3000
G1 X188.7551 Y177.5 F200
M106 S0
G0 Z2.5 F3000
G0 X68.5 Y44.5 F3000
M106 S255
G1 X68.5 Y60.5 F200
G1 X68.4015 Y61.7515
G1 X68.1085 Y62.9721
G1 X67.6281 Y64.1319
G1 X66.9721 Y65.2023
G1 X66.1569 Y66.1569
G1 X65.2023 Y66.9721
G1 X64.1319 Y67.6281
G1 X62.9721 Y68.1085
G1 X61.7515 Y68.4015
G1 X60.5 Y68.5
G1 X59.2485 Y68.4015
G1 X58.0279 Y68.1085
G1 X56.8681 Y67.6281
G1 X55.7977 Y66.9721
G1 X54.8431 Y66.1569
G1 X54.0279 Y65.2023
G1 X53.3719 Y64.1319
G1 X52.8915 Y62.9721
G1 X52.5985 Y61.7515
G1 X52.5 Y60.5
G1 X52.5985 Y59.2485
G1 X52.8915 Y58.0279
G1 X53.3719 Y56.8681
G1 X54.0279 Y55.7977
G1 X54.8431 Y54.8431
G1 X55.7977 Y54.0279
G1 X56.8681 Y53.3719
G1 X58.0279 Y52.8915
G1 X59.2485 Y52.5985
G1 X60.5 Y52.5
G1 X61.7515 Y52.5985
G1 X62.9721 Y52.8915
G1 X64.1319 Y53.3719
G1 X65.2023 Y54.0279
G1 X66.1569 Y54.8431
G1 X66.9721 Y55.7977
G1 X67.6281 Y56.8681
G1 X68.1085 Y58.0279
G1 X68.4015 Y59.2485
G1 X68.5 Y60.5
G0 X52.5415 Y61.0267 F3000
G1 X59.9733 Y68.4585 F200
G0 X63.6041 Y67.8467 F3000
G1 X53.1533 Y57.3959 F200
G0 X54.8431 Y54.8431 F3000
G1 X66.1569 Y66.1569 F200
G0 X67.8467 Y63.6041 F3000
G1 X57.3959 Y53.1533 F200
G0 X61.0267 Y52.5415 F3000
G1 X68.4585 Y59.9733 F200
M106 S0
G0 X109.5 Y44.5 F3000
M106 S255
G1 X109.5 Y60.5 F200
G1 X109.4015 Y61.7515
G1 X109.1085 Y62.9721
G1 X108.6281 Y64.1319
G1 X107.9721 Y65.2023
G1 X107.1569 Y66.1569
G1 X106.2023 Y66.9721
G1 X105.1319 Y67.6281
G1 X103.9721 Y68.1085
G1 X102.7515 Y68.4015
G1 X101.5 Y68.5
G1 X100.2485 Y68.4015
G1 X99.0279 Y68.1085
G1 X97.8681 Y67.6281
G1 X96.7977 Y66.9721
G1 X95.8431 Y66.1569
G1 X95.0279 Y65.2023
G1 X94.3719 Y64.1319
G1 X93.8915 Y62.9721
G1 X93.5985 Y61.7515
G1 X93.5 Y60.5
G1 X93.5985 Y59.2485
G1 X93.8915 Y58.0279
G1 X94.3719 Y56.8681
G1 X95.0279 Y55.7977
G1 X95.8431 Y54.8431
G1 X96.7977 Y54.0279
G1 X97.8681 Y53.3719
G1 X99.0279 Y52.8915
G1 X100.2485 Y52.5985
G1 X101.5 Y52.5
G1 X102.7515 Y52.5985
G1 X103.9721 Y52.8915
G1 X105.1319 Y53.3719
G1 X106.2023 Y54.0279
G1 X107.1569 Y54.8431
G1 X107.9721 Y55.7977
G1 X108.6281 Y56.8681
G1 X109.1085 Y58.0279
G1 X109.4015 Y59.2485
G1 X109.5 Y60.5
G0 X93.5415 Y61.0267 F3000
G1 X100.9733 Y68.4585 F200
G0 X104.6041 Y67.8467 F3000
G1 X94.1533 Y57.3959 F200
G0 X95.8431 Y54.8431 F3000
G1 X107.1569 Y66.1569 F200
G0 X108.8467 Y63.6041 F3000
G1 X98.3959 Y53.1533 F200
G0 X102.0267 Y52.5415 F3000
G1 X109.4585 Y59.9733 F200
M106 S0
G0 X150.5 Y44.5 F3000
M106 S255
G1 X150.5 Y60.5 F200
G1 X150.4015 Y61.7515
G1 X150.1085 Y62.9721
G1 X149.6281 Y64.1319
G1 X148.9721 Y65.2023
G1 X148.1569 Y66.1569
G1 X147.2023 Y66.9721
G1 X146.1319 Y67.6281
G1 X144.9721 Y68.1085
G1 X143.7515 Y68.4015
G1 X142.5 Y68.5
G1 X141.2485 Y68.4015
G1 X140.0279 Y68.1085
G1 X138.8681 Y67.6281
G1 X137.7977 Y66.9721
G1 X136.8431 Y66.1569
G1 X136.0279 Y65.2023
G1 X135.3719 Y64.1319
G1 X134.8915 Y62.9721
G1 X134.5985 Y61.7515
G1 X134.5 Y60.5
G1 X134.5985 Y59.2485
G1 X134.8915 Y58.0279
G1 X135.3719 Y56.8681
G1 X136.0279 Y55.7977
G1 X136.8431 Y54.8431
G1 X137.7977 Y54.0279
G1 X138.8681 Y53.3719
G1 X140.0279 Y52.8915
G1 X141.2485 Y52.5985
G1 X142.5 Y52.5
G1 X143.7515 Y52.5985
G1 X144.9721 Y52.8915
G1 X146.1319 Y53.3719
G1 X147.2023 Y54.0279
G1 X148.1569 Y54.8431
G1 X148.9721 Y55.7977
G1 X149.6281 Y56.8681
G1 X150.1085 Y58.0279
G1 X150.4015 Y59.2485
G1 X150.5 Y60.5
G0 X134.5415 Y61.0267 F3000
G1 X141.9733 Y68.4585 F200
G0 X145.6041 Y67.8467 F3000
G1 X135.1533 Y57.3959 F200
G0 X136.8431 Y54.8431 F3000
G1 X148.1569 Y66.1569 F200
G0 X149.8467 Y63.6041 F3000
G1 X139.3959 Y53.1533 F200
G0 X143.0267 Y52.5415 F3000
G1 X150.4585 Y59.9733 F200
M106 S0
G0 X191.5 Y44.5 F3000
M106 S255
G1 X191.5 Y60.5 F200
G1 X191.4015 Y61.7515
G1 X191.1085 Y62.9721
G1 X190.6281 Y64.1319
G1 X189.9721 Y65.2023
G1 X189.1569 Y66.1569
G1 X188.2023 Y66.9721
G1 X187.1319 Y67.6281
G1 X185.9721 Y68.1085
G1 X184.7515 Y68.4015
G1 X183.5 Y68.5
G1 X182.2485 Y68.4015
G1 X181.0279 Y68.1085
G1 X179.8681 Y67.6281
G1 X178.7977 Y66.9721
G1 X177.8431 Y66.1569
G1 X177.0279 Y65.2023
G1 X176.3719 Y64.1319
G1 X175.8915 Y62.9721
G1 X175.5985 Y61.7515
G1 X175.5 Y60.5
G1 X175.5985 Y59.2485
G1 X175.8915 Y58.0279
G1 X176.3719 Y56.8681
G1 X177.0279 Y55.7977
G1 X177.8431 Y54.8431
G1 X178.7977 Y54.0279
G1 X179.8681 Y53.3719
G1 X181.0279 Y52.8915
G1 X182.2485 Y52.5985
G1 X183.5 Y52.5
G1 X184.7515 Y52.5985
G1 X185.9721 Y52.8915
G1 X187.1319 Y53.3719
G1 X188.2023 Y54.0279
G1 X189.1569 Y54.8431
G1 X189.9721 Y55.7977
G1 X190.6281 Y56.8681
G1 X191.1085 Y58.0279
G1 X191.4015 Y59.2485
G1 X191.5 Y60.5
G0 X175.5415 Y61.0267 F3000
G1 X182.9733 Y68.4585 F200
G0 X186.6041 Y67.8467 F3000
G1 X176.1533 Y57.3959 F200
G0 X177.8431 Y54.8431 F3000
G1 X189.1569 Y66.1569 F200
G0 X190.8467 Y63.6041 F3000
G1 X180.3959 Y53.1533 F200
G0 X184.0267 Y52.5415 F3000
G1 X191.4585 Y59.9733 F200
M106 S0
G0 X68.5 Y85.5 F3000
M106 S255
G1 X68.5 Y101.5 F200
G1 X68.4015 Y102.7515
G1 X68.1085 Y103.9721
G1 X67.6281 Y105.1319
G1 X66.9721 Y106.2023
G1 X66.1569 Y107.1569
G1 X65.2023 Y107.9721
G1 X64.1319 Y108.6281
G1 X62.9721 Y109.1085
G1 X61.7515 Y109.4015
G1 X60.5 Y109.5
G1 X59.2485 Y109.4015
G1 X58.0279 Y109.1085
G1 X56.8681 Y108.6281
G1 X55.7977 Y107.9721
G1 X54.8431 Y107.1569
G1 X54.0279 Y106.2023
G1 X53.3719 Y105.1319
G1 X52.8915 Y103.9721
G1 X52.5985 Y102.7515
G1 X52.5 Y101.5
G1 X52.5985 Y100.2485
G1 X52.8915 Y99.0279
G1 X53.3719 Y97.8681
G1 X54.0279 Y96.7977
G1 X54.8431 Y95.8431
G1 X55.7977 Y95.0279
G1 X56.8681 Y94.3719
G1 X58.0279 Y93.8915
G1 X59.2485 Y93.5985
G1 X60.5 Y93.5
G1 X61.7515 Y93.5985
G1 X62.9721 Y93.8915
G1 X64.1319 Y94.3719
G1 X65.2023 Y95.0279
G1 X66.1569 Y95.8431
G1 X66.9721 Y96.7977
G1 X67.6281 Y97.8681
G1 X68.1085 Y99.0279
G1 X68.4015 Y100.2485
G1 X68.5 Y101.5
G0 X52.5415 Y102.0267 F3000
G1 X59.9733 Y109.4585 F200
G0 X63.6041 Y108.8467 F3000
G1 X53.1533 Y98.3959 F200
G0 X54.8431 Y95.8431 F3000
G1 X66.1569 Y107.1569 F200
G0 X67.8467 Y104.6041 F3000
G1 X57.3959 Y94.1533 F200
G0 X61.0267 Y93.5415 F3000
G1 X68.4585 Y100.9733 F200
M106 S0
G0 X109.5 Y85.5 F3000
M106 S255
G1 X109.5 Y101.5 F200
G1 X109.4015 Y102.7515
G1 X109.1085 Y103.9721
G1 X108.6281 Y105.1319
G1 X107.9721 Y106.2023
G1 X107.1569 Y107.1569
G1 X106.2023 Y107.9721
G1 X105.1319 Y108.6281
G1 X103.9721 Y109.1085
G1 X102.7515 Y109.4015
G1 X101.5 Y109.5
G1 X100.2485 Y109.4015
G1 X99.0279 Y109.1085
G1 X97.8681 Y108.6281
G1 X96.7977 Y107.9721
G1 X95.8431 Y107.1569
G1 X95.0279 Y106.2023
G1 X94.3719 Y105.1319
G1 X93.8915 Y103.9721
G1 X93.5985 Y102.7515
G1 X93.5 Y101.5
G1 X93.5985 Y100.2485
G1 X93.8915 Y99.0279
G1 X94.3719 Y97.8681
G1 X95.0279 Y96.7977
G1 X95.8431 Y95.8431
G1 X96.7977 Y95.0279
G1 X97.8681 Y94.3719
G1 X99.0279 Y93.8915
G1 X100.2485 Y93.5985
G1 X101.5 Y93.5
G1 X102.7515 Y93.5985
G1 X103.9721 Y93.8915
G1 X105.1319 Y94.3719
G1 X106.2023 Y95.0279
G1 X107.1569 Y95.8431
G1 X107.9721 Y96.7977
G1 X108.6281 Y97.8681
G1 X109.1085 Y99.0279
G1 X109.4015 Y100.2485
G1 X109.5 Y101.5
G0 X93.5415 Y102.0267 F3000
G1 X100.9733 Y109.4585 F200
G0 X104.6041 Y108.8467 F3000
G1 X94.1533 Y98.3959 F200
G0 X95.8431 Y95.8431 F3000
G1 X107.1569 Y107.1569 F200
G0 X108.8467 Y104.6041 F3000
G1 X98.3959 Y94.1533 F200
G0 X102.0267 Y93.5415 F3000
G1 X109.4585 Y100.9733 F200
M106 S0
G0 X150.5 Y85.5 F3000
M106 S255
G1 X150.5 Y101.5 F200
G1 X150.4015 Y102.7515
G1 X150.1085 Y103.9721
G1 X149.6281 Y105.1319
G1 X148.9721 Y106.2023
G1 X148.1569 Y107.1569
G1 X147.2023 Y107.9721
G1 X146.1319 Y108.6281
G1 X144.9721 Y109.1085
G1 X143.7515 Y109.4015
G1 X142.5 Y109.5
G1 X141.2485 Y109.4015
G1 X140.0279 Y109.1085
G1 X138.8681 Y108.6281
G1 X137.7977 Y107.9721
G1 X136.8431 Y107.1569
G1 X136.0279 Y106.2023
G1 X135.3719 Y105.1319
G1 X134.8915 Y103.9721
G1 X134.5985 Y102.7515
G1 X134.5 Y101.5
G1 X134.5985 Y100.2485
G1 X134.8915 Y99.0279
G1 X135.3719 Y97.8681
G1 X136.0279 Y96.7977
G1 X136.8431 Y95.8431
G1 X137.7977 Y95.0279
G1 X138.8681 Y94.3719
G1 X140.0279 Y93.8915
G1 X141.2485 Y93.5985
G1 X142.5 Y93.5
G1 X143.7515 Y93.5985
G1 X144.9721 Y93.8915
G1 X146.1319 Y94.3719
G1 X147.2023 Y95.0279
G1 X148.1569 Y95.8431
G1 X148.9721 Y96.7977
G1 X149.6281 Y97.8681
G1 X150.1085 Y99.0279
G1 X150.4015 Y100.2485
G1 X150.5 Y101.5
G0 X134.5415 Y102.0267 F3000
G1 X141.9733 Y109.4585 F200
G0 X145.6041 Y108.8467 F3000
G1 X135.1533 Y98.3959 F200
G0 X136.8431 Y95.8431 F3000
G1 X148.1569 Y107.1569 F200
G0 X149.8467 Y104.6041 F3000
G1 X139.3959 Y94.1533 F200
G0 X143.0267 Y93.5415 F3000
G1 X150.4585 Y100.9733 F200
M106 S0
G0 X191.5 Y85.5 F3000
M106 S255
G1 X191.5 Y101.5 F200
G1 X191.4015 Y102.7515
G1 X191.1085 Y103.9721
G1 X190.6281 Y105.1319
G1 X189.9721 Y106.2023
G1 X189.1569 Y107.1569
G1 X188.2023 Y107.9721
G1 X187.1319 Y108.6281
G1 X185.9721 Y109.1085
G1 X184.7515 Y109.4015
G1 X183.5 Y109.5
G1 X182.2485 Y109.4015
G1 X181.0279 Y109.1085
G1 X179.8681 Y108.6281
G1 X178.7977 Y107.9721
G1 X177.8431 Y107.1569
G1 X177.0279 Y106.2023
G1 X176.3719 Y105.1319
G1 X175.8915 Y103.9721
G1 X175.5985 Y102.7515
G1 X175.5 Y101.5
G1 X175.5985 Y100.2485
G1 X175.8915 Y99.0279
G1 X176.3719 Y97.8681
G1 X177.0279 Y96.7977
G1 X177.8431 Y95.8431
G1 X178.7977 Y95.0279
G1 X179.8681 Y94.3719
G1 X181.0279 Y93.8915
G1 X182.2485 Y93.5985
G1 X183.5 Y93.5
G1 X184.7515 Y93.5985
G1 X185.9721 Y93.8915
G1 X187.1319 Y94.3719
G1 X188.2023 Y95.0279
G1 X189.1569 Y95.8431
G1 X189.9721 Y96.7977
G1 X190.6281 Y97.8681
G1 X191.1085 Y99.0279
G1 X191.4015 Y100.2485
G1 X191.5 Y101.5
G0 X175.5415 Y102.0267 F3000
G1 X182.9733 Y109.4585 F200
G0 X186.6041 Y108.8467 F3000
G1 X176.1533 Y98.3959 F200
G0 X177.8431 Y95.8431 F3000
G1 X189.1569 Y107.1569 F200
G0 X190.8467 Y104.6041 F3000
G1 X180.3959 Y94.1533 F200
G0 X184.0267 Y93.5415 F3000
G1 X191.4585 Y100.9733 F200
M106 S0
G0 X68.5 Y126.5 F3000
M106 S255
G1 X68.5 Y142.5 F200
G1 X68.4015 Y143.7515
G1 X68.1085 Y144.9721
G1 X67.6281 Y146.1319
G1 X66.9721 Y147.2023
G1 X66.1569 Y148.1569
G1 X65.2023 Y148.9721
G1 X64.1319 Y149.6281
G1 X62.9721 Y150.1085
G1 X61.7515 Y150.4015
G1 X60.5 Y150.5
G1 X59.2485 Y150.4015
G1 X58.0279 Y150.1085
G1 X56.8681 Y149.6281
G1 X55.7977 Y148.9721
G1 X54.8431 Y148.1569
G1 X54.0279 Y147.2023
G1 X53.3719 Y146.1319
G1 X52.8915 Y144.9721
G1 X52.5985 Y143.7515
G1 X52.5 Y142.5
G1 X52.5985 Y141.2485
G1 X52.8915 Y140.0279
G1 X53.3719 Y138.8681
G1 X54.0279 Y137.7977
G1 X54.8431 Y136.8431
G1 X55.7977 Y136.0279
G1 X56.8681 Y135.3719
G1 X58.0279 Y134.8915
G1 X59.2485 Y134.5985
G1 X60.5 Y134.5
G1 X61.7515 Y134.5985
G1 X62.9721 Y134.8915
G1 X64.1319 Y135.3719
G1 X65.2023 Y136.0279
G1 X66.1569 Y136.8431
G1 X66.9721 Y137.7977
G1 X67.6281 Y138.8681
G1 X68.1085 Y140.0279
G1 X68.4015 Y141.2485
G1 X68.5 Y142.5
G0 X52.5415 Y143.0267 F3000
G1 X59.9733 Y150.4585 F200
G0 X63.6041 Y149.8467 F3000
G1 X53.1533 Y139.3959 F200
G0 X54.8431 Y136.8431 F3000
G1 X66.1569 Y148.1569 F200
G0 X67.8467 Y145.6041 F3000
G1 X57.3959 Y135.1533 F200
G0 X61.0267 Y134.5415 F3000
G1 X68.4585 Y141.9733 F200
M106 S0
G0 X109.5 Y126.5 F3000
M106 S255
G1 X109.5 Y142.5 F200
G1 X109.4015 Y143.7515
G1 X109.1085 Y144.9721
G1 X108.6281 Y146.1319
G1 X107.9721 Y147.2023
G1 X107.1569 Y148.1569
G1 X106.2023 Y148.9721
G1 X105.1319 Y149.6281
G1 X103.9721 Y150.1085
G1 X102.7515 Y150.4015
G1 X101.5 Y150.5
G1 X100.2485 Y150.4015
G1 X99.0279 Y150.1085
G1 X97.8681 Y149.6281
G1 X96.7977 Y148.9721
G1 X95.8431 Y148.1569
G1 X95.0279 Y147.2023
G1 X94.3719 Y146.1319
G1 X93.8915 Y144.9721
G1 X93.5985 Y143.7515
G1 X93.5 Y142.5
G1 X93.5985 Y141.2485
G1 X93.8915 Y140.0279
G1 X94.3719 Y138.8681
G1 X95.0279 Y137.7977
G1 X95.8431 Y136.8431
G1 X96.7977 Y136.0279
G1 X97.8681 Y135.3719
G1 X99.0279 Y134.8915
G1 X100.2485 Y134.5985
G1 X101.5 Y134.5
G1 X102.7515 Y134.5985
G1 X103.9721 Y134.8915
G1 X105.1319 Y135.3719
G1 X106.2023 Y136.0279
G1 X107.1569 Y136.8431
G1 X107.9721 Y137.7977
G1 X108.6281 Y138.8681
G1 X109.1085 Y140.0279
G1 X109.4015 Y141.2485
G1 X109.5 Y142.5
G0 X93.5415 Y143.0267 F3000
G1 X100.9733 Y150.4585 F200
G0 X104.6041 Y149.8467 F3000
G1 X94.1533 Y139.3959 F200
G0 X95.8431 Y136.8431 F3000
G1 X107.1569 Y148.1569 F200
G0 X108.8467 Y145.6041 F3000
G1 X98.3959 Y135.1533 F200
G0 X102.0267 Y134.5415 F3000
G1 X109.4585 Y141.9733 F200
M106 S0
G0 X150.5 Y126.5 F3000
M106 S255
G1 X150.5 Y142.5 F200
G1 X150.4015 Y143.7515
G1 X150.1085 Y144.9721
G1 X149.6281 Y146.1319
G1 X148.9721 Y147.2023
G1 X148.1569 Y148.1569
G1 X147.2023 Y148.9721
G1 X146.1319 Y149.6281
G1 X144.9721 Y150.1085
G1 X143.7515 Y150.4015
G1 X142.5 Y150.5
G1 X141.2485 Y150.4015
G1 X140.0279 Y150.1085
G1 X138.8681 Y149.6281
G1 X137.7977 Y148.9721
G1 X136.8431 Y148.1569
G1 X136.0279 Y147.2023
G1 X135.3719 Y146.1319
G1 X134.8915 Y144.9721
G1 X134.5985 Y143.7515
G1 X134.5 Y142.5
G1 X134.5985 Y141.2485
G1 X134.8915 Y140.0279
G1 X135.3719 Y138.8681
G1 X136.0279 Y137.7977
G1 X136.8431 Y136.8431
G1 X137.7977 Y136.0279
G1 X138.8681 Y135.3719
G1 X140.0279 Y134.8915
G1 X141.2485 Y134.5985
G1 X142.5 Y134.5
G1 X143.7515 Y134.5985
G1 X144.9721 Y134.8915
G1 X146.1319 Y135.3719
G1 X147.2023 Y136.0279
G1 X148.1569 Y136.8431
G1 X148.9721 Y137.7977
G1 X149.6281 Y138.8681
G1 X150.1085 Y140.0279
G1 X150.4015 Y141.2485
G1 X150.5 Y142.5
G0 X134.5415 Y143.0267 F3000
G1 X141.9733 Y150.4585 F200
G0 X145.6041 Y149.8467 F3000
G1 X135.1533 Y139.3959 F200
G0 X136.8431 Y136.8431 F3000
G1 X148.1569 Y148.1569 F200
G0 X149.8467 Y145.6041 F3000
G1 X139.3959 Y135.1533 F200
G0 X143.0267 Y134.5415 F3000
G1 X150.4585 Y141.9733 F200
M106 S0
G0 X191.5 Y126.5 F3000
M106 S255
G1 X191.5 Y142.5 F200
G1 X191.4015 Y143.7515
G1 X191.1085 Y144.9721
G1 X190.6281 Y146.1319
G1 X189.9721 Y147.2023
G1 X189.1569 Y148.1569
G1 X188.2023 Y148.9721
G1 X187.1319 Y149.6281
G1 X185.9721 Y150.1085
G1 X184.7515 Y150.4015
G1 X183.5 Y150.5
G1 X182.2485 Y150.4015
G1 X181.0279 Y150.1085
G1 X179.8681 Y149.6281
G1 X178.7977 Y148.9721
G1 X177.8431 Y148.1569
G1 X177.0279 Y147.2023
G1 X176.3719 Y146.1319
G1 X175.8915 Y144.9721
G1 X175.5985 Y143.7515
G1 X175.5 Y142.5
G1 X175.5985 Y141.2485
G1 X175.8915 Y140.0279
G1 X176.3719 Y138.8681
G1 X177.0279 Y137.7977
G1 X177.8431 Y136.8431
G1 X178.7977 Y136.0279
G1 X179.8681 Y135.3719
G1 X181.0279 Y134.8915
G1 X182.2485 Y134.5985
G1 X183.5 Y134.5
G1 X184.7515 Y134.5985
G1 X185.9721 Y134.8915
G1 X187.1319 Y135.3719
G1 X188.2023 Y136.0279
G1 X189.1569 Y136.8431
G1 X189.9721 Y137.7977
G1 X190.6281 Y138.8681
G1 X191.1085 Y140.0279
G1 X191.4015 Y141.2485
G1 X191.5 Y142.5
G0 X175.5415 Y143.0267 F3000
G1 X182.9733 Y150.4585 F200
G0 X186.6041 Y149.8467 F3000
G1 X176.1533 Y139.3959 F200
G0 X177.8431 Y136.8431 F3000
G1 X189.1569 Y148.1569 F200
G0 X190.8467 Y145.6041 F3000
G1 X180.3959 Y135.1533 F200
G0 X184.0267 Y134.5415 F3000
G1 X191.4585 Y141.9733 F200
M106 S0
G0 X68.5 Y167.5 F3000
M106 S255
G1 X68.5 Y183.5 F200
G1 X68.4015 Y184.7515
G1 X68.1085 Y185.9721
G1 X67.6281 Y187.1319
G1 X66.9721 Y188.2023
G1 X66.1569 Y189.1569
G1 X65.2023 Y189.9721
G1 X64.1319 Y190.6281
G1 X62.9721 Y191.1085
G1 X61.7515 Y191.4015
G1 X60.5 Y191.5
G1 X59.2485 Y191.4015
G1 X58.0279 Y191.1085
G1 X56.8681 Y190.6281
G1 X55.7977 Y189.9721
G1 X54.8431 Y189.1569
G1 X54.0279 Y188.2023
G1 X53.3719 Y187.1319
G1 X52.8915 Y185.9721
G1 X52.5985 Y184.7515
G1 X52.5 Y183.5
G1 X52.5985 Y182.2485
G1 X52.8915 Y181.0279
G1 X53.3719 Y179.8681
G1 X54.0279 Y178.7977
G1 X54.8431 Y177.8431
G1 X55.7977 Y177.0279
G1 X56.8681 Y176.3719
G1 X58.0279 Y175.8915
G1 X59.2485 Y175.5985
G1 X60.5 Y175.5
G1 X61.7515 Y175.5985
G1 X62.9721 Y175.8915
G1 X64.1319 Y176.3719
G1 X65.2023 Y177.0279
G1 X66.1569 Y177.8431
G1 X66.9721 Y178.7977
G1 X67.6281 Y179.8681
G1 X68.1085 Y181.0279
G1 X68.4015 Y182.2485
G1 X68.5 Y183.5
G0 X52.5415 Y184.0267 F3000
G1 X59.9733 Y191.4585 F200
G0 X63.6041 Y190.8467 F3000
G1 X53.1533 Y180.3959 F200
G0 X54.8431 Y177.8431 F3000
G1 X66.1569 Y189.1569 F200
G0 X67.8467 Y186.6041 F3000
G1 X57.3959 Y176.1533 F200
G0 X61.0267 Y175.5415 F3000
G1 X68.4585 Y182.9733 F200
M106 S0
G0 X109.5 Y167.5 F3000
M106 S255
G1 X109.5 Y183.5 F200
G1 X109.4015 Y184.7515
G1 X109.1085 Y185.9721
G1 X108.6281 Y187.1319
G1 X107.9721 Y188.2023
G1 X107.1569 Y189.1569
G1 X106.2023 Y189.9721
G1 X105.1319 Y190.6281
G1 X103.9721 Y191.1085
G1 X102.7515 Y191.4015
G1 X101.5 Y191.5
G1 X100.2485 Y191.4015
G1 X99.0279 Y191.1085
G1 X97.8681 Y190.6281
G1 X96.7977 Y189.9721
G1 X95.8431 Y189.1569
G1 X95.0279 Y188.2023
G1 X94.3719 Y187.1319
G1 X93.8915 Y185.9721
G1 X93.5985 Y184.7515
G1 X93.5 Y183.5
G1 X93.5985 Y182.2485
G1 X93.8915 Y181.0279
G1 X94.3719 Y179.8681
G1 X95.0279 Y178.7977
G1 X95.8431 Y177.8431
G1 X96.7977 Y177.0279
G1 X97.8681 Y176.3719
G1 X99.0279 Y175.8915
G1 X100.2485 Y175.5985
G1 X101.5 Y175.5
G1 X102.7515 Y175.5985
G1 X103.9721 Y175.8915
G1 X105.1319 Y176.3719
G1 X106.2023 Y177.0279
G1 X107.1569 Y177.8431
G1 X107.9721 Y178.7977
G1 X108.6281 Y179.8681
G1 X109.1085 Y181.0279
G1 X109.4015 Y182.2485
G1 X109.5 Y183.5
G0 X93.5415 Y184.0267 F3000
G1 X100.9733 Y191.4585 F200
G0 X104.6041 Y190.8467 F3000
G1 X94.1533 Y180.3959 F200
G0 X95.8431 Y177.8431 F3000
G1 X107.1569 Y189.1569 F200
G0 X108.8467 Y186.6041 F3000
G1 X98.3959 Y176.1533 F200
G0 X102.0267 Y175.5415 F3000
G1 X109.4585 Y182.9733 F200
M106 S0
G0 X150.5 Y167.5 F3000
M106 S255
G1 X150.5 Y183.5 F200
G1 X150.4015 Y184.7515
G1 X150.1085 Y185.9721
G1 X149.6281 Y187.1319
G1 X148.9721 Y188.2023
G1 X148.1569 Y189.1569
G1 X147.2023 Y189.9721
G1 X146.1319 Y190.6281
G1 X144.9721 Y191.1085
G1 X143.7515 Y191.4015
G1 X142.5 Y191.5
G1 X141.2485 Y191.4015
G1 X140.0279 Y191.1085
G1 X138.8681 Y190.6281
G1 X137.7977 Y189.9721
G1 X136.8431 Y189.1569
G1 X136.0279 Y188.2023
G1 X135.3719 Y187.1319
G1 X134.8915 Y185.9721
G1 X134.5985 Y184.7515
G1 X134.5 Y183.5
G1 X134.5985 Y182.2485
G1 X134.8915 Y181.0279
G1 X135.3719 Y179.8681
G1 X136.0279 Y178.7977
G1 X136.8431 Y177.8431
G1 X137.7977 Y177.0279
G1 X138.8681 Y176.3719
G1 X140.0279 Y175.8915
G1 X141.2485 Y175.5985
G1 X142.5 Y175.5
G1 X143.7515 Y175.5985
G1 X144.9721 Y175.8915
G1 X146.1319 Y176.3719
G1 X147.2023 Y177.0279
G1 X148.1569 Y177.8431
G1 X148.9721 Y178.7977
G1 X149.6281 Y179.8681
G1 X150.1085 Y181.0279
G1 X150.4015 Y182.2485
G1 X150.5 Y183.5
G0 X134.5415 Y184.0267 F3000
G1 X141.9733 Y191.4585 F200
G0 X145.6041 Y190.8467 F3000
G1 X135.1533 Y180.3959 F200
G0 X136.8431 Y177.8431 F3000
G1 X148.1569 Y189.1569 F200
G0 X149.8467 Y186.6041 F3000
G1 X139.3959 Y176.1533 F200
G0 X143.0267 Y175.5415 F3000
G1 X150.4585 Y182.9733 F200
M106 S0
G0 X191.5 Y167.5 F3000
M106 S255
G1 X191.5 Y183.5 F200
G1 X191.4015 Y184.7515
G1 X191.1085 Y185.9721
G1 X190.6281 Y187.1319
G1 X189.9721 Y188.2023
G1 X189.1569 Y189.1569
G1 X188.2023 Y189.9721
G1 X187.1319 Y190.6281
G1 X185.9721 Y191.1085
G1 X184.7515 Y191.4015
G1 X183.5 Y191.5
G1 X182.2485 Y191.4015
G1 X181.0279 Y191.1085
G1 X179.8681 Y190.6281
G1 X178.7977 Y189.9721
G1 X177.8431 Y189.1569
G1 X177.0279 Y188.2023
G1 X176.3719 Y187.1319
G1 X175.8915 Y185.9721
G1 X175.5985 Y184.7515
G1 X175.5 Y183.5
G1 X175.5985 Y182.2485
G1 X175.8915 Y181.0279
G1 X176.3719 Y179.8681
G1 X177.0279 Y178.7977
G1 X177.8431 Y177.8431
G1 X178.7977 Y177.0279
G1 X179.8681 Y176.3719
G1 X181.0279 Y175.8915
G1 X182.2485 Y175.5985
G1 X183.5 Y175.5
G1 X184.7515 Y175.5985
G1 X185.9721 Y175.8915
G1 X187.1319 Y176.3719
G1 X188.2023 Y177.0279
G1 X189.1569 Y177.8431
G1 X189.9721 Y178.7977
G1 X190.6281 Y179.8681
G1 X191.1085 Y181.0279
G1 X191.4015 Y182.2485
G1 X191.5 Y183.5
G0 X175.5415 Y184.0267 F3000
G1 X182.9733 Y191.4585 F200
G0 X186.6041 Y190.8467 F3000
G1 X176.1533 Y180.3959 F200
G0 X177.8431 Y177.8431 F3000
G1 X189.1569 Y189.1569 F200
G0 X190.8467 Y186.6041 F3000
G1 X180.3959 Y176.1533 F200
G0 X184.0267 Y175.5415 F3000
G1 X191.4585 Y182.9733 F200
M106 S0
G0 Z3 F3000
G0 X68.5 Y44.5 F3000
M106 S255
G1 X68.5 Y60.5 F200
G1 X68.4015 Y61.7515
G1 X68.1085 Y62.9721
G1 X67.6281 Y64.1319
G1 X66.9721 Y65.2023
G1 X66.1569 Y66.1569
G1 X65.2023 Y66.9721
G1 X64.1319 Y67.6281
G1 X62.9721 Y68.1085
G1 X61.7515 Y68.4015
G1 X60.5 Y68.5
G1 X59.2485 Y68.4015
G1 X58.0279 Y68.1085
G1 X56.8681 Y67.6281
G1 X55.7977 Y66.9721
G1 X54.8431 Y66.1569
G1 X54.0279 Y65.2023
G1 X53.3719 Y64.1319
G1 X52.8915 Y62.9721
G1 X52.5985 Y61.7515
G1 X52.5 Y60.5
G1 X52.5985 Y59.2485
G1 X52.8915 Y58.0279
G1 X53.3719 Y56.8681
G1 X54.0279 Y55.7977
G1 X54.8431 Y54.8431
G1 X55.7977 Y54.0279
G1 X56.8681 Y53.3719
G1 X58.0279 Y52.8915
G1 X59.2485 Y52.5985
G1 X60.5 Y52.5
G1 X61.7515 Y52.5985
G1 X62.9721 Y52.8915
G1 X64.1319 Y53.3719
G1 X65.2023 Y54.0279
G1 X66.1569 Y54.8431
G1 X66.9721 Y55.7977
G1 X67.6281 Y56.8681
G1 X68.1085 Y58.0279
G1 X68.4015 Y59.2485
G1 X68.5 Y60.5
G0 X54.5 Y55.2449 F3000
G1 X54.5 Y65.7551 F200
G0 X57.5 Y67.8898 F3000
G1 X57.5 Y53.1102 F200
G0 X60.5 Y52.5 F3000
G1 X60.5 Y68.5 F200
G0 X63.5 Y67.8898 F3000
G1 X63.5 Y53.1102 F200
G0 X66.5 Y55.2449 F3000
G1 X66.5 Y65.7551 F200
M106 S0
G0 X109.5 Y44.5 F3000
M106 S255
G1 X109.5 Y60.5 F200
G1 X109.4015 Y61.7515
G1 X109.1085 Y62.9721
G1 X108.6281 Y64.1319
G1 X107.9721 Y65.2023
G1 X107.1569 Y66.1569
G1 X106.2023 Y66.9721
G1 X105.1319 Y67.6281
G1 X103.9721 Y68.1085
G1 X102.7515 Y68.4015
G1 X101.5 Y68.5
G1 X100.2485 Y68.4015
G1 X99.0279 Y68.1085
G1 X97.8681 Y67.6281
G1 X96.7977 Y66.9721
G1 X95.8431 Y66.1569
G1 X95.0279 Y65.2023
G1 X94.3719 Y64.1319
G1 X93.8915 Y62.9721
G1 X93.5985 Y61.7515
G1 X93.5 Y60.5
G1 X93.5985 Y59.2485
G1 X93.8915 Y58.0279
G1 X94.3719 Y56.8681
G1 X95.0279 Y55.7977
G1 X95.8431 Y54.8431
G1 X96.7977 Y54.0279
G1 X97.8681 Y53.3719
G1 X99.0279 Y52.8915
G1 X100.2485 Y52.5985
G1 X101.5 Y52.5
G1 X102.7515 Y52.5985
G1 X103.9721 Y52.8915
G1 X105.1319 Y53.3719
G1 X106.2023 Y54.0279
G1 X107.1569 Y54.8431
G1 X107.9721 Y55.7977
G1 X108.6281 Y56.8681
G1 X109.1085 Y58.0279
G1 X109.4015 Y59.2485
G1 X109.5 Y60.5
G0 X95.5 Y55.2449 F3000
G1 X95.5 Y65.7551 F200
G0 X98.5 Y67.8898 F3000
G1 X98.5 Y53.1102 F200
G0 X101.5 Y52.5 F3000
G1 X101.5 Y68.5 F200
G0 X104.5 Y67.8898 F3000
G1 X104.5 Y53.1102 F200
G0 X107.5 Y55.2449 F3000
G1 X107.5 Y65.7551 F200
M106 S0
G0 X150.5 Y44.5 F3000
M106 S255
G1 X150.5 Y60.5 F200
G1 X150.4015 Y61.7515
G1 X150.1085 Y62.9721
G1 X149.6281 Y64.1319
G1 X148.9721 Y65.2023
G1 X148.1569 Y66.1569
G1 X147.2023 Y66.9721
G1 X146.1319 Y67.6281
G1 X144.9721 Y68.1085
G1 X143.7515 Y68.4015
G1 X142.5 Y68.5
G1 X141.2485 Y68.4015
G1 X140.0279 Y68.1085
G1 X138.8681 Y67.6281
G1 X137.7977 Y66.9721
G1 X136.8431 Y66.1569
G1 X136.0279 Y65.2023
G1 X135.3719 Y64.1319
G1 X134.8915 Y62.9721
G1 X134.5985 Y61.7515
G1 X134.5 Y60.5
G1 X134.5985 Y59.2485
G1 X134.8915 Y58.0279
G1 X135.3719 Y56.8681
G1 X136.0279 Y55.7977
G1 X136.8431 Y54.8431
G1 X137.7977 Y54.0279
G1 X138.8681 Y53.3719
G1 X140.0279 Y52.8915
G1 X141.2485 Y52.5985
G1 X142.5 Y52.5
G1 X143.7515 Y52.5985
G1 X144.9721 Y52.8915
G1 X146.1319 Y53.3719
G1 X147.2023 Y54.0279
G1 X148.1569 Y54.8431
G1 X148.9721 Y55.7977
G1 X149.6281 Y56.8681
G1 X150.1085 Y58.0279
G1 X150.4015 Y59.2485
G1 X150.5 Y60.5
G0 X136.5 Y55.2449 F3000
G1 X136.5 Y65.7551 F200
G0 X139.5 Y67.8898 F3000
G1 X139.5 Y53.1102 F200
G0 X142.5 Y52.5 F3000
G1 X142.5 Y68.5 F200
G0 X145.5 Y67.8898 F3000
G1 X145.5 Y53.1102 F200
G0 X148.5 Y55.2449 F3000
G1 X148.5 Y65.7551 F200
M106 S0
G0 X191.5 Y44.5 F3000
M106 S255
G1 X191.5 Y60.5 F200
G1 X191.4015 Y61.7515
G1 X191.1085 Y62.9721
G1 X190.6281 Y64.1319
G1 X189.9721 Y65.2023
G1 X189.1569 Y66.1569
G1 X188.2023 Y66.9721
G1 X187.1319 Y67.6281
G1 X185.9721 Y68.1085
G1 X184.7515 Y68.4015
G1 X183.5 Y68.5
G1 X182.2485 Y68.4015
G1 X181.0279 Y68.1085
G1 X179.8681 Y67.6281
G1 X178.7977 Y66.9721
G1 X177.8431 Y66.1569
G1 X177.0279 Y65.2023
G1 X176.3719 Y64.1319
G1 X175.8915 Y62.9721
G1 X175.5985 Y61.7515
G1 X175.5 Y60.5
G1 X175.5985 Y59.2485
G1 X175.8915 Y58.0279
G1 X176.3719 Y56.8681
G1 X177.0279 Y55.7977
G1 X177.8431 Y54.8431
G1 X178.7977 Y54.0279
G1 X179.8681 Y53.3719
G1 X181.0279 Y52.8915
