; Marlin GCODE for the MS&T Chem E Cube team's Creality Ender-3
; --angle=0.125
; --circle-resolution=40
; --layer-height=0.5
; --layers=40
; --line-spacing=3
; --monolith-spacing=20.0
; --monoliths=4
; --move-feedrate=3000
; --print-feedrate=200
; --radius=8
; --tangent=16
; --wait=500
; --x-max=220
; --x-min=40
; --y-max=220
; --y-min=40
; --z-feedrate=3000
M84 E ; Disable extruder
G28 ; Home all axes
G90 ; Absolute positioning
G0 Z.5 F3000
G0 X66 Y42 F3000
M106 S255
G1 X66 Y58 F200
G1 X65.9015 Y59.2515
G1 X65.6085 Y60.4721
G1 X65.1281 Y61.6319
G1 X64.4721 Y62.7023
G1 X63.6569 Y63.6569
G1 X62.7023 Y64.4721
G1 X61.6319 Y65.1281
G1 X60.4721 Y65.6085
G1 X59.2515 Y65.9015
G1 X58 Y66
G1 X56.7485 Y65.9015
G1 X55.5279 Y65.6085
G1 X54.3681 Y65.1281
G1 X53.2977 Y64.4721
G1 X52.3431 Y63.6569
G1 X51.5279 Y62.7023
G1 X50.8719 Y61.6319
G1 X50.3915 Y60.4721
G1 X50.0985 Y59.2515
G1 X50 Y58
G1 X50.0985 Y56.7485
G1 X50.3915 Y55.5279
G1 X50.8719 Y54.3681
G1 X51.5279 Y53.2977
G1 X52.3431 Y52.3431
G1 X53.2977 Y51.5279
G1 X54.3681 Y50.8719
G1 X55.5279 Y50.3915
G1 X56.7485 Y50.0985
G1 X58 Y50
G1 X59.2515 Y50.0985
G1 X60.4721 Y50.3915
G1 X61.6319 Y50.8719
G1 X62.7023 Y51.5279
G1 X63.6569 Y52.3431
G1 X64.4721 Y53.2977
G1 X65.1281 Y54.3681
G1 X65.6085 Y55.5279
G1 X65.9015 Y56.7485
G1 X66 Y58
G0 X50.0415 Y58.5267 F3000
G1 X57.4733 Y65.9585 F200
G0 X61.1041 Y65.3467 F3000
G1 X50.6533 Y54.8959 F200
G0 X52.3431 Y52.3431 F3000
G1 X63.6569 Y63.6569 F200
G0 X65.3467 Y61.1041 F3000
G1 X54.8959 Y50.6533 F200
G0 X58.5267 Y50.0415 F3000
G1 X65.9585 Y57.4733 F200
M106 S0
G0 X102 Y42 F3000
M106 S255
G1 X102 Y58 F200
G1 X101.9015 Y59.2515
G1 X101.6085 Y60.4721
G1 X101.1281 Y61.6319
G1 X100.4721 Y62.7023
G1 X99.6569 Y63.6569
G1 X98.7023 Y64.4721
G1 X97.6319 Y65.1281
G1 X96.4721 Y65.6085
G1 X95.2515 Y65.9015
G1 X94 Y66
G1 X92.7485 Y65.9015
G1 X91.5279 Y65.6085
G1 X90.3681 Y65.1281
G1 X89.2977 Y64.4721
G1 X88.3431 Y63.6569
G1 X87.5279 Y62.7023
G1 X86.8719 Y61.6319
G1 X86.3915 Y60.4721
G1 X86.0985 Y59.2515
G1 X86 Y58
G1 X86.0985 Y56.7485
G1 X86.3915 Y55.5279
G1 X86.8719 Y54.3681
G1 X87.5279 Y53.2977
G1 X88.3431 Y52.3431
G1 X89.2977 Y51.5279
G1 X90.3681 Y50.8719
G1 X91.5279 Y50.3915
G1 X92.7485 Y50.0985
G1 X94 Y50
G1 X95.2515 Y50.0985
G1 X96.4721 Y50.3915
G1 X97.6319 Y50.8719
G1 X98.7023 Y51.5279
G1 X99.6569 Y52.3431
G1 X100.4721 Y53.2977
G1 X101.1281 Y54.3681
G1 X101.6085 Y55.5279
G1 X101.9015 Y56.7485
G1 X102 Y58
G0 X86.0415 Y58.5267 F3000
G1 X93.4733 Y65.9585 F200
G0 X97.1041 Y65.3467 F3000
G1 X86.6533 Y54.8959 F200
G0 X88.3431 Y52.3431 F3000
G1 X99.6569 Y63.6569 F200
G0 X101.3467 Y61.1041 F3000
G1 X90.8959 Y50.6533 F200
G0 X94.5267 Y50.0415 F3000
G1 X101.9585 Y57.4733 F200
M106 S0
G0 X138 Y42 F3000
M106 S255
G1 X138 Y58 F200
G1 X137.9015 Y59.2515
G1 X137.6085 Y60.4721
G1 X137.1281 Y61.6319
G1 X136.4721 Y62.7023
G1 X135.6569 Y63.6569
G1 X134.7023 Y64.4721
G1 X133.6319 Y65.1281
G1 X132.4721 Y65.6085
G1 X131.2515 Y65.9015
G1 X130 Y66
G1 X128.7485 Y65.9015
G1 X127.5279 Y65.6085
G1 X126.3681 Y65.1281
G1 X125.2977 Y64.4721
G1 X124.3431 Y63.6569
G1 X123.5279 Y62.7023
G1 X122.8719 Y61.6319
G1 X122.3915 Y60.4721
G1 X122.0985 Y59.2515
G1 X122 Y58
G1 X122.0985 Y56.7485
G1 X122.3915 Y55.5279
G1 X122.8719 Y54.3681
G1 X123.5279 Y53.2977
G1 X124.3431 Y52.3431
G1 X125.2977 Y51.5279
G1 X126.3681 Y50.8719
G1 X127.5279 Y50.3915
G1 X128.7485 Y50.0985
G1 X130 Y50
G1 X131.2515 Y50.0985
G1 X132.4721 Y50.3915
G1 X133.6319 Y50.8719
G1 X134.7023 Y51.5279
G1 X135.6569 Y52.3431
G1 X136.4721 Y53.2977
G1 X137.1281 Y54.3681
G1 X137.6085 Y55.5279
G1 X137.9015 Y56.7485
G1 X138 Y58
G0 X122.0415 Y58.5267 F3000
G1 X129.4733 Y65.9585 F200
G0 X133.1041 Y65.3467 F3000
G1 X122.6533 Y54.8959 F200
G0 X124.3431 Y52.3431 F3000
G1 X135.6569 Y63.6569 F200
G0 X137.3467 Y61.1041 F3000
G1 X126.8959 Y50.6533 F200
G0 X130.5267 Y50.0415 F3000
G1 X137.9585 Y57.4733 F200
M106 S0
G0 X174 Y42 F3000
M106 S255
G1 X174 Y58 F200
G1 X173.9015 Y59.2515
G1 X173.6085 Y60.4721
G1 X173.1281 Y61.6319
G1 X172.4721 Y62.7023
G1 X171.6569 Y63.6569
G1 X170.7023 Y64.4721
G1 X169.6319 Y65.1281
G1 X168.4721 Y65.6085
G1 X167.2515 Y65.9015
G1 X166 Y66
G1 X164.7485 Y65.9015
G1 X163.5279 Y65.6085
G1 X162.3681 Y65.1281
G1 X161.2977 Y64.4721
G1 X160.3431 Y63.6569
G1 X159.5279 Y62.7023
G1 X158.8719 Y61.6319
G1 X158.3915 Y60.4721
G1 X158.0985 Y59.2515
G1 X158 Y58
G1 X158.0985 Y56.7485
G1 X158.3915 Y55.5279
G1 X158.8719 Y54.3681
G1 X159.5279 Y53.2977
G1 X160.3431 Y52.3431
G1 X161.2977 Y51.5279
G1 X162.3681 Y50.8719
G1 X163.5279 Y50.3915
G1 X164.7485 Y50.0985
G1 X166 Y50
G1 X167.2515 Y50.0985
G1 X168.4721 Y50.3915
G1 X169.6319 Y50.8719
G1 X170.7023 Y51.5279
G1 X171.6569 Y52.3431
G1 X172.4721 Y53.2977
G1 X173.1281 Y54.3681
G1 X173.6085 Y55.5279
G1 X173.9015 Y56.7485
G1 X174 Y58
G0 X158.0415 Y58.5267 F3000
G1 X165.4733 Y65.9585 F200
G0 X169.1041 Y65.3467 F3000
G1 X158.6533 Y54.8959 F200
G0 X160.3431 Y52.3431 F3000
G1 X171.6569 Y63.6569 F200
G0 X173.3467 Y61.1041 F3000
G1 X162.8959 Y50.6533 F200
G0 X166.5267 Y50.0415 F3000
G1 X173.9585 Y57.4733 F200
M106 S0
G4 P334363
G0 Z1 F3000
G0 X66 Y42 F3000
M106 S255
G1 X66 Y58 F200
G1 X65.9015 Y59.2515
G1 X65.6085 Y60.4721
G1 X65.1281 Y61.6319
G1 X64.4721 Y62.7023
G1 X63.6569 Y63.6569
G1 X62.7023 Y64.4721
G1 X61.6319 Y65.1281
G1 X60.4721 Y65.6085
G1 X59.2515 Y65.9015
G1 X58 Y66
G1 X56.7485 Y65.9015
G1 X55.5279 Y65.6085
G1 X54.3681 Y65.1281
G1 X53.2977 Y64.4721
G1 X52.3431 Y63.6569
G1 X51.5279 Y62.7023
G1 X50.8719 Y61.6319
G1 X50.3915 Y60.4721
G1 X50.0985 Y59.2515
G1 X50 Y58
G1 X50.0985 Y56.7485
G1 X50.3915 Y55.5279
G1 X50.8719 Y54.3681
G1 X51.5279 Y53.2977
G1 X52.3431 Y52.3431
G1 X53.2977 Y51.5279
G1 X54.3681 Y50.8719
G1 X55.5279 Y50.3915
G1 X56.7485 Y50.0985
G1 X58 Y50
G1 X59.2515 Y50.0985
G1 X60.4721 Y50.3915
G1 X61.6319 Y50.8719
G1 X62.7023 Y51.5279
G1 X63.6569 Y52.3431
G1 X64.4721 Y53.2977
G1 X65.1281 Y54.3681
G1 X65.6085 Y55.5279
G1 X65.9015 Y56.7485
G1 X66 Y58
G0 X52 Y52.7449 F3000
G1 X52 Y63.2551 F200
G0 X55 Y65.3898 F3000
G1 X55 Y50.6102 F200
G0 X58 Y50 F3000
G1 X58 Y66 F200
G0 X61 Y65.3898 F3000
G1 X61 Y50.6102 F200
G0 X64 Y52.7449 F3000
G1 X64 Y63.2551 F200
M106 S0
G0 X102 Y42 F3000
M106 S255
G1 X102 Y58 F200
G1 X101.9015 Y59.2515
G1 X101.6085 Y60.4721
G1 X101.1281 Y61.6319
G1 X100.4721 Y62.7023
G1 X99.6569 Y63.6569
G1 X98.7023 Y64.4721
G1 X97.6319 Y65.1281
G1 X96.4721 Y65.6085
G1 X95.2515 Y65.9015
G1 X94 Y66
G1 X92.7485 Y65.9015
G1 X91.5279 Y65.6085
G1 X90.3681 Y65.1281
G1 X89.2977 Y64.4721
G1 X88.3431 Y63.6569
G1 X87.5279 Y62.7023
G1 X86.8719 Y61.6319
G1 X86.3915 Y60.4721
G1 X86.0985 Y59.2515
G1 X86 Y58
G1 X86.0985 Y56.7485
G1 X86.3915 Y55.5279
G1 X86.8719 Y54.3681
G1 X87.5279 Y53.2977
G1 X88.3431 Y52.3431
G1 X89.2977 Y51.5279
G1 X90.3681 Y50.8719
G1 X91.5279 Y50.3915
G1 X92.7485 Y50.0985
G1 X94 Y50
G1 X95.2515 Y50.0985
G1 X96.4721 Y50.3915
G1 X97.6319 Y50.8719
G1 X98.7023 Y51.5279
G1 X99.6569 Y52.3431
G1 X100.4721 Y53.2977
G1 X101.1281 Y54.3681
G1 X101.6085 Y55.5279
G1 X101.9015 Y56.7485
G1 X102 Y58
G0 X88 Y52.7449 F3000
G1 X88 Y63.2551 F200
G0 X91 Y65.3898 F3000
G1 X91 Y50.6102 F200
G0 X94 Y50 F3000
G1 X94 Y66 F200
G0 X97 Y65.3898 F3000
G1 X97 Y50.6102 F200
G0 X100 Y52.7449 F3000
G1 X100 Y63.2551 F200
M106 S0
G0 X138 Y42 F3000
M106 S255
G1 X138 Y58 F200
G1 X137.9015 Y59.2515
G1 X137.6085 Y60.4721
G1 X137.1281 Y61.6319
G1 X136.4721 Y62.7023
G1 X135.6569 Y63.6569
G1 X134.7023 Y64.4721
G1 X133.6319 Y65.1281
G1 X132.4721 Y65.6085
G1 X131.2515 Y65.9015
G1 X130 Y66
G1 X128.7485 Y65.9015
G1 X127.5279 Y65.6085
G1 X126.3681 Y65.1281
G1 X125.2977 Y64.4721
G1 X124.3431 Y63.6569
G1 X123.5279 Y62.7023
G1 X122.8719 Y61.6319
G1 X122.3915 Y60.4721
G1 X122.0985 Y59.2515
G1 X122 Y58
G1 X122.0985 Y56.7485
G1 X122.3915 Y55.5279
G1 X122.8719 Y54.3681
G1 X123.5279 Y53.2977
G1 X124.3431 Y52.3431
G1 X125.2977 Y51.5279
G1 X126.3681 Y50.8719
G1 X127.5279 Y50.3915
G1 X128.7485 Y50.0985
G1 X130 Y50
G1 X131.2515 Y50.0985
G1 X132.4721 Y50.3915
G1 X133.6319 Y50.8719
G1 X134.7023 Y51.5279
G1 X135.6569 Y52.3431
G1 X136.4721 Y53.2977
G1 X137.1281 Y54.3681
G1 X137.6085 Y55.5279
G1 X137.9015 Y56.7485
G1 X138 Y58
G0 X124 Y52.7449 F3000
G1 X124 Y63.2551 F200
G0 X127 Y65.3898 F3000
G1 X127 Y50.6102 F200
G0 X130 Y50 F3000
G1 X130 Y66 F200
G0 X133 Y65.3898 F3000
G1 X133 Y50.6102 F200
G0 X136 Y52.7449 F3000
G1 X136 Y63.2551 F200
M106 S0
G0 X174 Y42 F3000
M106 S255
G1 X174 Y58 F200
G1 X173.9015 Y59.2515
G1 X173.6085 Y60.4721
G1 X173.1281 Y61.6319
G1 X172.4721 Y62.7023
G1 X171.6569 Y63.6569
G1 X170.7023 Y64.4721
G1 X169.6319 Y65.1281
G1 X168.4721 Y65.6085
G1 X167.2515 Y65.9015
G1 X166 Y66
G1 X164.7485 Y65.9015
G1 X163.5279 Y65.6085
G1 X162.3681 Y65.1281
G1 X161.2977 Y64.4721
G1 X160.3431 Y63.6569
G1 X159.5279 Y62.7023
G1 X158.8719 Y61.6319
G1 X158.3915 Y60.4721
G1 X158.0985 Y59.2515
G1 X158 Y58
G1 X158.0985 Y56.7485
G1 X158.3915 Y55.5279
G1 X158.8719 Y54.3681
G1 X159.5279 Y53.2977
G1 X160.3431 Y52.3431
G1 X161.2977 Y51.5279
G1 X162.3681 Y50.8719
G1 X163.5279 Y50.3915
G1 X164.7485 Y50.0985
G1 X166 Y50
G1 X167.2515 Y50.0985
G1 X168.4721 Y50.3915
G1 X169.6319 Y50.8719
G1 X170.7023 Y51.5279
G1 X171.6569 Y52.3431
G1 X172.4721 Y53.2977
G1 X173.1281 Y54.3681
G1 X173.6085 Y55.5279
G1 X173.9015 Y56.7485
G1 X174 Y58
G0 X160 Y52.7449 F3000
G1 X160 Y63.2551 F200
G0 X163 Y65.3898 F3000
G1 X163 Y50.6102 F200
G0 X166 Y50 F3000
G1 X166 Y66 F200
G0 X169 Y65.3898 F3000
G1 X169 Y50.6102 F200
G0 X172 Y52.7449 F3000
G1 X172 Y63.2551 F200
M106 S0
G4 P333559
G0 Z1.5 F3000
G0 X66 Y42 F3000
M106 S255
G1 X66 Y58 F200
G1 X65.9015 Y59.2515
G1 X65.6085 Y60.4721
G1 X65.1281 Y61.6319
G1 X64.4721 Y62.7023
G1 X63.6569 Y63.6569
G1 X62.7023 Y64.4721
G1 X61.6319 Y65.1281
G1 X60.4721 Y65.6085
G1 X59.2515 Y65.9015
G1 X58 Y66
G1 X56.7485 Y65.9015
G1 X55.5279 Y65.6085
G1 X54.3681 Y65.1281
G1 X53.2977 Y64.4721
G1 X52.3431 Y63.6569
G1 X51.5279 Y62.7023
G1 X50.8719 Y61.6319
G1 X50.3915 Y60.4721
G1 X50.0985 Y59.2515
G1 X50 Y58
G1 X50.0985 Y56.7485
G1 X50.3915 Y55.5279
G1 X50.8719 Y54.3681
G1 X51.5279 Y53.2977
G1 X52.3431 Y52.3431
G1 X53.2977 Y51.5279
G1 X54.3681 Y50.8719
G1 X55.5279 Y50.3915
G1 X56.7485 Y50.0985
G1 X58 Y50
G1 X59.2515 Y50.0985
G1 X60.4721 Y50.3915
G1 X61.6319 Y50.8719
G1 X62.7023 Y51.5279
G1 X63.6569 Y52.3431
G1 X64.4721 Y53.2977
G1 X65.1281 Y54.3681
G1 X65.6085 Y55.5279
G1 X65.9015 Y56.7485
G1 X66 Y58
G0 X57.4733 Y50.0415 F3000
G1 X50.0415 Y57.4733 F200
G0 X50.6533 Y61.1041 F3000
G1 X61.1041 Y50.6533 F200
G0 X63.6569 Y52.3431 F3000
G1 X52.3431 Y63.6569 F200
G0 X54.8959 Y65.3467 F3000
G1 X65.3467 Y54.8959 F200
G0 X65.9585 Y58.5267 F3000
G1 X58.5267 Y65.9585 F200
M106 S0
G0 X102 Y42 F3000
M106 S255
G1 X102 Y58 F200
G1 X101.9015 Y59.2515
G1 X101.6085 Y60.4721
G1 X101.1281 Y61.6319
G1 X100.4721 Y62.7023
G1 X99.6569 Y63.6569
G1 X98.7023 Y64.4721
G1 X97.6319 Y65.1281
G1 X96.4721 Y65.6085
G1 X95.2515 Y65.9015
G1 X94 Y66
G1 X92.7485 Y65.9015
G1 X91.5279 Y65.6085
G1 X90.3681 Y65.1281
G1 X89.2977 Y64.4721
G1 X88.3431 Y63.6569
G1 X87.5279 Y62.7023
G1 X86.8719 Y61.6319
G1 X86.3915 Y60.4721
G1 X86.0985 Y59.2515
G1 X86 Y58
G1 X86.0985 Y56.7485
G1 X86.3915 Y55.5279
G1 X86.8719 Y54.3681
G1 X87.5279 Y53.2977
G1 X88.3431 Y52.3431
G1 X89.2977 Y51.5279
G1 X90.3681 Y50.8719
G1 X91.5279 Y50.3915
G1 X92.7485 Y50.0985
G1 X94 Y50
G1 X95.2515 Y50.0985
G1 X96.4721 Y50.3915
G1 X97.6319 Y50.8719
G1 X98.7023 Y51.5279
G1 X99.6569 Y52.3431
G1 X100.4721 Y53.2977
G1 X101.1281 Y54.3681
G1 X101.6085 Y55.5279
G1 X101.9015 Y56.7485
G1 X102 Y58
G0 X93.4733 Y50.0415 F3000
G1 X86.0415 Y57.4733 F200
G0 X86.6533 Y61.1041 F3000
G1 X97.1041 Y50.6533 F200
G0 X99.6569 Y52.3431 F3000
G1 X88.3431 Y63.6569 F200
G0 X90.8959 Y65.3467 F3000
G1 X101.3467 Y54.8959 F200
G0 X101.9585 Y58.5267 F3000
G1 X94.5267 Y65.9585 F200
M106 S0
G0 X138 Y42 F3000
M106 S255
G1 X138 Y58 F200
G1 X137.9015 Y59.2515
G1 X137.6085 Y60.4721
G1 X137.1281 Y61.6319
G1 X136.4721 Y62.7023
G1 X135.6569 Y63.6569
G1 X134.7023 Y64.4721
G1 X133.6319 Y65.1281
G1 X132.4721 Y65.6085
G1 X131.2515 Y65.9015
G1 X130 Y66
G1 X128.7485 Y65.9015
G1 X127.5279 Y65.6085
G1 X126.3681 Y65.1281
G1 X125.2977 Y64.4721
G1 X124.3431 Y63.6569
G1 X123.5279 Y62.7023
G1 X122.8719 Y61.6319
G1 X122.3915 Y60.4721
G1 X122.0985 Y59.2515
G1 X122 Y58
G1 X122.0985 Y56.7485
G1 X122.3915 Y55.5279
G1 X122.8719 Y54.3681
G1 X123.5279 Y53.2977
G1 X124.3431 Y52.3431
G1 X125.2977 Y51.5279
G1 X126.3681 Y50.8719
G1 X127.5279 Y50.3915
G1 X128.7485 Y50.0985
G1 X130 Y50
G1 X131.2515 Y50.0985
G1 X132.4721 Y50.3915
G1 X133.6319 Y50.8719
G1 X134.7023 Y51.5279
G1 X135.6569 Y52.3431
G1 X136.4721 Y53.2977
G1 X137.1281 Y54.3681
G1 X137.6085 Y55.5279
G1 X137.9015 Y56.7485
G1 X138 Y58
G0 X129.4733 Y50.0415 F3000
G1 X122.0415 Y57.4733 F200
G0 X122.6533 Y61.1041 F3000
G1 X133.1041 Y50.6533 F200
G0 X135.6569 Y52.3431 F3000
G1 X124.3431 Y63.6569 F200
G0 X126.8959 Y65.3467 F3000
G1 X137.3467 Y54.8959 F200
G0 X137.9585 Y58.5267 F3000
G1 X130.5267 Y65.9585 F200
M106 S0
G0 X174 Y42 F3000
M106 S255
G1 X174 Y58 F200
G1 X173.9015 Y59.2515
G1 X173.6085 Y60.4721
G1 X173.1281 Y61.6319
G1 X172.4721 Y62.7023
G1 X171.6569 Y63.6569
G1 X170.7023 Y64.4721
G1 X169.6319 Y65.1281
G1 X168.4721 Y65.6085
G1 X167.2515 Y65.9015
G1 X166 Y66
G1 X164.7485 Y65.9015
G1 X163.5279 Y65.6085
G1 X162.3681 Y65.1281
G1 X161.2977 Y64.4721
G1 X160.3431 Y63.6569
G1 X159.5279 Y62.7023
G1 X158.8719 Y61.6319
G1 X158.3915 Y60.4721
G1 X158.0985 Y59.2515
G1 X158 Y58
G1 X158.0985 Y56.7485
G1 X158.3915 Y55.5279
G1 X158.8719 Y54.3681
G1 X159.5279 Y53.2977
G1 X160.3431 Y52.3431
G1 X161.2977 Y51.5279
G1 X162.3681 Y50.8719
G1 X163.5279 Y50.3915
G1 X164.7485 Y50.0985
G1 X166 Y50
G1 X167.2515 Y50.0985
G1 X168.4721 Y50.3915
G1 X169.6319 Y50.8719
G1 X170.7023 Y51.5279
G1 X171.6569 Y52.3431
G1 X172.4721 Y53.2977
G1 X173.1281 Y54.3681
G1 X173.6085 Y55.5279
G1 X173.9015 Y56.7485
G1 X174 Y58
G0 X165.4733 Y50.0415 F3000
G1 X158.0415 Y57.4733 F200
G0 X158.6533 Y61.1041 F3000
G1 X169.1041 Y50.6533 F200
G0 X171.6569 Y52.3431 F3000
G1 X160.3431 Y63.6569 F200
G0 X162.8959 Y65.3467 F3000
G1 X173.3467 Y54.8959 F200
G0 X173.9585 Y58.5267 F3000
G1 X166.5267 Y65.9585 F200
M106 S0
G4 P333465
G0 Z2 F3000
G0 X66 Y42 F3000
M106 S255
G1 X66 Y58 F200
G1 X65.9015 Y59.2515
G1 X65.6085 Y60.4721
G1 X65.1281 Y61.6319
G1 X64.4721 Y62.7023
G1 X63.6569 Y63.6569
G1 X62.7023 Y64.4721
G1 X61.6319 Y65.1281
G1 X60.4721 Y65.6085
G1 X59.2515 Y65.9015
G1 X58 Y66
G1 X56.7485 Y65.9015
G1 X55.5279 Y65.6085
G1 X54.3681 Y65.1281
G1 X53.2977 Y64.4721
G1 X52.3431 Y63.6569
G1 X51.5279 Y62.7023
G1 X50.8719 Y61.6319
G1 X50.3915 Y60.4721
G1 X50.0985 Y59.2515
G1 X50 Y58
G1 X50.0985 Y56.7485
G1 X50.3915 Y55.5279
G1 X50.8719 Y54.3681
G1 X51.5279 Y53.2977
G1 X52.3431 Y52.3431
G1 X53.2977 Y51.5279
G1 X54.3681 Y50.8719
G1 X55.5279 Y50.3915
G1 X56.7485 Y50.0985
G1 X58 Y50
G1 X59.2515 Y50.0985
G1 X60.4721 Y50.3915
G1 X61.6319 Y50.8719
G1 X62.7023 Y51.5279
G1 X63.6569 Y52.3431
G1 X64.4721 Y53.2977
G1 X65.1281 Y54.3681
G1 X65.6085 Y55.5279
G1 X65.9015 Y56.7485
G1 X66 Y58
G0 X52.7449 Y64 F3000
G1 X63.2551 Y64 F200
G0 X65.3898 Y61 F3000
G1 X50.6102 Y61 F200
G0 X50 Y58 F3000
G1 X66 Y58 F200
G0 X65.3898 Y55 F3000
G1 X50.6102 Y55 F200
G0 X52.7449 Y52 F3000
G1 X63.2551 Y52 F200
M106 S0
G0 X102 Y42 F3000
M106 S255
G1 X102 Y58 F200
G1 X101.9015 Y59.2515
G1 X101.6085 Y60.4721
G1 X101.1281 Y61.6319
G1 X100.4721 Y62.7023
G1 X99.6569 Y63.6569
G1 X98.7023 Y64.4721
G1 X97.6319 Y65.1281
G1 X96.4721 Y65.6085
G1 X95.2515 Y65.9015
G1 X94 Y66
G1 X92.7485 Y65.9015
G1 X91.5279 Y65.6085
G1 X90.3681 Y65.1281
G1 X89.2977 Y64.4721
G1 X88.3431 Y63.6569
G1 X87.5279 Y62.7023
G1 X86.8719 Y61.6319
G1 X86.3915 Y60.4721
G1 X86.0985 Y59.2515
G1 X86 Y58
G1 X86.0985 Y56.7485
G1 X86.3915 Y55.5279
G1 X86.8719 Y54.3681
G1 X87.5279 Y53.2977
G1 X88.3431 Y52.3431
G1 X89.2977 Y51.5279
G1 X90.3681 Y50.8719
G1 X91.5279 Y50.3915
G1 X92.7485 Y50.0985
G1 X94 Y50
G1 X95.2515 Y50.0985
G1 X96.4721 Y50.3915
G1 X97.6319 Y50.8719
G1 X98.7023 Y51.5279
G1 X99.6569 Y52.3431
G1 X100.4721 Y53.2977
G1 X101.1281 Y54.3681
G1 X101.6085 Y55.5279
G1 X101.9015 Y56.7485
G1 X102 Y58
G0 X88.7449 Y64 F3000
G1 X99.2551 Y64 F200
G0 X101.3898 Y61 F3000
G1 X86.6102 Y61 F200
G0 X86 Y58 F3000
G1 X102 Y58 F200
G0 X101.3898 Y55 F3000
G1 X86.6102 Y55 F200
G0 X88.7449 Y52 F3000
G1 X99.2551 Y52 F200
M106 S0
G0 X138 Y42 F3000
M106 S255
G1 X138 Y58 F200
G1 X137.9015 Y59.2515
G1 X137.6085 Y60.4721
G1 X137.1281 Y61.6319
G1 X136.4721 Y62.7023
G1 X135.6569 Y63.6569
G1 X134.7023 Y64.4721
G1 X133.6319 Y65.1281
G1 X132.4721 Y65.6085
G1 X131.2515 Y65.9015
G1 X130 Y66
G1 X128.7485 Y65.9015
G1 X127.5279 Y65.6085
G1 X126.3681 Y65.1281
G1 X125.2977 Y64.4721
G1 X124.3431 Y63.6569
G1 X123.5279 Y62.7023
G1 X122.8719 Y61.6319
G1 X122.3915 Y60.4721
G1 X122.0985 Y59.2515
G1 X122 Y58
G1 X122.0985 Y56.7485
G1 X122.3915 Y55.5279
G1 X122.8719 Y54.3681
G1 X123.5279 Y53.2977
G1 X124.3431 Y52.3431
G1 X125.2977 Y51.5279
G1 X126.3681 Y50.8719
G1 X127.5279 Y50.3915
G1 X128.7485 Y50.0985
G1 X130 Y50
G1 X131.2515 Y50.0985
G1 X132.4721 Y50.3915
G1 X133.6319 Y50.8719
G1 X134.7023 Y51.5279
G1 X135.6569 Y52.3431
G1 X136.4721 Y53.2977
G1 X137.1281 Y54.3681
G1 X137.6085 Y55.5279
G1 X137.9015 Y56.7485
G1 X138 Y58
G0 X124.7449 Y64 F3000
G1 X135.2551 Y64 F200
G0 X137.3898 Y61 F3000
G1 X122.6102 Y61 F200
G0 X122 Y58 F3000
G1 X138 Y58 F200
G0 X137.3898 Y55 F3000
G1 X122.6102 Y55 F200
G0 X124.7449 Y52 F3000
G1 X135.2551 Y52 F200
M106 S0
G0 X174 Y42 F3000
M106 S255
G1 X174 Y58 F200
G1 X173.9015 Y59.2515
G1 X173.6085 Y60.4721
G1 X173.1281 Y61.6319
G1 X172.4721 Y62.7023
G1 X171.6569 Y63.6569
G1 X170.7023 Y64.4721
G1 X169.6319 Y65.1281
G1 X168.4721 Y65.6085
G1 X167.2515 Y65.9015
G1 X166 Y66
G1 X164.7485 Y65.9015
G1 X163.5279 Y65.6085
G1 X162.3681 Y65.1281
G1 X161.2977 Y64.4721
G1 X160.3431 Y63.6569
G1 X159.5279 Y62.7023
G1 X158.8719 Y61.6319
G1 X158.3915 Y60.4721
G1 X158.0985 Y59.2515
G1 X158 Y58
G1 X158.0985 Y56.7485
G1 X158.3915 Y55.5279
G1 X158.8719 Y54.3681
G1 X159.5279 Y53.2977
G1 X160.3431 Y52.3431
G1 X161.2977 Y51.5279
G1 X162.3681 Y50.8719
G1 X163.5279 Y50.3915
G1 X164.7485 Y50.0985
G1 X166 Y50
G1 X167.2515 Y50.0985
G1 X168.4721 Y50.3915
G1 X169.6319 Y50.8719
G1 X170.7023 Y51.5279
G1 X171.6569 Y52.3431
G1 X172.4721 Y53.2977
G1 X173.1281 Y54.3681
G1 X173.6085 Y55.5279
G1 X173.9015 Y56.7485
G1 X174 Y58
G0 X160.7449 Y64 F3000
G1 X171.2551 Y64 F200
G0 X173.3898 Y61 F3000
G1 X158.6102 Y61 F200
G0 X158 Y58 F3000
G1 X174 Y58 F200
G0 X173.3898 Y55 F3000
G1 X158.6102 Y55 F200
G0 X160.7449 Y52 F3000
G1 X171.2551 Y52 F200
M106 S0
G4 P333897
G0 Z2.5 F3000
G0 X66 Y42 F3000
M106 S255
G1 X66 Y58 F200
G1 X65.9015 Y59.2515
G1 X65.6085 Y60.4721
G1 X65.1281 Y61.6319
G1 X64.4721 Y62.7023
G1 X63.6569 Y63.6569
G1 X62.7023 Y64.4721
G1 X61.6319 Y65.1281
G1 X60.4721 Y65.6085
G1 X59.2515 Y65.9015
G1 X58 Y66
G1 X56.7485 Y65.9015
G1 X55.5279 Y65.6085
G1 X54.3681 Y65.1281
G1 X53.2977 Y64.4721
G1 X52.3431 Y63.6569
G1 X51.5279 Y62.7023
G1 X50.8719 Y61.6319
G1 X50.3915 Y60.4721
G1 X50.0985 Y59.2515
G1 X50 Y58
G1 X50.0985 Y56.7485
G1 X50.3915 Y55.5279
G1 X50.8719 Y54.3681
G1 X51.5279 Y53.2977
G1 X52.3431 Y52.3431
G1 X53.2977 Y51.5279
G1 X54.3681 Y50.8719
G1 X55.5279 Y50.3915
G1 X56.7485 Y50.0985
G1 X58 Y50
G1 X59.2515 Y50.0985
G1 X60.4721 Y50.3915
G1 X61.6319 Y50.8719
G1 X62.7023 Y51.5279
G1 X63.6569 Y52.3431
G1 X64.4721 Y53.2977
G1 X65.1281 Y54.3681
G1 X65.6085 Y55.5279
G1 X65.9015 Y56.7485
G1 X66 Y58
G0 X50.0415 Y58.5267 F3000
G1 X57.4733 Y65.9585 F200
G0 X61.1041 Y65.3467 F3000
G1 X50.6533 Y54.8959 F200
G0 X52.3431 Y52.3431 F3000
G1 X63.6569 Y63.6569 F200
G0 X65.3467 Y61.1041 F3000
G1 X54.8959 Y50.6533 F200
G0 X58.5267 Y50.0415 F3000
G1 X65.9585 Y57.4733 F200
M106 S0
G0 X102 Y42 F3000
M106 S255
G1 X102 Y58 F200
G1 X101.9015 Y59.2515
G1 X101.6085 Y60.4721
G1 X101.1281 Y61.6319
G1 X100.4721 Y62.7023
G1 X99.6569 Y63.6569
G1 X98.7023 Y64.4721
G1 X97.6319 Y65.1281
G1 X96.4721 Y65.6085
G1 X95.2515 Y65.9015
G1 X94 Y66
G1 X92.7485 Y65.9015
G1 X91.5279 Y65.6085
G1 X90.3681 Y65.1281
G1 X89.2977 Y64.4721
G1 X88.3431 Y63.6569
G1 X87.5279 Y62.7023
G1 X86.8719 Y61.6319
G1 X86.3915 Y60.4721
G1 X86.0985 Y59.2515
G1 X86 Y58
G1 X86.0985 Y56.7485
G1 X86.3915 Y55.5279
G1 X86.8719 Y54.3681
G1 X87.5279 Y53.2977
G1 X88.3431 Y52.3431
G1 X89.2977 Y51.5279
G1 X90.3681 Y50.8719
G1 X91.5279 Y50.3915
G1 X92.7485 Y50.0985
G1 X94 Y50
G1 X95.2515 Y50.0985
G1 X96.4721 Y50.3915
G1 X97.6319 Y50.8719
G1 X98.7023 Y51.5279
G1 X99.6569 Y52.3431
G1 X100.4721 Y53.2977
G1 X101.1281 Y54.3681
G1 X101.6085 Y55.5279
G1 X101.9015 Y56.7485
G1 X102 Y58
G0 X86.0415 Y58.5267 F3000
G1 X93.4733 Y65.9585 F200
G0 X97.1041 Y65.3467 F3000
G1 X86.6533 Y54.8959 F200
G0 X88.3431 Y52.3431 F3000
G1 X99.6569 Y63.6569 F200
G0 X101.3467 Y61.1041 F3000
G1 X90.8959 Y50.6533 F200
G0 X94.5267 Y50.0415 F3000
G1 X101.9585 Y57.4733 F200
M106 S0
G0 X138 Y42 F3000
M106 S255
G1 X138 Y58 F200
G1 X137.9015 Y59.2515
G1 X137.6085 Y60.4721
G1 X137.1281 Y61.6319
G1 X136.4721 Y62.7023
G1 X135.6569 Y63.6569
G1 X134.7023 Y64.4721
G1 X133.6319 Y65.1281
G1 X132.4721 Y65.6085
G1 X131.2515 Y65.9015
G1 X130 Y66
G1 X128.7485 Y65.9015
G1 X127.5279 Y65.6085
G1 X126.3681 Y65.1281
G1 X125.2977 Y64.4721
G1 X124.3431 Y63.6569
G1 X123.5279 Y62.7023
G1 X122.8719 Y61.6319
G1 X122.3915 Y60.4721
G1 X122.0985 Y59.2515
G1 X122 Y58
G1 X122.0985 Y56.7485
G1 X122.3915 Y55.5279
G1 X122.8719 Y54.3681
G1 X123.5279 Y53.2977
G1 X124.3431 Y52.3431
G1 X125.2977 Y51.5279
G1 X126.3681 Y50.8719
G1 X127.5279 Y50.3915
G1 X128.7485 Y50.0985
G1 X130 Y50
G1 X131.2515 Y50.0985
G1 X132.4721 Y50.3915
G1 X133.6319 Y50.8719
G1 X134.7023 Y51.5279
G1 X135.6569 Y52.3431
G1 X136.4721 Y53.2977
G1 X137.1281 Y54.3681
G1 X137.6085 Y55.5279
G1 X137.9015 Y56.7485
G1 X138 Y58
G0 X122.0415 Y58.5267 F3000
G1 X129.4733 Y65.9585 F200
G0 X133.1041 Y65.3467 F3000
G1 X122.6533 Y54.8959 F200
G0 X124.3431 Y52.3431 F3000
G1 X135.6569 Y63.6569 F200
G0 X137.3467 Y61.1041 F3000
G1 X126.8959 Y50.6533 F200
G0 X130.5267 Y50.0415 F3000
G1 X137.9585 Y57.4733 F200
M106 S0
G0 X174 Y42 F3000
M106 S255
G1 X174 Y58 F200
G1 X173.9015 Y59.2515
G1 X173.6085 Y60.4721
G1 X173.1281 Y61.6319
G1 X172.4721 Y62.7023
G1 X171.6569 Y63.6569
G1 X170.7023 Y64.4721
G1 X169.6319 Y65.1281
G1 X168.4721 Y65.6085
G1 X167.2515 Y65.9015
G1 X166 Y66
G1 X164.7485 Y65.9015
G1 X163.5279 Y65.6085
G1 X162.3681 Y65.1281
G1 X161.2977 Y64.4721
G1 X160.3431 Y63.6569
G1 X159.5279 Y62.7023
G1 X158.8719 Y61.6319
G1 X158.3915 Y60.4721
G1 X158.0985 Y59.2515
G1 X158 Y58
G1 X158.0985 Y56.7485
G1 X158.3915 Y55.5279
G1 X158.8719 Y54.3681
G1 X159.5279 Y53.2977
G1 X160.3431 Y52.3431
G1 X161.2977 Y51.5279
G1 X162.3681 Y50.8719
G1 X163.5279 Y50.3915
G1 X164.7485 Y50.0985
G1 X166 Y50
G1 X167.2515 Y50.0985
G1 X168.4721 Y50.3915
G1 X169.6319 Y50.8719
G1 X170.7023 Y51.5279
G1 X171.6569 Y52.3431
G1 X172.4721 Y53.2977
G1 X173.1281 Y54.3681
G1 X173.6085 Y55.5279
G1 X173.9015 Y56.7485
G1 X174 Y58
G0 X158.0415 Y58.5267 F3000
G1 X165.4733 Y65.9585 F200
G0 X169.1041 Y65.3467 F3000
G1 X158.6533 Y54.8959 F200
G0 X160.3431 Y52.3431 F3000
G1 X171.6569 Y63.6569 F200
G0 X173.3467 Y61.1041 F3000
G1 X162.8959 Y50.6533 F200
G0 X166.5267 Y50.0415 F3000
G1 X173.9585 Y57.4733 F200
M106 S0
G4 P333773
G0 Z3 F3000
G0 X66 Y42 F3000
M106 S255
G1 X66 Y58 F200
G1 X65.9015 Y59.2515
G1 X65.6085 Y60.4721
G1 X65.1281 Y61.6319
G1 X64.4721 Y62.7023
G1 X63.6569 Y63.6569
G1 X62.7023 Y64.4721
G1 X61.6319 Y65.1281
G1 X60.4721 Y65.6085
G1 X59.2515 Y65.9015
G1 X58 Y66
G1 X56.7485 Y65.9015
G1 X55.5279 Y65.6085
G1 X54.3681 Y65.1281
G1 X53.2977 Y64.4721
G1 X52.3431 Y63.6569
G1 X51.5279 Y62.7023
G1 X50.8719 Y61.6319
G1 X50.3915 Y60.4721
G1 X50.0985 Y59.2515
G1 X50 Y58
G1 X50.0985 Y56.7485
G1 X50.3915 Y55.5279
G1 X50.8719 Y54.3681
G1 X51.5279 Y53.2977
G1 X52.3431 Y52.3431
G1 X53.2977 Y51.5279
G1 X54.3681 Y50.8719
G1 X55.5279 Y50.3915
G1 X56.7485 Y50.0985
G1 X58 Y50
G1 X59.2515 Y50.0985
G1 X60.4721 Y50.3915
G1 X61.6319 Y50.8719
G1 X62.7023 Y51.5279
G1 X63.6569 Y52.3431
G1 X64.4721 Y53.2977
G1 X65.1281 Y54.3681
G1 X65.6085 Y55.5279
G1 X65.9015 Y56.7485
G1 X66 Y58
G0 X52 Y52.7449 F3000
G1 X52 Y63.2551 F200
G0 X55 Y65.3898 F3000
G1 X55 Y50.6102 F200
G0 X58 Y50 F3000
G1 X58 Y66 F200
G0 X61 Y65.3898 F3000
G1 X61 Y50.6102 F200
G0 X64 Y52.7449 F3000
G1 X64 Y63.2551 F200
M106 S0
G0 X102 Y42 F3000
M106 S255
G1 X102 Y58 F200
G1 X101.9015 Y59.2515
G1 X101.6085 Y60.4721
G1 X101.1281 Y61.6319
G1 X100.4721 Y62.7023
G1 X99.6569 Y63.6569
G1 X98.7023 Y64.4721
G1 X97.6319 Y65.1281
G1 X96.4721 Y65.6085
G1 X95.2515 Y65.9015
G1 X94 Y66
G1 X92.7485 Y65.9015
G1 X91.5279 Y65.6085
G1 X90.3681 Y65.1281
G1 X89.2977 Y64.4721
G1 X88.3431 Y63.6569
G1 X87.5279 Y62.7023
G1 X86.8719 Y61.6319
G1 X86.3915 Y60.4721
G1 X86.0985 Y59.2515
G1 X86 Y58
G1 X86.0985 Y56.7485
G1 X86.3915 Y55.5279
G1 X86.8719 Y54.3681
G1 X87.5279 Y53.2977
G1 X88.3431 Y52.3431
G1 X89.2977 Y51.5279
G1 X90.3681 Y50.8719
G1 X91.5279 Y50.3915
G1 X92.7485 Y50.0985
G1 X94 Y50
G1 X95.2515 Y50.0985
G1 X96.4721 Y50.3915
G1 X97.6319 Y50.8719
G1 X98.7023 Y51.5279
G1 X99.6569 Y52.3431
G1 X100.4721 Y53.2977
G1 X101.1281 Y54.3681
G1 X101.6085 Y55.5279
G1 X101.9015 Y56.7485
G1 X102 Y58
G0 X88 Y52.7449 F3000
G1 X88 Y63.2551 F200
G0 X91 Y65.3898 F3000
G1 X91 Y50.6102 F200
G0 X94 Y50 F3000
G1 X94 Y66 F200
G0 X97 Y65.3898 F3000
G1 X97 Y50.6102 F200
G0 X100 Y52.7449 F3000
G1 X100 Y63.2551 F200
M106 S0
G0 X138 Y42 F3000
M106 S255
G1 X138 Y58 F200
G1 X137.9015 Y59.2515
G1 X137.6085 Y60.4721
G1 X137.1281 Y61.6319
G1 X136.4721 Y62.7023
G1 X135.6569 Y63.6569
G1 X134.7023 Y64.4721
G1 X133.6319 Y65.1281
G1 X132.4721 Y65.6085
G1 X131.2515 Y65.9015
G1 X130 Y66
G1 X128.7485 Y65.9015
G1 X127.5279 Y65.6085
G1 X126.3681 Y65.1281
G1 X125.2977 Y64.4721
G1 X124.3431 Y63.6569
G1 X123.5279 Y62.7023
G1 X122.8719 Y61.6319
G1 X122.3915 Y60.4721
G1 X122.0985 Y59.2515
G1 X122 Y58
G1 X122.0985 Y56.7485
G1 X122.3915 Y55.5279
G1 X122.8719 Y54.3681
G1 X123.5279 Y53.2977
G1 X124.3431 Y52.3431
G1 X125.2977 Y51.5279
G1 X126.3681 Y50.8719
G1 X127.5279 Y50.3915
G1 X128.7485 Y50.0985
G1 X130 Y50
G1 X131.2515 Y50.0985
G1 X132.4721 Y50.3915
G1 X133.6319 Y50.8719
G1 X134.7023 Y51.5279
G1 X135.6569 Y52.3431
G1 X136.4721 Y53.2977
G1 X137.1281 Y54.3681
G1 X137.6085 Y55.5279
G1 X137.9015 Y56.7485
G1 X138 Y58
G0 X124 Y52.7449 F3000
G1 X124 Y63.2551 F200
G0 X127 Y65.3898 F3000
G1 X127 Y50.6102 F200
G0 X130 Y50 F3000
G1 X130 Y66 F200
G0 X133 Y65.3898 F3000
G1 X133 Y50.6102 F200
G0 X136 Y52.7449 F3000
G1 X136 Y63.2551 F200
M106 S0
G0 X174 Y42 F3000
M106 S255
G1 X174 Y58 F200
G1 X173.9015 Y59.2515
G1 X173.6085 Y60.4721
G1 X173.1281 Y61.6319
G1 X172.4721 Y62.7023
G1 X171.6569 Y63.6569
G1 X170.7023 Y64.4721
G1 X169.6319 Y65.1281
G1 X168.4721 Y65.6085
G1 X167.2515 Y65.9015
G1 X166 Y66
G1 X164.7485 Y65.9015
G1 X163.5279 Y65.6085
G1 X162.3681 Y65.1281
G1 X161.2977 Y64.4721
G1 X160.3431 Y63.6569
G1 X159.5279 Y62.7023
G1 X158.8719 Y61.6319
G1 X158.3915 Y60.4721
G1 X158.0985 Y59.2515
G1 X158 Y58
G1 X158.0985 Y56.7485
G1 X158.3915 Y55.5279
G1 X158.8719 Y54.3681
G1 X159.5279 Y53.2977
G1 X160.3431 Y52.3431
G1 X161.2977 Y51.5279
G1 X162.3681 Y50.8719
G1 X163.5279 Y50.3915
G1 X164.7485 Y50.0985
G1 X166 Y50
G1 X167.2515 Y50.0985
G1 X168.4721 Y50.3915
G1 X169.6319 Y50.8719
G1 X170.7023 Y51.5279
G1 X171.6569 Y52.3431
G1 X172.4721 Y53.2977
G1 X173.1281 Y54.3681
G1 X173.6085 Y55.5279
G1 X173.9015 Y56.7485
G1 X174 Y58
G0 X160 Y52.7449 F3000
G1 X160 Y63.2551 F200
G0 X163 Y65.3898 F3000
G1 X163 Y50.6102 F200
G0 X166 Y50 F3000
G1 X166 Y66 F200
G0 X169 Y65.3898 F3000
G1 X169 Y50.6102 F200
G0 X172 Y52.7449 F3000
G1 X172 Y63.2551 F200
M106 S0
G4 P333519
G0 Z3.5 F3000
G0 X66 Y42 F3000
M106 S255
G1 X66 Y58 F200
G1 X65.9015 Y59.2515
G1 X65.6085 Y60.4721
G1 X65.1281 Y61.6319
G1 X64.4721 Y62.7023
G1 X63.6569 Y63.6569
G1 X62.7023 Y64.4721
G1 X61.6319 Y65.1281
G1 X60.4721 Y65.6085
G1 X59.2515 Y65.9015
G1 X58 Y66
G1 X56.7485 Y65.9015
G1 X55.5279 Y65.6085
G1 X54.3681 Y65.1281
G1 X53.2977 Y64.4721
G1 X52.3431 Y63.6569
G1 X51.5279 Y62.7023
G1 X50.8719 Y61.6319
G1 X50.3915 Y60.4721
G1 X50.0985 Y59.2515
G1 X50 Y58
G1 X50.0985 Y56.7485
G1 X50.3915 Y55.5279
G1 X50.8719 Y54.3681
G1 X51.5279 Y53.2977
G1 X52.3431 Y52.3431
G1 X53.2977 Y51.5279
G1 X54.3681 Y50.8719
G1 X55.5279 Y50.3915
G1 X56.7485 Y50.0985
G1 X58 Y50
G1 X59.2515 Y50.0985
G1 X60.4721 Y50.3915
G1 X61.6319 Y50.8719
G1 X62.7023 Y51.5279
G1 X63.6569 Y52.3431
G1 X64.4721 Y53.2977
G1 X65.1281 Y54.3681
G1 X65.6085 Y55.5279
G1 X65.9015 Y56.7485
G1 X66 Y58
G0 X57.4733 Y50.0415 F3000
G1 X50.0415 Y57.4733 F200
G0 X50.6533 Y61.1041 F3000
G1 X61.1041 Y50.6533 F200
G0 X63.6569 Y52.3431 F3000
G1 X52.3431 Y63.6569 F200
G0 X54.8959 Y65.3467 F3000
G1 X65.3467 Y54.8959 F200
G0 X65.9585 Y58.5267 F3000
G1 X58.5267 Y65.9585 F200
M106 S0
G0 X102 Y42 F3000
M106 S255
G1 X102 Y58 F200
G1 X101.9015 Y59.2515
G1 X101.6085 Y60.4721
G1 X101.1281 Y61.6319
G1 X100.4721 Y62.7023
G1 X99.6569 Y63.6569
G1 X98.7023 Y64.4721
G1 X97.6319 Y65.1281
G1 X96.4721 Y65.6085
G1 X95.2515 Y65.9015
G1 X94 Y66
G1 X92.7485 Y65.9015
G1 X91.5279 Y65.6085
G1 X90.3681 Y65.1281
G1 X89.2977 Y64.4721
G1 X88.3431 Y63.6569
G1 X87.5279 Y62.7023
G1 X86.8719 Y61.6319
G1 X86.3915 Y60.4721
G1 X86.0985 Y59.2515
G1 X86 Y58
G1 X86.0985 Y56.7485
G1 X86.3915 Y55.5279
G1 X86.8719 Y54.3681
G1 X87.5279 Y53.2977
G1 X88.3431 Y52.3431
G1 X89.2977 Y51.5279
G1 X90.3681 Y50.8719
G1 X91.5279 Y50.3915
G1 X92.7485 Y50.0985
G1 X94 Y50
G1 X95.2515 Y50.0985
G1 X96.4721 Y50.3915
G1 X97.6319 Y50.8719
G1 X98.7023 Y51.5279
G1 X99.6569 Y52.3431
G1 X100.4721 Y53.2977
G1 X101.1281 Y54.3681
G1 X101.6085 Y55.5279
G1 X101.9015 Y56.7485
G1 X102 Y58
G0 X93.4733 Y50.0415 F3000
G1 X86.0415 Y57.4733 F200
G0 X86.6533 Y61.1041 F3000
G1 X97.1041 Y50.6533 F200
G0 X99.6569 Y52.3431 F3000
G1 X88.3431 Y63.6569 F200
G0 X90.8959 Y65.3467 F3000
G1 X101.3467 Y54.8959 F200
G0 X101.9585 Y58.5267 F3000
G1 X94.5267 Y65.9585 F200
M106 S0
G0 X138 Y42 F3000
M106 S255
G1 X138 Y58 F200
G1 X137.9015 Y59.2515
G1 X137.6085 Y60.4721
G1 X137.1281 Y61.6319
G1 X136.4721 Y62.7023
G1 X135.6569 Y63.6569
G1 X134.7023 Y64.4721
G1 X133.6319 Y65.1281
G1 X132.4721 Y65.6085
G1 X131.2515 Y65.9015
G1 X130 Y66
G1 X128.7485 Y65.9015
G1 X127.5279 Y65.6085
G1 X126.3681 Y65.1281
G1 X125.2977 Y64.4721
G1 X124.3431 Y63.6569
G1 X123.5279 Y62.7023
G1 X122.8719 Y61.6319
G1 X122.3915 Y60.4721
G1 X122.0985 Y59.2515
G1 X122 Y58
G1 X122.0985 Y56.7485
G1 X122.3915 Y55.5279
G1 X122.8719 Y54.3681
G1 X123.5279 Y53.2977
G1 X124.3431 Y52.3431
G1 X125.2977 Y51.5279
G1 X126.3681 Y50.8719
G1 X127.5279 Y50.3915
G1 X128.7485 Y50.0985
G1 X130 Y50
G1 X131.2515 Y50.0985
G1 X132.4721 Y50.3915
G1 X133.6319 Y50.8719
G1 X134.7023 Y51.5279
G1 X135.6569 Y52.3431
G1 X136.4721 Y53.2977
G1 X137.1281 Y54.3681
G1 X137.6085 Y55.5279
G1 X137.9015 Y56.7485
G1 X138 Y58
G0 X129.4733 Y50.0415 F3000
G1 X122.0415 Y57.4733 F200
G0 X122.6533 Y61.1041 F3000
G1 X133.1041 Y50.6533 F200
G0 X135.6569 Y52.3431 F3000
G1 X124.3431 Y63.6569 F200
G0 X126.8959 Y65.3467 F3000
G1 X137.3467 Y54.8959 F200
G0 X137.9585 Y58.5267 F3000
G1 X130.5267 Y65.9585 F200
M106 S0
G0 X174 Y42 F3000
M106 S255
G1 X174 Y58 F200
G1 X173.9015 Y59.2515
G1 X173.6085 Y60.4721
G1 X173.1281 Y61.6319
G1 X172.4721 Y62.7023
G1 X171.6569 Y63.6569
G1 X170.7023 Y64.4721
G1 X169.6319 Y65.1281
G1 X168.4721 Y65.6085
G1 X167.2515 Y65.9015
G1 X166 Y66
G1 X164.7485 Y65.9015
G1 X163.5279 Y65.6085
G1 X162.3681 Y65.1281
G1 X161.2977 Y64.4721
G1 X160.3431 Y63.6569
G1 X159.5279 Y62.7023
G1 X158.8719 Y61.6319
G1 X158.3915 Y60.4721
G1 X158.0985 Y59.2515
G1 X158 Y58
G1 X158.0985 Y56.7485
G1 X158.3915 Y55.5279
G1 X158.8719 Y54.3681
G1 X159.5279 Y53.2977
G1 X160.3431 Y52.3431
G1 X161.2977 Y51.5279
G1 X162.3681 Y50.8719
G1 X163.5279 Y50.3915
G1 X164.7485 Y50.0985
G1 X166 Y50
G1 X167.2515 Y50.0985
G1 X168.4721 Y50.3915
G1 X169.6319 Y50.8719
G1 X170.7023 Y51.5279
G1 X171.6569 Y52.3431
G1 X172.4721 Y53.2977
G1 X173.1281 Y54.3681
G1 X173.6085 Y55.5279
G1 X173.9015 Y56.7485
G1 X174 Y58
G0 X165.4733 Y50.0415 F3000
G1 X158.0415 Y57.4733 F200
G0 X158.6533 Y61.1041 F3000
G1 X169.1041 Y50.6533 F200
G0 X171.6569 Y52.3431 F3000
G1 X160.3431 Y63.6569 F200
G0 X162.8959 Y65.3467 F3000
G1 X173.3467 Y54.8959 F200
G0 X173.9585 Y58.5267 F3000
G1 X166.5267 Y65.9585 F200
M106 S0
G4 P333425
G0 Z4 F3000
G0 X66 Y42 F3000
M106 S255
G1 X66 Y58 F200
G1 X65.9015 Y59.2515
G1 X65.6085 Y60.4721
G1 X65.1281 Y61.6319
G1 X64.4721 Y62.7023
G1 X63.6569 Y63.6569
G1 X62.7023 Y64.4721
G1 X61.6319 Y65.1281
G1 X60.4721 Y65.6085
G1 X59.2515 Y65.9015
G1 X58 Y66
G1 X56.7485 Y65.9015
G1 X55.5279 Y65.6085
G1 X54.3681 Y65.1281
G1 X53.2977 Y64.4721
G1 X52.3431 Y63.6569
G1 X51.5279 Y62.7023
G1 X50.8719 Y61.6319
G1 X50.3915 Y60.4721
G1 X50.0985 Y59.2515
G1 X50 Y58
G1 X50.0985 Y56.7485
G1 X50.3915 Y55.5279
G1 X50.8719 Y54.3681
G1 X51.5279 Y53.2977
G1 X52.3431 Y52.3431
G1 X53.2977 Y51.5279
G1 X54.3681 Y50.8719
G1 X55.5279 Y50.3915
G1 X56.7485 Y50.0985
G1 X58 Y50
G1 X59.2515 Y50.0985
G1 X60.4721 Y50.3915
G1 X61.6319 Y50.8719
G1 X62.7023 Y51.5279
G1 X63.6569 Y52.3431
G1 X64.4721 Y53.2977
G1 X65.1281 Y54.3681
G1 X65.6085 Y55.5279
G1 X65.9015 Y56.7485
G1 X66 Y58
G0 X52.7449 Y64 F3000
G1 X63.2551 Y64 F200
G0 X65.3898 Y61 F3000
G1 X50.6102 Y61 F200
G0 X50 Y58 F3000
G1 X66 Y58 F200
G0 X65.3898 Y55 F3000
G1 X50.6102 Y55 F200
G0 X52.7449 Y52 F3000
G1 X63.2551 Y52 F200
M106 S0
G0 X102 Y42 F3000
M106 S255
G1 X102 Y58 F200
G1 X101.9015 Y59.2515
G1 X101.6085 Y60.4721
G1 X101.1281 Y61.6319
G1 X100.4721 Y62.7023
G1 X99.6569 Y63.6569
G1 X98.7023 Y64.4721
G1 X97.6319 Y65.1281
G1 X96.4721 Y65.6085
G1 X95.2515 Y65.9015
G1 X94 Y66
G1 X92.7485 Y65.9015
G1 X91.5279 Y65.6085
G1 X90.3681 Y65.1281
G1 X89.2977 Y64.4721
G1 X88.3431 Y63.6569
G1 X87.5279 Y62.7023
G1 X86.8719 Y61.6319
G1 X86.3915 Y60.4721
G1 X86.0985 Y59.2515
G1 X86 Y58
G1 X86.0985 Y56.7485
G1 X86.3915 Y55.5279
G1 X86.8719 Y54.3681
G1 X87.5279 Y53.2977
G1 X88.3431 Y52.3431
G1 X89.2977 Y51.5279
G1 X90.3681 Y50.8719
G1 X91.5279 Y50.3915
G1 X92.7485 Y50.0985
G1 X94 Y50
G1 X95.2515 Y50.0985
G1 X96.4721 Y50.3915
G1 X97.6319 Y50.8719
G1 X98.7023 Y51.5279
G1 X99.6569 Y52.3431
G1 X100.4721 Y53.2977
G1 X101.1281 Y54.3681
G1 X101.6085 Y55.5279
G1 X101.9015 Y56.7485
G1 X102 Y58
G0 X88.7449 Y64 F3000
G1 X99.2551 Y64 F200
G0 X101.3898 Y61 F3000
G1 X86.6102 Y61 F200
G0 X86 Y58 F3000
G1 X102 Y58 F200
G0 X101.3898 Y55 F3000
G1 X86.6102 Y55 F200
G0 X88.7449 Y52 F3000
G1 X99.2551 Y52 F200
M106 S0
G0 X138 Y42 F3000
M106 S255
G1 X138 Y58 F200
G1 X137.9015 Y59.2515
G1 X137.6085 Y60.4721
G1 X137.1281 Y61.6319
G1 X136.4721 Y62.7023
G1 X135.6569 Y63.6569
G1 X134.7023 Y64.4721
G1 X133.6319 Y65.1281
G1 X132.4721 Y65.6085
G1 X131.2515 Y65.9015
G1 X130 Y66
G1 X128.7485 Y65.9015
G1 X127.5279 Y65.6085
G1 X126.3681 Y65.1281
G1 X125.2977 Y64.4721
G1 X124.3431 Y63.6569
G1 X123.5279 Y62.7023
G1 X122.8719 Y61.6319
G1 X122.3915 Y60.4721
G1 X122.0985 Y59.2515
G1 X122 Y58
G1 X122.0985 Y56.7485
G1 X122.3915 Y55.5279
G1 X122.8719 Y54.3681
G1 X123.5279 Y53.2977
G1 X124.3431 Y52.3431
G1 X125.2977 Y51.5279
G1 X126.3681 Y50.8719
G1 X127.5279 Y50.3915
G1 X128.7485 Y50.0985
G1 X130 Y50
G1 X131.2515 Y50.0985
G1 X132.4721 Y50.3915
G1 X133.6319 Y50.8719
G1 X134.7023 Y51.5279
G1 X135.6569 Y52.3431
G1 X136.4721 Y53.2977
G1 X137.1281 Y54.3681
G1 X137.6085 Y55.5279
G1 X137.9015 Y56.7485
G1 X138 Y58
G0 X124.7449 Y64 F3000
G1 X135.2551 Y64 F200
G0 X137.3898 Y61 F3000
G1 X122.6102 Y61 F200
G0 X122 Y58 F3000
G1 X138 Y58 F200
G0 X137.3898 Y55 F3000
G1 X122.6102 Y55 F200
G0 X124.7449 Y52 F3000
G1 X135.2551 Y52 F200
M106 S0
G0 X174 Y42 F3000
M106 S255
G1 X174 Y58 F200
G1 X173.9015 Y59.2515
G1 X173.6085 Y60.4721
G1 X173.1281 Y61.6319
G1 X172.4721 Y62.7023
G1 X171.6569 Y63.6569
G1 X170.7023 Y64.4721
G1 X169.6319 Y65.1281
G1 X168.4721 Y65.6085
G1 X167.2515 Y65.9015
G1 X166 Y66
G1 X164.7485 Y65.9015
G1 X163.5279 Y65.6085
G1 X162.3681 Y65.1281
G1 X161.2977 Y64.4721
G1 X160.3431 Y63.6569
G1 X159.5279 Y62.7023
G1 X158.8719 Y61.6319
G1 X158.3915 Y60.4721
G1 X158.0985 Y59.2515
G1 X158 Y58
G1 X158.0985 Y56.7485
G1 X158.3915 Y55.5279
G1 X158.8719 Y54.3681
G1 X159.5279 Y53.2977
G1 X160.3431 Y52.3431
G1 X161.2977 Y51.5279
G1 X162.3681 Y50.8719
G1 X163.5279 Y50.3915
G1 X164.7485 Y50.0985
G1 X166 Y50
G1 X167.2515 Y50.0985
G1 X168.4721 Y50.3915
G1 X169.6319 Y50.8719
G1 X170.7023 Y51.5279
G1 X171.6569 Y52.3431
G1 X172.4721 Y53.2977
G1 X173.1281 Y54.3681
G1 X173.6085 Y55.5279
G1 X173.9015 Y56.7485
G1 X174 Y58
G0 X160.7449 Y64 F3000
G1 X171.2551 Y64 F200
G0 X173.3898 Y61 F3000
G1 X158.6102 Y61 F200
G0 X158 Y58 F3000
G1 X174 Y58 F200
G0 X173.3898 Y55 F3000
G1 X158.6102 Y55 F200
G0 X160.7449 Y52 F3000
G1 X171.2551 Y52 F200
M106 S0
G4 P333857
G0 Z4.5 F3000
G0 X66 Y42 F3000
M106 S255
G1 X66 Y58 F200
G1 X65.9015 Y59.2515
G1 X65.6085 Y60.4721
G1 X65.1281 Y61.6319
G1 X64.4721 Y62.7023
G1 X63.6569 Y63.6569
G1 X62.7023 Y64.4721
G1 X61.6319 Y65.1281
G1 X60.4721 Y65.6085
G1 X59.2515 Y65.9015
G1 X58 Y66
G1 X56.7485 Y65.9015
G1 X55.5279 Y65.6085
G1 X54.3681 Y65.1281
G1 X53.2977 Y64.4721
G1 X52.3431 Y63.6569
G1 X51.5279 Y62.7023
G1 X50.8719 Y61.6319
G1 X50.3915 Y60.4721
G1 X50.0985 Y59.2515
G1 X50 Y58
G1 X50.0985 Y56.7485
G1 X50.3915 Y55.5279
G1 X50.8719 Y54.3681
G1 X51.5279 Y53.2977
G1 X52.3431 Y52.3431
G1 X53.2977 Y51.5279
G1 X54.3681 Y50.8719
G1 X55.5279 Y50.3915
G1 X56.7485 Y50.0985
G1 X58 Y50
G1 X59.2515 Y50.0985
G1 X60.4721 Y50.3915
G1 X61.6319 Y50.8719
G1 X62.7023 Y51.5279
G1 X63.6569 Y52.3431
G1 X64.4721 Y53.2977
G1 X65.1281 Y54.3681
G1 X65.6085 Y55.5279
G1 X65.9015 Y56.7485
G1 X66 Y58
G0 X50.0415 Y58.5267 F3000
G1 X57.4733 Y65.9585 F200
G0 X61.1041 Y65.3467 F3000
G1 X50.6533 Y54.8959 F200
G0 X52.3431 Y52.3431 F3000
G1 X63.6569 Y63.6569 F200
G0 X65.3467 Y61.1041 F3000
G1 X54.8959 Y50.6533 F200
G0 X58.5267 Y50.0415 F3000
G1 X65.9585 Y57.4733 F200
M106 S0
G0 X102 Y42 F3000
M106 S255
G1 X102 Y58 F200
G1 X101.9015 Y59.2515
G1 X101.6085 Y60.4721
G1 X101.1281 Y61.6319
G1 X100.4721 Y62.7023
G1 X99.6569 Y63.6569
G1 X98.7023 Y64.4721
G1 X97.6319 Y65.1281
G1 X96.4721 Y65.6085
G1 X95.2515 Y65.9015
G1 X94 Y66
G1 X92.7485 Y65.9015
G1 X91.5279 Y65.6085
G1 X90.3681 Y65.1281
G1 X89.2977 Y64.4721
G1 X88.3431 Y63.6569
G1 X87.5279 Y62.7023
G1 X86.8719 Y61.6319
G1 X86.3915 Y60.4721
G1 X86.0985 Y59.2515
G1 X86 Y58
G1 X86.0985 Y56.7485
G1 X86.3915 Y55.5279
G1 X86.8719 Y54.3681
G1 X87.5279 Y53.2977
G1 X88.3431 Y52.3431
G1 X89.2977 Y51.5279
G1 X90.3681 Y50.8719
G1 X91.5279 Y50.3915
G1 X92.7485 Y50.0985
G1 X94 Y50
G1 X95.2515 Y50.0985
G1 X96.4721 Y50.3915
G1 X97.6319 Y50.8719
G1 X98.7023 Y51.5279
G1 X99.6569 Y52.3431
G1 X100.4721 Y53.2977
G1 X101.1281 Y54.3681
G1 X101.6085 Y55.5279
G1 X101.9015 Y56.7485
G1 X102 Y58
G0 X86.0415 Y58.5267 F3000
G1 X93.4733 Y65.9585 F200
G0 X97.1041 Y65.3467 F3000
G1 X86.6533 Y54.8959 F200
G0 X88.3431 Y52.3431 F3000
G1 X99.6569 Y63.6569 F200
G0 X101.3467 Y61.1041 F3000
G1 X90.8959 Y50.6533 F200
G0 X94.5267 Y50.0415 F3000
G1 X101.9585 Y57.4733 F200
M106 S0
G0 X138 Y42 F3000
M106 S255
G1 X138 Y58 F200
G1 X137.9015 Y59.2515
G1 X137.6085 Y60.4721
G1 X137.1281 Y61.6319
G1 X136.4721 Y62.7023
G1 X135.6569 Y63.6569
G1 X134.7023 Y64.4721
G1 X133.6319 Y65.1281
G1 X132.4721 Y65.6085
G1 X131.2515 Y65.9015
G1 X130 Y66
G1 X128.7485 Y65.9015
G1 X127.5279 Y65.6085
G1 X126.3681 Y65.1281
G1 X125.2977 Y64.4721
G1 X124.3431 Y63.6569
G1 X123.5279 Y62.7023
G1 X122.8719 Y61.6319
G1 X122.3915 Y60.4721
G1 X122.0985 Y59.2515
G1 X122 Y58
G1 X122.0985 Y56.7485
G1 X122.3915 Y55.5279
G1 X122.8719 Y54.3681
G1 X123.5279 Y53.2977
G1 X124.3431 Y52.3431
G1 X125.2977 Y51.5279
G1 X126.3681 Y50.8719
G1 X127.5279 Y50.3915
G1 X128.7485 Y50.0985
G1 X130 Y50
G1 X131.2515 Y50.0985
G1 X132.4721 Y50.3915
G1 X133.6319 Y50.8719
G1 X134.7023 Y51.5279
G1 X135.6569 Y52.3431
G1 X136.4721 Y53.2977
G1 X137.1281 Y54.3681
G1 X137.6085 Y55.5279
G1 X137.9015 Y56.7485
G1 X138 Y58
G0 X122.0415 Y58.5267 F3000
G1 X129.4733 Y65.9585 F200
G0 X133.1041 Y65.3467 F3000
G1 X122.6533 Y54.8959 F200
G0 X124.3431 Y52.3431 F3000
G1 X135.6569 Y63.6569 F200
G0 X137.3467 Y61.1041 F3000
G1 X126.8959 Y50.6533 F200
G0 X130.5267 Y50.0415 F3000
G1 X137.9585 Y57.4733 F200
M106 S0
G0 X174 Y42 F3000
M106 S255
G1 X174 Y58 F200
G1 X173.9015 Y59.2515
G1 X173.6085 Y60.4721
G1 X173.1281 Y61.6319
G1 X172.4721 Y62.7023
G1 X171.6569 Y63.6569
G1 X170.7023 Y64.4721
G1 X169.6319 Y65.1281
G1 X168.4721 Y65.6085
G1 X167.2515 Y65.9015
G1 X166 Y66
G1 X164.7485 Y65.9015
G1 X163.5279 Y65.6085
G1 X162.3681 Y65.1281
G1 X161.2977 Y64.4721
G1 X160.3431 Y63.6569
G1 X159.5279 Y62.7023
G1 X158.8719 Y61.6319
G1 X158.3915 Y60.4721
G1 X158.0985 Y59.2515
G1 X158 Y58
G1 X158.0985 Y56.7485
G1 X158.3915 Y55.5279
G1 X158.8719 Y54.3681
G1 X159.5279 Y53.2977
G1 X160.3431 Y52.3431
G1 X161.2977 Y51.5279
G1 X162.3681 Y50.8719
G1 X163.5279 Y50.3915
G1 X164.7485 Y50.0985
G1 X166 Y50
G1 X167.2515 Y50.0985
G1 X168.4721 Y50.3915
G1 X169.6319 Y50.8719
G1 X170.7023 Y51.5279
G1 X171.6569 Y52.3431
G1 X172.4721 Y53.2977
G1 X173.1281 Y54.3681
G1 X173.6085 Y55.5279
G1 X173.9015 Y56.7485
G1 X174 Y58
G0 X158.0415 Y58.5267 F3000
G1 X165.4733 Y65.9585 F200
G0 X169.1041 Y65.3467 F3000
G1 X158.6533 Y54.8959 F200
G0 X160.3431 Y52.3431 F3000
G1 X171.6569 Y63.6569 F200
G0 X173.3467 Y61.1041 F3000
G1 X162.8959 Y50.6533 F200
G0 X166.5267 Y50.0415 F3000
G1 X173.9585 Y57.4733 F200
M106 S0
G4 P333733
G0 Z5 F3000
G0 X66 Y42 F3000
M106 S255
G1 X66 Y58 F200
G1 X65.9015 Y59.2515
G1 X65.6085 Y60.4721
G1 X65.1281 Y61.6319
G1 X64.4721 Y62.7023
G1 X63.6569 Y63.6569
G1 X62.7023 Y64.4721
G1 X61.6319 Y65.1281
G1 X60.4721 Y65.6085
G1 X59.2515 Y65.9015
G1 X58 Y66
G1 X56.7485 Y65.9015
G1 X55.5279 Y65.6085
G1 X54.3681 Y65.1281
G1 X53.2977 Y64.4721
G1 X52.3431 Y63.6569
G1 X51.5279 Y62.7023
G1 X50.8719 Y61.6319
G1 X50.3915 Y60.4721
G1 X50.0985 Y59.2515
G1 X50 Y58
G1 X50.0985 Y56.7485
G1 X50.3915 Y55.5279
G1 X50.8719 Y54.3681
G1 X51.5279 Y53.2977
G1 X52.3431 Y52.3431
G1 X53.2977 Y51.5279
G1 X54.3681 Y50.8719
G1 X55.5279 Y50.3915
G1 X56.7485 Y50.0985
G1 X58 Y50
G1 X59.2515 Y50.0985
G1 X60.4721 Y50.3915
G1 X61.6319 Y50.8719
G1 X62.7023 Y51.5279
G1 X63.6569 Y52.3431
G1 X64.4721 Y53.2977
G1 X65.1281 Y54.3681
G1 X65.6085 Y55.5279
G1 X65.9015 Y56.7485
G1 X66 Y58
G0 X52 Y52.7449 F3000
G1 X52 Y63.2551 F200
G0 X55 Y65.3898 F3000
G1 X55 Y50.6102 F200
G0 X58 Y50 F3000
G1 X58 Y66 F200
G0 X61 Y65.3898 F3000
G1 X61 Y50.6102 F200
G0 X64 Y52.7449 F3000
G1 X64 Y63.2551 F200
M106 S0
G0 X102 Y42 F3000
M106 S255
G1 X102 Y58 F200
G1 X101.9015 Y59.2515
G1 X101.6085 Y60.4721
G1 X101.1281 Y61.6319
G1 X100.4721 Y62.7023
G1 X99.6569 Y63.6569
G1 X98.7023 Y64.4721
G1 X97.6319 Y65.1281
G1 X96.4721 Y65.6085
G1 X95.2515 Y65.9015
G1 X94 Y66
G1 X92.7485 Y65.9015
G1 X91.5279 Y65.6085
G1 X90.3681 Y65.1281
G1 X89.2977 Y64.4721
G1 X88.3431 Y63.6569
G1 X87.5279 Y62.7023
G1 X86.8719 Y61.6319
G1 X86.3915 Y60.4721
G1 X86.0985 Y59.2515
G1 X86 Y58
G1 X86.0985 Y56.7485
G1 X86.3915 Y55.5279
G1 X86.8719 Y54.3681
G1 X87.5279 Y53.2977
G1 X88.3431 Y52.3431
G1 X89.2977 Y51.5279
G1 X90.3681 Y50.8719
G1 X91.5279 Y50.3915
G1 X92.7485 Y50.0985
G1 X94 Y50
G1 X95.2515 Y50.0985
G1 X96.4721 Y50.3915
G1 X97.6319 Y50.8719
G1 X98.7023 Y51.5279
G1 X99.6569 Y52.3431
G1 X100.4721 Y53.2977
G1 X101.1281 Y54.3681
G1 X101.6085 Y55.5279
G1 X101.9015 Y56.7485
G1 X102 Y58
G0 X88 Y52.7449 F3000
G1 X88 Y63.2551 F200
G0 X91 Y65.3898 F3000
G1 X91 Y50.6102 F200
G0 X94 Y50 F3000
G1 X94 Y66 F200
G0 X97 Y65.3898 F3000
G1 X97 Y50.6102 F200
G0 X100 Y52.7449 F3000
G1 X100 Y63.2551 F200
M106 S0
G0 X138 Y42 F3000
M106 S255
G1 X138 Y58 F200
G1 X137.9015 Y59.2515
G1 X137.6085 Y60.4721
G1 X137.1281 Y61.6319
G1 X136.4721 Y62.7023
G1 X135.6569 Y63.6569
G1 X134.7023 Y64.4721
G1 X133.6319 Y65.1281
G1 X132.4721 Y65.6085
G1 X131.2515 Y65.9015
G1 X130 Y66
G1 X128.7485 Y65.9015
G1 X127.5279 Y65.6085
G1 X126.3681 Y65.1281
G1 X125.2977 Y64.4721
G1 X124.3431 Y63.6569
G1 X123.5279 Y62.7023
G1 X122.8719 Y61.6319
G1 X122.3915 Y60.4721
G1 X122.0985 Y59.2515
G1 X122 Y58
G1 X122.0985 Y56.7485
G1 X122.3915 Y55.5279
G1 X122.8719 Y54.3681
G1 X123.5279 Y53.2977
G1 X124.3431 Y52.3431
G1 X125.2977 Y51.5279
G1 X126.3681 Y50.8719
G1 X127.5279 Y50.3915
G1 X128.7485 Y50.0985
G1 X130 Y50
G1 X131.2515 Y50.0985
G1 X132.4721 Y50.3915
G1 X133.6319 Y50.8719
G1 X134.7023 Y51.5279
G1 X135.6569 Y52.3431
G1 X136.4721 Y53.2977
G1 X137.1281 Y54.3681
G1 X137.6085 Y55.5279
G1 X137.9015 Y56.7485
G1 X138 Y58
G0 X124 Y52.7449 F3000
G1 X124 Y63.2551 F200
G0 X127 Y65.3898 F3000
G1 X127 Y50.6102 F200
G0 X130 Y50 F3000
G1 X130 Y66 F200
G0 X133 Y65.3898 F3000
G1 X133 Y50.6102 F200
G0 X136 Y52.7449 F3000
G1 X136 Y63.2551 F200
M106 S0
G0 X174 Y42 F3000
M106 S255
G1 X174 Y58 F200
G1 X173.9015 Y59.2515
G1 X173.6085 Y60.4721
G1 X173.1281 Y61.6319
G1 X172.4721 Y62.7023
G1 X171.6569 Y63.6569
G1 X170.7023 Y64.4721
G1 X169.6319 Y65.1281
G1 X168.4721 Y65.6085
G1 X167.2515 Y65.9015
G1 X166 Y66
G1 X164.7485 Y65.9015
G1 X163.5279 Y65.6085
G1 X162.3681 Y65.1281
G1 X161.2977 Y64.4721
G1 X160.3431 Y63.6569
G1 X159.5279 Y62.7023
G1 X158.8719 Y61.6319
G1 X158.3915 Y60.4721
G1 X158.0985 Y59.2515
G1 X158 Y58
G1 X158.0985 Y56.7485
G1 X158.3915 Y55.5279
G1 X158.8719 Y54.3681
G1 X159.5279 Y53.2977
G1 X160.3431 Y52.3431
G1 X161.2977 Y51.5279
G1 X162.3681 Y50.8719
G1 X163.5279 Y50.3915
G1 X164.7485 Y50.0985
G1 X166 Y50
G1 X167.2515 Y50.0985
G1 X168.4721 Y50.3915
G1 X169.6319 Y50.8719
G1 X170.7023 Y51.5279
G1 X171.6569 Y52.3431
G1 X172.4721 Y53.2977
G1 X173.1281 Y54.3681
G1 X173.6085 Y55.5279
G1 X173.9015 Y56.7485
G1 X174 Y58
G0 X160 Y52.7449 F3000
G1 X160 Y63.2551 F200
G0 X163 Y65.3898 F3000
G1 X163 Y50.6102 F200
G0 X166 Y50 F3000
G1 X166 Y66 F200
G0 X169 Y65.3898 F3000
G1 X169 Y50.6102 F200
G0 X172 Y52.7449 F3000
G1 X172 Y63.2551 F200
M106 S0
G4 P333479
G0 Z5.5 F3000
G0 X66 Y42 F3000
M106 S255
G1 X66 Y58 F200
G1 X65.9015 Y59.2515
G1 X65.6085 Y60.4721
G1 X65.1281 Y61.6319
G1 X64.4721 Y62.7023
G1 X63.6569 Y63.6569
G1 X62.7023 Y64.4721
G1 X61.6319 Y65.1281
G1 X60.4721 Y65.6085
G1 X59.2515 Y65.9015
G1 X58 Y66
G1 X56.7485 Y65.9015
G1 X55.5279 Y65.6085
G1 X54.3681 Y65.1281
G1 X53.2977 Y64.4721
G1 X52.3431 Y63.6569
G1 X51.5279 Y62.7023
G1 X50.8719 Y61.6319
G1 X50.3915 Y60.4721
G1 X50.0985 Y59.2515
G1 X50 Y58
G1 X50.0985 Y56.7485
G1 X50.3915 Y55.5279
G1 X50.8719 Y54.3681
G1 X51.5279 Y53.2977
G1 X52.3431 Y52.3431
G1 X53.2977 Y51.5279
G1 X54.3681 Y50.8719
G1 X55.5279 Y50.3915
G1 X56.7485 Y50.0985
G1 X58 Y50
G1 X59.2515 Y50.0985
G1 X60.4721 Y50.3915
G1 X61.6319 Y50.8719
G1 X62.7023 Y51.5279
G1 X63.6569 Y52.3431
G1 X64.4721 Y53.2977
G1 X65.1281 Y54.3681
G1 X65.6085 Y55.5279
G1 X65.9015 Y56.7485
G1 X66 Y58
G0 X57.4733 Y50.0415 F3000
G1 X50.0415 Y57.4733 F200
G0 X50.6533 Y61.1041 F3000
G1 X61.1041 Y50.6533 F200
G0 X63.6569 Y52.3431 F3000
G1 X52.3431 Y63.6569 F200
G0 X54.8959 Y65.3467 F3000
G1 X65.3467 Y54.8959 F200
G0 X65.9585 Y58.5267 F3000
G1 X58.5267 Y65.9585 F200
M106 S0
G0 X102 Y42 F3000
M106 S255
G1 X102 Y58 F200
G1 X101.9015 Y59.2515
G1 X101.6085 Y60.4721
G1 X101.1281 Y61.6319
G1 X100.4721 Y62.7023
G1 X99.6569 Y63.6569
G1 X98.7023 Y64.4721
G1 X97.6319 Y65.1281
G1 X96.4721 Y65.6085
G1 X95.2515 Y65.9015
G1 X94 Y66
G1 X92.7485 Y65.9015
G1 X91.5279 Y65.6085
G1 X90.3681 Y65.1281
G1 X89.2977 Y64.4721
G1 X88.3431 Y63.6569
G1 X87.5279 Y62.7023
G1 X86.8719 Y61.6319
G1 X86.3915 Y60.4721
G1 X86.0985 Y59.2515
G1 X86 Y58
G1 X86.0985 Y56.7485
G1 X86.3915 Y55.5279
G1 X86.8719 Y54.3681
G1 X87.5279 Y53.2977
G1 X88.3431 Y52.3431
G1 X89.2977 Y51.5279
G1 X90.3681 Y50.8719
G1 X91.5279 Y50.3915
G1 X92.7485 Y50.0985
G1 X94 Y50
G1 X95.2515 Y50.0985
G1 X96.4721 Y50.3915
G1 X97.6319 Y50.8719
G1 X98.7023 Y51.5279
G1 X99.6569 Y52.3431
G1 X100.4721 Y53.2977
G1 X101.1281 Y54.3681
G1 X101.6085 Y55.5279
G1 X101.9015 Y56.7485
G1 X102 Y58
G0 X93.4733 Y50.0415 F3000
G1 X86.0415 Y57.4733 F200
G0 X86.6533 Y61.1041 F3000
G1 X97.1041 Y50.6533 F200
G0 X99.6569 Y52.3431 F3000
G1 X88.3431 Y63.6569 F200
G0 X90.8959 Y65.3467 F3000
G1 X101.3467 Y54.8959 F200
G0 X101.9585 Y58.5267 F3000
G1 X94.5267 Y65.9585 F200
M106 S0
G0 X138 Y42 F3000
M106 S255
G1 X138 Y58 F200
G1 X137.9015 Y59.2515
G1 X137.6085 Y60.4721
G1 X137.1281 Y61.6319
G1 X136.4721 Y62.7023
G1 X135.6569 Y63.6569
G1 X134.7023 Y64.4721
G1 X133.6319 Y65.1281
G1 X132.4721 Y65.6085
G1 X131.2515 Y65.9015
G1 X130 Y66
G1 X128.7485 Y65.9015
G1 X127.5279 Y65.6085
G1 X126.3681 Y65.1281
G1 X125.2977 Y64.4721
G1 X124.3431 Y63.6569
G1 X123.5279 Y62.7023
G1 X122.8719 Y61.6319
G1 X122.3915 Y60.4721
G1 X122.0985 Y59.2515
G1 X122 Y58
G1 X122.0985 Y56.7485
G1 X122.3915 Y55.5279
G1 X122.8719 Y54.3681
G1 X123.5279 Y53.2977
G1 X124.3431 Y52.3431
G1 X125.2977 Y51.5279
G1 X126.3681 Y50.8719
G1 X127.5279 Y50.3915
G1 X128.7485 Y50.0985
G1 X130 Y50
G1 X131.2515 Y50.0985
G1 X132.4721 Y50.3915
G1 X133.6319 Y50.8719
G1 X134.7023 Y51.5279
G1 X135.6569 Y52.3431
G1 X136.4721 Y53.2977
G1 X137.1281 Y54.3681
G1 X137.6085 Y55.5279
G1 X137.9015 Y56.7485
G1 X138 Y58
G0 X129.4733 Y50.0415 F3000
G1 X122.0415 Y57.4733 F200
G0 X122.6533 Y61.1041 F3000
G1 X133.1041 Y50.6533 F200
G0 X135.6569 Y52.3431 F3000
G1 X124.3431 Y63.6569 F200
G0 X126.8959 Y65.3467 F3000
G1 X137.3467 Y54.8959 F200
G0 X137.9585 Y58.5267 F3000
G1 X130.5267 Y65.9585 F200
M106 S0
G0 X174 Y42 F3000
M106 S255
G1 X174 Y58 F200
G1 X173.9015 Y59.2515
G1 X173.6085 Y60.4721
G1 X173.1281 Y61.6319
G1 X172.4721 Y62.7023
G1 X171.6569 Y63.6569
G1 X170.7023 Y64.4721
G1 X169.6319 Y65.1281
G1 X168.4721 Y65.6085
G1 X167.2515 Y65.9015
G1 X166 Y66
G1 X164.7485 Y65.9015
G1 X163.5279 Y65.6085
G1 X162.3681 Y65.1281
G1 X161.2977 Y64.4721
G1 X160.3431 Y63.6569
G1 X159.5279 Y62.7023
G1 X158.8719 Y61.6319
G1 X158.3915 Y60.4721
G1 X158.0985 Y59.2515
G1 X158 Y58
G1 X158.0985 Y56.7485
G1 X158.3915 Y55.5279
G1 X158.8719 Y54.3681
G1 X159.5279 Y53.2977
G1 X160.3431 Y52.3431
G1 X161.2977 Y51.5279
G1 X162.3681 Y50.8719
G1 X163.5279 Y50.3915
G1 X164.7485 Y50.0985
G1 X166 Y50
G1 X167.2515 Y50.0985
G1 X168.4721 Y50.3915
G1 X169.6319 Y50.8719
G1 X170.7023 Y51.5279
G1 X171.6569 Y52.3431
G1 X172.4721 Y53.2977
G1 X173.1281 Y54.3681
G1 X173.6085 Y55.5279
G1 X173.9015 Y56.7485
G1 X174 Y58
G0 X165.4733 Y50.0415 F3000
G1 X158.0415 Y57.4733 F200
G0 X158.6533 Y61.1041 F3000
G1 X169.1041 Y50.6533 F200
G0 X171.6569 Y52.3431 F3000
G1 X160.3431 Y63.6569 F200
G0 X162.8959 Y65.3467 F3000
G1 X173.3467 Y54.8959 F200
G0 X173.9585 Y58.5267 F3000
G1 X166.5267 Y65.9585 F200
M106 S0
G4 P333385
G0 Z6 F3000
G0 X66 Y42 F3000
M106 S255
G1 X66 Y58 F200
G1 X65.9015 Y59.2515
G1 X65.6085 Y60.4721
G1 X65.1281 Y61.6319
G1 X64.4721 Y62.7023
G1 X63.6569 Y63.6569
G1 X62.7023 Y64.4721
G1 X61.6319 Y65.1281
G1 X60.4721 Y65.6085
G1 X59.2515 Y65.9015
G1 X58 Y66
G1 X56.7485 Y65.9015
G1 X55.5279 Y65.6085
G1 X54.3681 Y65.1281
G1 X53.2977 Y64.4721
G1 X52.3431 Y63.6569
G1 X51.5279 Y62.7023
G1 X50.8719 Y61.6319
G1 X50.3915 Y60.4721
G1 X50.0985 Y59.2515
G1 X50 Y58
G1 X50.0985 Y56.7485
G1 X50.3915 Y55.5279
G1 X50.8719 Y54.3681
G1 X51.5279 Y53.2977
G1 X52.3431 Y52.3431
G1 X53.2977 Y51.5279
G1 X54.3681 Y50.8719
G1 X55.5279 Y50.3915
G1 X56.7485 Y50.0985
G1 X58 Y50
G1 X59.2515 Y50.0985
G1 X60.4721 Y50.3915
G1 X61.6319 Y50.8719
G1 X62.7023 Y51.5279
G1 X63.6569 Y52.3431
G1 X64.4721 Y53.2977
G1 X65.1281 Y54.3681
G1 X65.6085 Y55.5279
G1 X65.9015 Y56.7485
G1 X66 Y58
G0 X52.7449 Y64 F3000
G1 X63.2551 Y64 F200
G0 X65.3898 Y61 F3000
G1 X50.6102 Y61 F200
G0 X50 Y58 F3000
G1 X66 Y58 F200
G0 X65.3898 Y55 F3000
G1 X50.6102 Y55 F200
G0 X52.7449 Y52 F3000
G1 X63.2551 Y52 F200
M106 S0
G0 X102 Y42 F3000
M106 S255
G1 X102 Y58 F200
G1 X101.9015 Y59.2515
G1 X101.6085 Y60.4721
G1 X101.1281 Y61.6319
G1 X100.4721 Y62.7023
G1 X99.6569 Y63.6569
G1 X98.7023 Y64.4721
G1 X97.6319 Y65.1281
G1 X96.4721 Y65.6085
G1 X95.2515 Y65.9015
G1 X94 Y66
G1 X92.7485 Y65.9015
G1 X91.5279 Y65.6085
G1 X90.3681 Y65.1281
G1 X89.2977 Y64.4721
G1 X88.3431 Y63.6569
G1 X87.5279 Y62.7023
G1 X86.8719 Y61.6319
G1 X86.3915 Y60.4721
G1 X86.0985 Y59.2515
G1 X86 Y58
G1 X86.0985 Y56.7485
G1 X86.3915 Y55.5279
G1 X86.8719 Y54.3681
G1 X87.5279 Y53.2977
G1 X88.3431 Y52.3431
G1 X89.2977 Y51.5279
G1 X90.3681 Y50.8719
G1 X91.5279 Y50.3915
G1 X92.7485 Y50.0985
G1 X94 Y50
G1 X95.2515 Y50.0985
G1 X96.4721 Y50.3915
G1 X97.6319 Y50.8719
G1 X98.7023 Y51.5279
G1 X99.6569 Y52.3431
G1 X100.4721 Y53.2977
G1 X101.1281 Y54.3681
G1 X101.6085 Y55.5279
G1 X101.9015 Y56.7485
G1 X102 Y58
G0 X88.7449 Y64 F3000
G1 X99.2551 Y64 F200
G0 X101.3898 Y61 F3000
G1 X86.6102 Y61 F200
G0 X86 Y58 F3000
G1 X102 Y58 F200
G0 X101.3898 Y55 F3000
G1 X86.6102 Y55 F200
G0 X88.7449 Y52 F3000
G1 X99.2551 Y52 F200
M106 S0
G0 X138 Y42 F3000
M106 S255
G1 X138 Y58 F200
G1 X137.9015 Y59.2515
G1 X137.6085 Y60.4721
G1 X137.1281 Y61.6319
G1 X136.4721 Y62.7023
G1 X135.6569 Y63.6569
G1 X134.7023 Y64.4721
G1 X133.6319 Y65.1281
G1 X132.4721 Y65.6085
G1 X131.2515 Y65.9015
G1 X130 Y66
G1 X128.7485 Y65.9015
G1 X127.5279 Y65.6085
G1 X126.3681 Y65.1281
G1 X125.2977 Y64.4721
G1 X124.3431 Y63.6569
G1 X123.5279 Y62.7023
G1 X122.8719 Y61.6319
G1 X122.3915 Y60.4721
G1 X122.0985 Y59.2515
G1 X122 Y58
G1 X122.0985 Y56.7485
G1 X122.3915 Y55.5279
G1 X122.8719 Y54.3681
G1 X123.5279 Y53.2977
G1 X124.3431 Y52.3431
G1 X125.2977 Y51.5279
G1 X126.3681 Y50.8719
G1 X127.5279 Y50.3915
G1 X128.7485 Y50.0985
G1 X130 Y50
G1 X131.2515 Y50.0985
G1 X132.4721 Y50.3915
G1 X133.6319 Y50.8719
G1 X134.7023 Y51.5279
G1 X135.6569 Y52.3431
G1 X136.4721 Y53.2977
G1 X137.1281 Y54.3681
G1 X137.6085 Y55.5279
G1 X137.9015 Y56.7485
G1 X138 Y58
G0 X124.7449 Y64 F3000
G1 X135.2551 Y64 F200
G0 X137.3898 Y61 F3000
G1 X122.6102 Y61 F200
G0 X122 Y58 F3000
G1 X138 Y58 F200
G0 X137.3898 Y55 F3000
G1 X122.6102 Y55 F200
G0 X124.7449 Y52 F3000
G1 X135.2551 Y52 F200
M106 S0
G0 X174 Y42 F3000
M106 S255
G1 X174 Y58 F200
G1 X173.9015 Y59.2515
G1 X173.6085 Y60.4721
G1 X173.1281 Y61.6319
G1 X172.4721 Y62.7023
G1 X171.6569 Y63.6569
G1 X170.7023 Y64.4721
G1 X169.6319 Y65.1281
G1 X168.4721 Y65.6085
G1 X167.2515 Y65.9015
G1 X166 Y66
G1 X164.7485 Y65.9015
G1 X163.5279 Y65.6085
G1 X162.3681 Y65.1281
G1 X161.2977 Y64.4721
G1 X160.3431 Y63.6569
G1 X159.5279 Y62.7023
G1 X158.8719 Y61.6319
G1 X158.3915 Y60.4721
G1 X158.0985 Y59.2515
G1 X158 Y58
G1 X158.0985 Y56.7485
G1 X158.3915 Y55.5279
G1 X158.8719 Y54.3681
G1 X159.5279 Y53.2977
G1 X160.3431 Y52.3431
G1 X161.2977 Y51.5279
G1 X162.3681 Y50.8719
G1 X163.5279 Y50.3915
G1 X164.7485 Y50.0985
G1 X166 Y50
G1 X167.2515 Y50.0985
G1 X168.4721 Y50.3915
G1 X169.6319 Y50.8719
G1 X170.7023 Y51.5279
G1 X171.6569 Y52.3431
G1 X172.4721 Y53.2977
G1 X173.1281 Y54.3681
G1 X173.6085 Y55.5279
G1 X173.9015 Y56.7485
G1 X174 Y58
G0 X160.7449 Y64 F3000
G1 X171.2551 Y64 F200
G0 X173.3898 Y61 F3000
G1 X158.6102 Y61 F200
G0 X158 Y58 F3000
G1 X174 Y58 F200
G0 X173.3898 Y55 F3000
G1 X158.6102 Y55 F200
G0 X160.7449 Y52 F3000
G1 X171.2551 Y52 F200
M106 S0
G4 P333817
G0 Z6.5 F3000
G0 X66 Y42 F3000
M106 S255
G1 X66 Y58 F200
G1 X65.9015 Y59.2515
G1 X65.6085 Y60.4721
G1 X65.1281 Y61.6319
G1 X64.4721 Y62.7023
G1 X63.6569 Y63.6569
G1 X62.7023 Y64.4721
G1 X61.6319 Y65.1281
G1 X60.4721 Y65.6085
G1 X59.2515 Y65.9015
G1 X58 Y66
G1 X56.7485 Y65.9015
G1 X55.5279 Y65.6085
G1 X54.3681 Y65.1281
G1 X53.2977 Y64.4721
G1 X52.3431 Y63.6569
G1 X51.5279 Y62.7023
G1 X50.8719 Y61.6319
G1 X50.3915 Y60.4721
G1 X50.0985 Y59.2515
G1 X50 Y58
G1 X50.0985 Y56.7485
G1 X50.3915 Y55.5279
G1 X50.8719 Y54.3681
G1 X51.5279 Y53.2977
G1 X52.3431 Y52.3431
G1 X53.2977 Y51.5279
G1 X54.3681 Y50.8719
G1 X55.5279 Y50.3915
G1 X56.7485 Y50.0985
G1 X58 Y50
G1 X59.2515 Y50.0985
G1 X60.4721 Y50.3915
G1 X61.6319 Y50.8719
G1 X62.7023 Y51.5279
G1 X63.6569 Y52.3431
G1 X64.4721 Y53.2977
G1 X65.1281 Y54.3681
G1 X65.6085 Y55.5279
G1 X65.9015 Y56.7485
G1 X66 Y58
G0 X50.0415 Y58.5267 F3000
G1 X57.4733 Y65.9585 F200
G0 X61.1041 Y65.3467 F3000
G1 X50.6533 Y54.8959 F200
G0 X52.3431 Y52.3431 F3000
G1 X63.6569 Y63.6569 F200
G0 X65.3467 Y61.1041 F3000
G1 X54.8959 Y50.6533 F200
G0 X58.5267 Y50.0415 F3000
G1 X65.9585 Y57.4733 F200
M106 S0
G0 X102 Y42 F3000
M106 S255
G1 X102 Y58 F200
G1 X101.9015 Y59.2515
G1 X101.6085 Y60.4721
G1 X101.1281 Y61.6319
G1 X100.4721 Y62.7023
G1 X99.6569 Y63.6569
G1 X98.7023 Y64.4721
G1 X97.6319 Y65.1281
G1 X96.4721 Y65.6085
G1 X95.2515 Y65.9015
G1 X94 Y66
G1 X92.7485 Y65.9015
G1 X91.5279 Y65.6085
G1 X90.3681 Y65.1281
G1 X89.2977 Y64.4721
G1 X88.3431 Y63.6569
G1 X87.5279 Y62.7023
G1 X86.8719 Y61.6319
G1 X86.3915 Y60.4721
G1 X86.0985 Y59.2515
G1 X86 Y58
G1 X86.0985 Y56.7485
G1 X86.3915 Y55.5279
G1 X86.8719 Y54.3681
G1 X87.5279 Y53.2977
G1 X88.3431 Y52.3431
G1 X89.2977 Y51.5279
G1 X90.3681 Y50.8719
G1 X91.5279 Y50.3915
G1 X92.7485 Y50.0985
G1 X94 Y50
G1 X95.2515 Y50.0985
G1 X96.4721 Y50.3915
G1 X97.6319 Y50.8719
G1 X98.7023 Y51.5279
G1 X99.6569 Y52.3431
G1 X100.4721 Y53.2977
G1 X101.1281 Y54.3681
G1 X101.6085 Y55.5279
G1 X101.9015 Y56.7485
G1 X102 Y58
G0 X86.0415 Y58.5267 F3000
G1 X93.4733 Y65.9585 F200
G0 X97.1041 Y65.3467 F3000
G1 X86.6533 Y54.8959 F200
G0 X88.3431 Y52.3431 F3000
G1 X99.6569 Y63.6569 F200
G0 X101.3467 Y61.1041 F3000
G1 X90.8959 Y50.6533 F200
G0 X94.5267 Y50.0415 F3000
G1 X101.9585 Y57.4733 F200
M106 S0
G0 X138 Y42 F3000
M106 S255
G1 X138 Y58 F200
G1 X137.9015 Y59.2515
G1 X137.6085 Y60.4721
G1 X137.1281 Y61.6319
G1 X136.4721 Y62.7023
G1 X135.6569 Y63.6569
G1 X134.7023 Y64.4721
G1 X133.6319 Y65.1281
G1 X132.4721 Y65.6085
G1 X131.2515 Y65.9015
G1 X130 Y66
G1 X128.7485 Y65.9015
G1 X127.5279 Y65.6085
G1 X126.3681 Y65.1281
G1 X125.2977 Y64.4721
G1 X124.3431 Y63.6569
G1 X123.5279 Y62.7023
G1 X122.8719 Y61.6319
G1 X122.3915 Y60.4721
G1 X122.0985 Y59.2515
G1 X122 Y58
G1 X122.0985 Y56.7485
G1 X122.3915 Y55.5279
G1 X122.8719 Y54.3681
G1 X123.5279 Y53.2977
G1 X124.3431 Y52.3431
G1 X125.2977 Y51.5279
G1 X126.3681 Y50.8719
G1 X127.5279 Y50.3915
G1 X128.7485 Y50.0985
G1 X130 Y50
G1 X131.2515 Y50.0985
G1 X132.4721 Y50.3915
G1 X133.6319 Y50.8719
G1 X134.7023 Y51.5279
G1 X135.6569 Y52.3431
G1 X136.4721 Y53.2977
G1 X137.1281 Y54.3681
G1 X137.6085 Y55.5279
G1 X137.9015 Y56.7485
G1 X138 Y58
G0 X122.0415 Y58.5267 F3000
G1 X129.4733 Y65.9585 F200
G0 X133.1041 Y65.3467 F3000
G1 X122.6533 Y54.8959 F200
G0 X124.3431 Y52.3431 F3000
G1 X135.6569 Y63.6569 F200
G0 X137.3467 Y61.1041 F3000
G1 X126.8959 Y50.6533 F200
G0 X130.5267 Y50.0415 F3000
G1 X137.9585 Y57.4733 F200
M106 S0
G0 X174 Y42 F3000
M106 S255
G1 X174 Y58 F200
G1 X173.9015 Y59.2515
G1 X173.6085 Y60.4721
G1 X173.1281 Y61.6319
G1 X172.4721 Y62.7023
G1 X171.6569 Y63.6569
G1 X170.7023 Y64.4721
G1 X169.6319 Y65.1281
G1 X168.4721 Y65.6085
G1 X167.2515 Y65.9015
G1 X166 Y66
G1 X164.7485 Y65.9015
G1 X163.5279 Y65.6085
G1 X162.3681 Y65.1281
G1 X161.2977 Y64.4721
G1 X160.3431 Y63.6569
G1 X159.5279 Y62.7023
G1 X158.8719 Y61.6319
G1 X158.3915 Y60.4721
G1 X158.0985 Y59.2515
G1 X158 Y58
G1 X158.0985 Y56.7485
G1 X158.3915 Y55.5279
G1 X158.8719 Y54.3681
G1 X159.5279 Y53.2977
G1 X160.3431 Y52.3431
G1 X161.2977 Y51.5279
G1 X162.3681 Y50.8719
G1 X163.5279 Y50.3915
G1 X164.7485 Y50.0985
G1 X166 Y50
G1 X167.2515 Y50.0985
G1 X168.4721 Y50.3915
G1 X169.6319 Y50.8719
G1 X170.7023 Y51.5279
G1 X171.6569 Y52.3431
G1 X172.4721 Y53.2977
G1 X173.1281 Y54.3681
G1 X173.6085 Y55.5279
G1 X173.9015 Y56.7485
G1 X174 Y58
G0 X158.0415 Y58.5267 F3000
G1 X165.4733 Y65.9585 F200
G0 X169.1041 Y65.3467 F3000
G1 X158.6533 Y54.8959 F200
G0 X160.3431 Y52.3431 F3000
G1 X171.6569 Y63.6569 F200
G0 X173.3467 Y61.1041 F3000
G1 X162.8959 Y50.6533 F200
G0 X166.5267 Y50.0415 F3000
G1 X173.9585 Y57.4733 F200
M106 S0
G4 P333693
G0 Z7 F3000
G0 X66 Y42 F3000
M106 S255
G1 X66 Y58 F200
G1 X65.9015 Y59.2515
G1 X65.6085 Y60.4721
G1 X65.1281 Y61.6319
G1 X64.4721 Y62.7023
G1 X63.6569 Y63.6569
G1 X62.7023 Y64.4721
G1 X61.6319 Y65.1281
G1 X60.4721 Y65.6085
G1 X59.2515 Y65.9015
G1 X58 Y66
G1 X56.7485 Y65.9015
G1 X55.5279 Y65.6085
G1 X54.3681 Y65.1281
G1 X53.2977 Y64.4721
G1 X52.3431 Y63.6569
G1 X51.5279 Y62.7023
G1 X50.8719 Y61.6319
G1 X50.3915 Y60.4721
G1 X50.0985 Y59.2515
G1 X50 Y58
G1 X50.0985 Y56.7485
G1 X50.3915 Y55.5279
G1 X50.8719 Y54.3681
G1 X51.5279 Y53.2977
G1 X52.3431 Y52.3431
G1 X53.2977 Y51.5279
G1 X54.3681 Y50.8719
G1 X55.5279 Y50.3915
G1 X56.7485 Y50.0985
G1 X58 Y50
G1 X59.2515 Y50.0985
G1 X60.4721 Y50.3915
G1 X61.6319 Y50.8719
G1 X62.7023 Y51.5279
G1 X63.6569 Y52.3431
G1 X64.4721 Y53.2977
G1 X65.1281 Y54.3681
G1 X65.6085 Y55.5279
G1 X65.9015 Y56.7485
G1 X66 Y58
G0 X52 Y52.7449 F3000
G1 X52 Y63.2551 F200
G0 X55 Y65.3898 F3000
G1 X55 Y50.6102 F200
G0 X58 Y50 F3000
G1 X58 Y66 F200
G0 X61 Y65.3898 F3000
G1 X61 Y50.6102 F200
G0 X64 Y52.7449 F3000
G1 X64 Y63.2551 F200
M106 S0
G0 X102 Y42 F3000
M106 S255
G1 X102 Y58 F200
G1 X101.9015 Y59.2515
G1 X101.6085 Y60.4721
G1 X101.1281 Y61.6319
G1 X100.4721 Y62.7023
G1 X99.6569 Y63.6569
G1 X98.7023 Y64.4721
G1 X97.6319 Y65.1281
G1 X96.4721 Y65.6085
G1 X95.2515 Y65.9015
G1 X94 Y66
G1 X92.7485 Y65.9015
G1 X91.5279 Y65.6085
G1 X90.3681 Y65.1281
G1 X89.2977 Y64.4721
G1 X88.3431 Y63.6569
G1 X87.5279 Y62.7023
G1 X86.8719 Y61.6319
G1 X86.3915 Y60.4721
G1 X86.0985 Y59.2515
G1 X86 Y58
G1 X86.0985 Y56.7485
G1 X86.3915 Y55.5279
G1 X86.8719 Y54.3681
G1 X87.5279 Y53.2977
G1 X88.3431 Y52.3431
G1 X89.2977 Y51.5279
G1 X90.3681 Y50.8719
G1 X91.5279 Y50.3915
G1 X92.7485 Y50.0985
G1 X94 Y50
G1 X95.2515 Y50.0985
G1 X96.4721 Y50.3915
G1 X97.6319 Y50.8719
G1 X98.7023 Y51.5279
G1 X99.6569 Y52.3431
G1 X100.4721 Y53.2977
G1 X101.1281 Y54.3681
G1 X101.6085 Y55.5279
G1 X101.9015 Y56.7485
G1 X102 Y58
G0 X88 Y52.7449 F3000
G1 X88 Y63.2551 F200
G0 X91 Y65.3898 F3000
G1 X91 Y50.6102 F200
G0 X94 Y50 F3000
G1 X94 Y66 F200
G0 X97 Y65.3898 F3000
G1 X97 Y50.6102 F200
G0 X100 Y52.7449 F3000
G1 X100 Y63.2551 F200
M106 S0
G0 X138 Y42 F3000
M106 S255
G1 X138 Y58 F200
G1 X137.9015 Y59.2515
G1 X137.6085 Y60.4721
G1 X137.1281 Y61.6319
G1 X136.4721 Y62.7023
G1 X135.6569 Y63.6569
G1 X134.7023 Y64.4721
G1 X133.6319 Y65.1281
G1 X132.4721 Y65.6085
G1 X131.2515 Y65.9015
G1 X130 Y66
G1 X128.7485 Y65.9015
G1 X127.5279 Y65.6085
G1 X126.3681 Y65.1281
G1 X125.2977 Y64.4721
G1 X124.3431 Y63.6569
G1 X123.5279 Y62.7023
G1 X122.8719 Y61.6319
G1 X122.3915 Y60.4721
G1 X122.0985 Y59.2515
G1 X122 Y58
G1 X122.0985 Y56.7485
G1 X122.3915 Y55.5279
G1 X122.8719 Y54.3681
G1 X123.5279 Y53.2977
G1 X124.3431 Y52.3431
G1 X125.2977 Y51.5279
G1 X126.3681 Y50.8719
G1 X127.5279 Y50.3915
G1 X128.7485 Y50.0985
G1 X130 Y50
G1 X131.2515 Y50.0985
G1 X132.4721 Y50.3915
G1 X133.6319 Y50.8719
G1 X134.7023 Y51.5279
G1 X135.6569 Y52.3431
G1 X136.4721 Y53.2977
G1 X137.1281 Y54.3681
G1 X137.6085 Y55.5279
G1 X137.9015 Y56.7485
G1 X138 Y58
G0 X124 Y52.7449 F3000
G1 X124 Y63.2551 F200
G0 X127 Y65.3898 F3000
G1 X127 Y50.6102 F200
G0 X130 Y50 F3000
G1 X130 Y66 F200
G0 X133 Y65.3898 F3000
G1 X133 Y50.6102 F200
G0 X136 Y52.7449 F3000
G1 X136 Y63.2551 F200
M106 S0
G0 X174 Y42 F3000
M106 S255
G1 X174 Y58 F200
G1 X173.9015 Y59.2515
G1 X173.6085 Y60.4721
G1 X173.1281 Y61.6319
G1 X172.4721 Y62.7023
G1 X171.6569 Y63.6569
G1 X170.7023 Y64.4721
G1 X169.6319 Y65.1281
G1 X168.4721 Y65.6085
G1 X167.2515 Y65.9015
G1 X166 Y66
G1 X164.7485 Y65.9015
G1 X163.5279 Y65.6085
G1 X162.3681 Y65.1281
G1 X161.2977 Y64.4721
G1 X160.3431 Y63.6569
G1 X159.5279 Y62.7023
G1 X158.8719 Y61.6319
G1 X158.3915 Y60.4721
G1 X158.0985 Y59.2515
G1 X158 Y58
G1 X158.0985 Y56.7485
G1 X158.3915 Y55.5279
G1 X158.8719 Y54.3681
G1 X159.5279 Y53.2977
G1 X160.3431 Y52.3431
G1 X161.2977 Y51.5279
G1 X162.3681 Y50.8719
G1 X163.5279 Y50.3915
G1 X164.7485 Y50.0985
G1 X166 Y50
G1 X167.2515 Y50.0985
G1 X168.4721 Y50.3915
G1 X169.6319 Y50.8719
G1 X170.7023 Y51.5279
G1 X171.6569 Y52.3431
G1 X172.4721 Y53.2977
G1 X173.1281 Y54.3681
G1 X173.6085 Y55.5279
G1 X173.9015 Y56.7485
G1 X174 Y58
G0 X160 Y52.7449 F3000
G1 X160 Y63.2551 F200
G0 X163 Y65.3898 F3000
G1 X163 Y50.6102 F200
G0 X166 Y50 F3000
G1 X166 Y66 F200
G0 X169 Y65.3898 F3000
G1 X169 Y50.6102 F200
G0 X172 Y52.7449 F3000
G1 X172 Y63.2551 F200
M106 S0
G4 P333439
G0 Z7.5 F3000
G0 X66 Y42 F3000
M106 S255
G1 X66 Y58 F200
G1 X65.9015 Y59.2515
G1 X65.6085 Y60.4721
G1 X65.1281 Y61.6319
G1 X64.4721 Y62.7023
G1 X63.6569 Y63.6569
G1 X62.7023 Y64.4721
G1 X61.6319 Y65.1281
G1 X60.4721 Y65.6085
G1 X59.2515 Y65.9015
G1 X58 Y66
G1 X56.7485 Y65.9015
G1 X55.5279 Y65.6085
G1 X54.3681 Y65.1281
G1 X53.2977 Y64.4721
G1 X52.3431 Y63.6569
G1 X51.5279 Y62.7023
G1 X50.8719 Y61.6319
G1 X50.3915 Y60.4721
G1 X50.0985 Y59.2515
G1 X50 Y58
G1 X50.0985 Y56.7485
G1 X50.3915 Y55.5279
G1 X50.8719 Y54.3681
G1 X51.5279 Y53.2977
G1 X52.3431 Y52.3431
G1 X53.2977 Y51.5279
G1 X54.3681 Y50.8719
G1 X55.5279 Y50.3915
G1 X56.7485 Y50.0985
G1 X58 Y50
G1 X59.2515 Y50.0985
G1 X60.4721 Y50.3915
G1 X61.6319 Y50.8719
G1 X62.7023 Y51.5279
G1 X63.6569 Y52.3431
G1 X64.4721 Y53.2977
G1 X65.1281 Y54.3681
G1 X65.6085 Y55.5279
G1 X65.9015 Y56.7485
G1 X66 Y58
G0 X57.4733 Y50.0415 F3000
G1 X50.0415 Y57.4733 F200
G0 X50.6533 Y61.1041 F3000
G1 X61.1041 Y50.6533 F200
G0 X63.6569 Y52.3431 F3000
G1 X52.3431 Y63.6569 F200
G0 X54.8959 Y65.3467 F3000
G1 X65.3467 Y54.8959 F200
G0 X65.9585 Y58.5267 F3000
G1 X58.5267 Y65.9585 F200
M106 S0
G0 X102 Y42 F3000
M106 S255
G1 X102 Y58 F200
G1 X101.9015 Y59.2515
G1 X101.6085 Y60.4721
G1 X101.1281 Y61.6319
G1 X100.4721 Y62.7023
G1 X99.6569 Y63.6569
G1 X98.7023 Y64.4721
G1 X97.6319 Y65.1281
G1 X96.4721 Y65.6085
G1 X95.2515 Y65.9015
G1 X94 Y66
G1 X92.7485 Y65.9015
G1 X91.5279 Y65.6085
G1 X90.3681 Y65.1281
G1 X89.2977 Y64.4721
G1 X88.3431 Y63.6569
G1 X87.5279 Y62.7023
G1 X86.8719 Y61.6319
G1 X86.3915 Y60.4721
G1 X86.0985 Y59.2515
G1 X86 Y58
G1 X86.0985 Y56.7485
G1 X86.3915 Y55.5279
G1 X86.8719 Y54.3681
G1 X87.5279 Y53.2977
G1 X88.3431 Y52.3431
G1 X89.2977 Y51.5279
G1 X90.3681 Y50.8719
G1 X91.5279 Y50.3915
G1 X92.7485 Y50.0985
G1 X94 Y50
G1 X95.2515 Y50.0985
G1 X96.4721 Y50.3915
G1 X97.6319 Y50.8719
G1 X98.7023 Y51.5279
G1 X99.6569 Y52.3431
G1 X100.4721 Y53.2977
G1 X101.1281 Y54.3681
G1 X101.6085 Y55.5279
G1 X101.9015 Y56.7485
G1 X102 Y58
G0 X93.4733 Y50.0415 F3000
G1 X86.0415 Y57.4733 F200
G0 X86.6533 Y61.1041 F3000
G1 X97.1041 Y50.6533 F200
G0 X99.6569 Y52.3431 F3000
G1 X88.3431 Y63.6569 F200
G0 X90.8959 Y65.3467 F3000
G1 X101.3467 Y54.8959 F200
G0 X101.9585 Y58.5267 F3000
G1 X94.5267 Y65.9585 F200
M106 S0
G0 X138 Y42 F3000
M106 S255
G1 X138 Y58 F200
G1 X137.9015 Y59.2515
G1 X137.6085 Y60.4721
G1 X137.1281 Y61.6319
G1 X136.4721 Y62.7023
G1 X135.6569 Y63.6569
G1 X134.7023 Y64.4721
G1 X133.6319 Y65.1281
G1 X132.4721 Y65.6085
G1 X131.2515 Y65.9015
G1 X130 Y66
G1 X128.7485 Y65.9015
G1 X127.5279 Y65.6085
G1 X126.3681 Y65.1281
G1 X125.2977 Y64.4721
G1 X124.3431 Y63.6569
G1 X123.5279 Y62.7023
G1 X122.8719 Y61.6319
G1 X122.3915 Y60.4721
G1 X122.0985 Y59.2515
G1 X122 Y58
G1 X122.0985 Y56.7485
G1 X122.3915 Y55.5279
G1 X122.8719 Y54.3681
G1 X123.5279 Y53.2977
G1 X124.3431 Y52.3431
G1 X125.2977 Y51.5279
G1 X126.3681 Y50.8719
G1 X127.5279 Y50.3915
G1 X128.7485 Y50.0985
G1 X130 Y50
G1 X131.2515 Y50.0985
G1 X132.4721 Y50.3915
G1 X133.6319 Y50.8719
G1 X134.7023 Y51.5279
G1 X135.6569 Y52.3431
G1 X136.4721 Y53.2977
G1 X137.1281 Y54.3681
G1 X137.6085 Y55.5279
G1 X137.9015 Y56.7485
G1 X138 Y58
G0 X129.4733 Y50.0415 F3000
G1 X122.0415 Y57.4733 F200
G0 X122.6533 Y61.1041 F3000
G1 X133.1041 Y50.6533 F200
G0 X135.6569 Y52.3431 F3000
G1 X124.3431 Y63.6569 F200
G0 X126.8959 Y65.3467 F3000
G1 X137.3467 Y54.8959 F200
G0 X137.9585 Y58.5267 F3000
G1 X130.5267 Y65.9585 F200
M106 S0
G0 X174 Y42 F3000
M106 S255
G1 X174 Y58 F200
G1 X173.9015 Y59.2515
G1 X173.6085 Y60.4721
G1 X173.1281 Y61.6319
G1 X172.4721 Y62.7023
G1 X171.6569 Y63.6569
G1 X170.7023 Y64.4721
G1 X169.6319 Y65.1281
G1 X168.4721 Y65.6085
G1 X167.2515 Y65.9015
G1 X166 Y66
G1 X164.7485 Y65.9015
G1 X163.5279 Y65.6085
G1 X162.3681 Y65.1281
G1 X161.2977 Y64.4721
G1 X160.3431 Y63.6569
G1 X159.5279 Y62.7023
G1 X158.8719 Y61.6319
G1 X158.3915 Y60.4721
G1 X158.0985 Y59.2515
G1 X158 Y58
G1 X158.0985 Y56.7485
G1 X158.3915 Y55.5279
G1 X158.8719 Y54.3681
G1 X159.5279 Y53.2977
G1 X160.3431 Y52.3431
G1 X161.2977 Y51.5279
G1 X162.3681 Y50.8719
G1 X163.5279 Y50.3915
G1 X164.7485 Y50.0985
G1 X166 Y50
G1 X167.2515 Y50.0985
G1 X168.4721 Y50.3915
G1 X169.6319 Y50.8719
G1 X170.7023 Y51.5279
G1 X171.6569 Y52.3431
G1 X172.4721 Y53.2977
G1 X173.1281 Y54.3681
G1 X173.6085 Y55.5279
G1 X173.9015 Y56.7485
G1 X174 Y58
G0 X165.4733 Y50.0415 F3000
G1 X158.0415 Y57.4733 F200
G0 X158.6533 Y61.1041 F3000
G1 X169.1041 Y50.6533 F200
G0 X171.6569 Y52.3431 F3000
G1 X160.3431 Y63.6569 F200
G0 X162.8959 Y65.3467 F3000
G1 X173.3467 Y54.8959 F200
G0 X173.9585 Y58.5267 F3000
G1 X166.5267 Y65.9585 F200
M106 S0
G4 P333345
G0 Z8 F3000
G0 X66 Y42 F3000
M106 S255
G1 X66 Y58 F200
G1 X65.9015 Y59.2515
G1 X65.6085 Y60.4721
G1 X65.1281 Y61.6319
G1 X64.4721 Y62.7023
G1 X63.6569 Y63.6569
G1 X62.7023 Y64.4721
G1 X61.6319 Y65.1281
G1 X60.4721 Y65.6085
G1 X59.2515 Y65.9015
G1 X58 Y66
G1 X56.7485 Y65.9015
G1 X55.5279 Y65.6085
G1 X54.3681 Y65.1281
G1 X53.2977 Y64.4721
G1 X52.3431 Y63.6569
G1 X51.5279 Y62.7023
G1 X50.8719 Y61.6319
G1 X50.3915 Y60.4721
G1 X50.0985 Y59.2515
G1 X50 Y58
G1 X50.0985 Y56.7485
G1 X50.3915 Y55.5279
G1 X50.8719 Y54.3681
G1 X51.5279 Y53.2977
G1 X52.3431 Y52.3431
G1 X53.2977 Y51.5279
G1 X54.3681 Y50.8719
G1 X55.5279 Y50.3915
G1 X56.7485 Y50.0985
G1 X58 Y50
G1 X59.2515 Y50.0985
G1 X60.4721 Y50.3915
G1 X61.6319 Y50.8719
G1 X62.7023 Y51.5279
G1 X63.6569 Y52.3431
G1 X64.4721 Y53.2977
G1 X65.1281 Y54.3681
G1 X65.6085 Y55.5279
G1 X65.9015 Y56.7485
G1 X66 Y58
G0 X52.7449 Y64 F3000
G1 X63.2551 Y64 F200
G0 X65.3898 Y61 F3000
G1 X50.6102 Y61 F200
G0 X50 Y58 F3000
G1 X66 Y58 F200
G0 X65.3898 Y55 F3000
G1 X50.6102 Y55 F200
G0 X52.7449 Y52 F3000
G1 X63.2551 Y52 F200
M106 S0
G0 X102 Y42 F3000
M106 S255
G1 X102 Y58 F200
G1 X101.9015 Y59.2515
G1 X101.6085 Y60.4721
G1 X101.1281 Y61.6319
G1 X100.4721 Y62.7023
G1 X99.6569 Y63.6569
G1 X98.7023 Y64.4721
G1 X97.6319 Y65.1281
G1 X96.4721 Y65.6085
G1 X95.2515 Y65.9015
G1 X94 Y66
G1 X92.7485 Y65.9015
G1 X91.5279 Y65.6085
G1 X90.3681 Y65.1281
G1 X89.2977 Y64.4721
G1 X88.3431 Y63.6569
G1 X87.5279 Y62.7023
G1 X86.8719 Y61.6319
G1 X86.3915 Y60.4721
G1 X86.0985 Y59.2515
G1 X86 Y58
G1 X86.0985 Y56.7485
G1 X86.3915 Y55.5279
G1 X86.8719 Y54.3681
G1 X87.5279 Y53.2977
G1 X88.3431 Y52.3431
G1 X89.2977 Y51.5279
G1 X90.3681 Y50.8719
G1 X91.5279 Y50.3915
G1 X92.7485 Y50.0985
G1 X94 Y50
G1 X95.2515 Y50.0985
G1 X96.4721 Y50.3915
G1 X97.6319 Y50.8719
G1 X98.7023 Y51.5279
G1 X99.6569 Y52.3431
G1 X100.4721 Y53.2977
G1 X101.1281 Y54.3681
G1 X101.6085 Y55.5279
G1 X101.9015 Y56.7485
G1 X102 Y58
G0 X88.7449 Y64 F3000
G1 X99.2551 Y64 F200
G0 X101.3898 Y61 F3000
G1 X86.6102 Y61 F200
G0 X86 Y58 F3000
G1 X102 Y58 F200
G0 X101.3898 Y55 F3000
G1 X86.6102 Y55 F200
G0 X88.7449 Y52 F3000
G1 X99.2551 Y52 F200
M106 S0
G0 X138 Y42 F3000
M106 S255
G1 X138 Y58 F200
G1 X137.9015 Y59.2515
G1 X137.6085 Y60.4721
G1 X137.1281 Y61.6319
G1 X136.4721 Y62.7023
G1 X135.6569 Y63.6569
G1 X134.7023 Y64.4721
G1 X133.6319 Y65.1281
G1 X132.4721 Y65.6085
G1 X131.2515 Y65.9015
G1 X130 Y66
G1 X128.7485 Y65.9015
G1 X127.5279 Y65.6085
G1 X126.3681 Y65.1281
G1 X125.2977 Y64.4721
G1 X124.3431 Y63.6569
G1 X123.5279 Y62.7023
G1 X122.8719 Y61.6319
G1 X122.3915 Y60.4721
G1 X122.0985 Y59.2515
G1 X122 Y58
G1 X122.0985 Y56.7485
G1 X122.3915 Y55.5279
G1 X122.8719 Y54.3681
G1 X123.5279 Y53.2977
G1 X124.3431 Y52.3431
G1 X125.2977 Y51.5279
G1 X126.3681 Y50.8719
G1 X127.5279 Y50.3915
G1 X128.7485 Y50.0985
G1 X130 Y50
G1 X131.2515 Y50.0985
G1 X132.4721 Y50.3915
G1 X133.6319 Y50.8719
G1 X134.7023 Y51.5279
G1 X135.6569 Y52.3431
G1 X136.4721 Y53.2977
G1 X137.1281 Y54.3681
G1 X137.6085 Y55.5279
G1 X137.9015 Y56.7485
G1 X138 Y58
G0 X124.7449 Y64 F3000
G1 X135.2551 Y64 F200
G0 X137.3898 Y61 F3000
G1 X122.6102 Y61 F200
G0 X122 Y58 F3000
G1 X138 Y58 F200
G0 X137.3898 Y55 F3000
G1 X122.6102 Y55 F200
G0 X124.7449 Y52 F3000
G1 X135.2551 Y52 F200
M106 S0
G0 X174 Y42 F3000
M106 S255
G1 X174 Y58 F200
G1 X173.9015 Y59.2515
G1 X173.6085 Y60.4721
G1 X173.1281 Y61.6319
G1 X172.4721 Y62.7023
G1 X171.6569 Y63.6569
G1 X170.7023 Y64.4721
G1 X169.6319 Y65.1281
G1 X168.4721 Y65.6085
G1 X167.2515 Y65.9015
G1 X166 Y66
G1 X164.7485 Y65.9015
G1 X163.5279 Y65.6085
G1 X162.3681 Y65.1281
G1 X161.2977 Y64.4721
G1 X160.3431 Y63.6569
G1 X159.5279 Y62.7023
G1 X158.8719 Y61.6319
G1 X158.3915 Y60.4721
G1 X158.0985 Y59.2515
G1 X158 Y58
G1 X158.0985 Y56.7485
G1 X158.3915 Y55.5279
G1 X158.8719 Y54.3681
G1 X159.5279 Y53.2977
G1 X160.3431 Y52.3431
G1 X161.2977 Y51.5279
G1 X162.3681 Y50.8719
G1 X163.5279 Y50.3915
G1 X164.7485 Y50.0985
G1 X166 Y50
G1 X167.2515 Y50.0985
G1 X168.4721 Y50.3915
G1 X169.6319 Y50.8719
G1 X170.7023 Y51.5279
G1 X171.6569 Y52.3431
G1 X172.4721 Y53.2977
G1 X173.1281 Y54.3681
G1 X173.6085 Y55.5279
G1 X173.9015 Y56.7485
G1 X174 Y58
G0 X160.7449 Y64 F3000
G1 X171.2551 Y64 F200
G0 X173.3898 Y61 F3000
G1 X158.6102 Y61 F200
G0 X158 Y58 F3000
G1 X174 Y58 F200
G0 X173.3898 Y55 F3000
G1 X158.6102 Y55 F200
G0 X160.7449 Y52 F3000
G1 X171.2551 Y52 F200
M106 S0
G4 P333777
G0 Z8.5 F3000
G0 X66 Y42 F3000
M106 S255
G1 X66 Y58 F200
G1 X65.9015 Y59.2515
G1 X65.6085 Y60.4721
G1 X65.1281 Y61.6319
G1 X64.4721 Y62.7023
G1 X63.6569 Y63.6569
G1 X62.7023 Y64.4721
G1 X61.6319 Y65.1281
G1 X60.4721 Y65.6085
G1 X59.2515 Y65.9015
G1 X58 Y66
G1 X56.7485 Y65.9015
G1 X55.5279 Y65.6085
G1 X54.3681 Y65.1281
G1 X53.2977 Y64.4721
G1 X52.3431 Y63.6569
G1 X51.5279 Y62.7023
G1 X50.8719 Y61.6319
G1 X50.3915 Y60.4721
G1 X50.0985 Y59.2515
G1 X50 Y58
G1 X50.0985 Y56.7485
G1 X50.3915 Y55.5279
G1 X50.8719 Y54.3681
G1 X51.5279 Y53.2977
G1 X52.3431 Y52.3431
G1 X53.2977 Y51.5279
G1 X54.3681 Y50.8719
G1 X55.5279 Y50.3915
G1 X56.7485 Y50.0985
G1 X58 Y50
G1 X59.2515 Y50.0985
G1 X60.4721 Y50.3915
G1 X61.6319 Y50.8719
G1 X62.7023 Y51.5279
G1 X63.6569 Y52.3431
G1 X64.4721 Y53.2977
G1 X65.1281 Y54.3681
G1 X65.6085 Y55.5279
G1 X65.9015 Y56.7485
G1 X66 Y58
G0 X50.0415 Y58.5267 F3000
G1 X57.4733 Y65.9585 F200
G0 X61.1041 Y65.3467 F3000
G1 X50.6533 Y54.8959 F200
G0 X52.3431 Y52.3431 F3000
G1 X63.6569 Y63.6569 F200
G0 X65.3467 Y61.1041 F3000
G1 X54.8959 Y50.6533 F200
G0 X58.5267 Y50.0415 F3000
G1 X65.9585 Y57.4733 F200
M106 S0
G0 X102 Y42 F3000
M106 S255
G1 X102 Y58 F200
G1 X101.9015 Y59.2515
G1 X101.6085 Y60.4721
G1 X101.1281 Y61.6319
G1 X100.4721 Y62.7023
G1 X99.6569 Y63.6569
G1 X98.7023 Y64.4721
G1 X97.6319 Y65.1281
G1 X96.4721 Y65.6085
G1 X95.2515 Y65.9015
G1 X94 Y66
G1 X92.7485 Y65.9015
G1 X91.5279 Y65.6085
G1 X90.3681 Y65.1281
G1 X89.2977 Y64.4721
G1 X88.3431 Y63.6569
G1 X87.5279 Y62.7023
G1 X86.8719 Y61.6319
G1 X86.3915 Y60.4721
G1 X86.0985 Y59.2515
G1 X86 Y58
G1 X86.0985 Y56.7485
G1 X86.3915 Y55.5279
G1 X86.8719 Y54.3681
G1 X87.5279 Y53.2977
G1 X88.3431 Y52.3431
G1 X89.2977 Y51.5279
G1 X90.3681 Y50.8719
G1 X91.5279 Y50.3915
G1 X92.7485 Y50.0985
G1 X94 Y50
G1 X95.2515 Y50.0985
G1 X96.4721 Y50.3915
G1 X97.6319 Y50.8719
G1 X98.7023 Y51.5279
G1 X99.6569 Y52.3431
G1 X100.4721 Y53.2977
G1 X101.1281 Y54.3681
G1 X101.6085 Y55.5279
G1 X101.9015 Y56.7485
G1 X102 Y58
G0 X86.0415 Y58.5267 F3000
G1 X93.4733 Y65.9585 F200
G0 X97.1041 Y65.3467 F3000
G1 X86.6533 Y54.8959 F200
G0 X88.3431 Y52.3431 F3000
G1 X99.6569 Y63.6569 F200
G0 X101.3467 Y61.1041 F3000
G1 X90.8959 Y50.6533 F200
G0 X94.5267 Y50.0415 F3000
G1 X101.9585 Y57.4733 F200
M106 S0
G0 X138 Y42 F3000
M106 S255
G1 X138 Y58 F200
G1 X137.9015 Y59.2515
G1 X137.6085 Y60.4721
G1 X137.1281 Y61.6319
G1 X136.4721 Y62.7023
G1 X135.6569 Y63.6569
G1 X134.7023 Y64.4721
G1 X133.6319 Y65.1281
G1 X132.4721 Y65.6085
G1 X131.2515 Y65.9015
G1 X130 Y66
G1 X128.7485 Y65.9015
G1 X127.5279 Y65.6085
G1 X126.3681 Y65.1281
G1 X125.2977 Y64.4721
G1 X124.3431 Y63.6569
G1 X123.5279 Y62.7023
G1 X122.8719 Y61.6319
G1 X122.3915 Y60.4721
G1 X122.0985 Y59.2515
G1 X122 Y58
G1 X122.0985 Y56.7485
G1 X122.3915 Y55.5279
G1 X122.8719 Y54.3681
G1 X123.5279 Y53.2977
G1 X124.3431 Y52.3431
G1 X125.2977 Y51.5279
G1 X126.3681 Y50.8719
G1 X127.5279 Y50.3915
G1 X128.7485 Y50.0985
G1 X130 Y50
G1 X131.2515 Y50.0985
G1 X132.4721 Y50.3915
G1 X133.6319 Y50.8719
G1 X134.7023 Y51.5279
G1 X135.6569 Y52.3431
G1 X136.4721 Y53.2977
G1 X137.1281 Y54.3681
G1 X137.6085 Y55.5279
G1 X137.9015 Y56.7485
G1 X138 Y58
G0 X122.0415 Y58.5267 F3000
G1 X129.4733 Y65.9585 F200
G0 X133.1041 Y65.3467 F3000
G1 X122.6533 Y54.8959 F200
G0 X124.3431 Y52.3431 F3000
G1 X135.6569 Y63.6569 F200
G0 X137.3467 Y61.1041 F3000
G1 X126.8959 Y50.6533 F200
G0 X130.5267 Y50.0415 F3000
G1 X137.9585 Y57.4733 F200
M106 S0
G0 X174 Y42 F3000
M106 S255
G1 X174 Y58 F200
G1 X173.9015 Y59.2515
G1 X173.6085 Y60.4721
G1 X173.1281 Y61.6319
G1 X172.4721 Y62.7023
G1 X171.6569 Y63.6569
G1 X170.7023 Y64.4721
G1 X169.6319 Y65.1281
G1 X168.4721 Y65.6085
G1 X167.2515 Y65.9015
G1 X166 Y66
G1 X164.7485 Y65.9015
G1 X163.5279 Y65.6085
G1 X162.3681 Y65.1281
G1 X161.2977 Y64.4721
G1 X160.3431 Y63.6569
G1 X159.5279 Y62.7023
G1 X158.8719 Y61.6319
G1 X158.3915 Y60.4721
G1 X158.0985 Y59.2515
G1 X158 Y58
G1 X158.0985 Y56.7485
G1 X158.3915 Y55.5279
G1 X158.8719 Y54.3681
G1 X159.5279 Y53.2977
G1 X160.3431 Y52.3431
G1 X161.2977 Y51.5279
G1 X162.3681 Y50.8719
G1 X163.5279 Y50.3915
G1 X164.7485 Y50.0985
G1 X166 Y50
G1 X167.2515 Y50.0985
G1 X168.4721 Y50.3915
G1 X169.6319 Y50.8719
G1 X170.7023 Y51.5279
G1 X171.6569 Y52.3431
G1 X172.4721 Y53.2977
G1 X173.1281 Y54.3681
G1 X173.6085 Y55.5279
G1 X173.9015 Y56.7485
G1 X174 Y58
G0 X158.0415 Y58.5267 F3000
G1 X165.4733 Y65.9585 F200
G0 X169.1041 Y65.3467 F3000
G1 X158.6533 Y54.8959 F200
G0 X160.3431 Y52.3431 F3000
G1 X171.6569 Y63.6569 F200
G0 X173.3467 Y61.1041 F3000
G1 X162.8959 Y50.6533 F200
G0 X166.5267 Y50.0415 F3000
G1 X173.9585 Y57.4733 F200
M106 S0
G4 P333653
G0 Z9 F3000
G0 X66 Y42 F3000
M106 S255
G1 X66 Y58 F200
G1 X65.9015 Y59.2515
G1 X65.6085 Y60.4721
G1 X65.1281 Y61.6319
G1 X64.4721 Y62.7023
G1 X63.6569 Y63.6569
G1 X62.7023 Y64.4721
G1 X61.6319 Y65.1281
G1 X60.4721 Y65.6085
G1 X59.2515 Y65.9015
G1 X58 Y66
G1 X56.7485 Y65.9015
G1 X55.5279 Y65.6085
G1 X54.3681 Y65.1281
G1 X53.2977 Y64.4721
G1 X52.3431 Y63.6569
G1 X51.5279 Y62.7023
G1 X50.8719 Y61.6319
G1 X50.3915 Y60.4721
G1 X50.0985 Y59.2515
G1 X50 Y58
G1 X50.0985 Y56.7485
G1 X50.3915 Y55.5279
G1 X50.8719 Y54.3681
G1 X51.5279 Y53.2977
G1 X52.3431 Y52.3431
G1 X53.2977 Y51.5279
G1 X54.3681 Y50.8719
G1 X55.5279 Y50.3915
G1 X56.7485 Y50.0985
G1 X58 Y50
G1 X59.2515 Y50.0985
G1 X60.4721 Y50.3915
G1 X61.6319 Y50.8719
G1 X62.7023 Y51.5279
G1 X63.6569 Y52.3431
G1 X64.4721 Y53.2977
G1 X65.1281 Y54.3681
G1 X65.6085 Y55.5279
G1 X65.9015 Y56.7485
G1 X66 Y58
G0 X52 Y52.7449 F3000
G1 X52 Y63.2551 F200
G0 X55 Y65.3898 F3000
G1 X55 Y50.6102 F200
G0 X58 Y50 F3000
G1 X58 Y66 F200
G0 X61 Y65.3898 F3000
G1 X61 Y50.6102 F200
G0 X64 Y52.7449 F3000
G1 X64 Y63.2551 F200
M106 S0
G0 X102 Y42 F3000
M106 S255
G1 X102 Y58 F200
G1 X101.9015 Y59.2515
G1 X101.6085 Y60.4721
G1 X101.1281 Y61.6319
G1 X100.4721 Y62.7023
G1 X99.6569 Y63.6569
G1 X98.7023 Y64.4721
G1 X97.6319 Y65.1281
G1 X96.4721 Y65.6085
G1 X95.2515 Y65.9015
G1 X94 Y66
G1 X92.7485 Y65.9015
G1 X91.5279 Y65.6085
G1 X90.3681 Y65.1281
G1 X89.2977 Y64.4721
G1 X88.3431 Y63.6569
G1 X87.5279 Y62.7023
G1 X86.8719 Y61.6319
G1 X86.3915 Y60.4721
G1 X86.0985 Y59.2515
G1 X86 Y58
G1 X86.0985 Y56.7485
G1 X86.3915 Y55.5279
G1 X86.8719 Y54.3681
G1 X87.5279 Y53.2977
G1 X88.3431 Y52.3431
G1 X89.2977 Y51.5279
G1 X90.3681 Y50.8719
G1 X91.5279 Y50.3915
G1 X92.7485 Y50.0985
G1 X94 Y50
G1 X95.2515 Y50.0985
G1 X96.4721 Y50.3915
G1 X97.6319 Y50.8719
G1 X98.7023 Y51.5279
G1 X99.6569 Y52.3431
G1 X100.4721 Y53.2977
G1 X101.1281 Y54.3681
G1 X101.6085 Y55.5279
G1 X101.9015 Y56.7485
G1 X102 Y58
G0 X88 Y52.7449 F3000
G1 X88 Y63.2551 F200
G0 X91 Y65.3898 F3000
G1 X91 Y50.6102 F200
G0 X94 Y50 F3000
G1 X94 Y66 F200
G0 X97 Y65.3898 F3000
G1 X97 Y50.6102 F200
G0 X100 Y52.7449 F3000
G1 X100 Y63.2551 F200
M106 S0
G0 X138 Y42 F3000
M106 S255
G1 X138 Y58 F200
G1 X137.9015 Y59.2515
G1 X137.6085 Y60.4721
G1 X137.1281 Y61.6319
G1 X136.4721 Y62.7023
G1 X135.6569 Y63.6569
G1 X134.7023 Y64.4721
G1 X133.6319 Y65.1281
G1 X132.4721 Y65.6085
G1 X131.2515 Y65.9015
G1 X130 Y66
G1 X128.7485 Y65.9015
G1 X127.5279 Y65.6085
G1 X126.3681 Y65.1281
G1 X125.2977 Y64.4721
G1 X124.3431 Y63.6569
G1 X123.5279 Y62.7023
G1 X122.8719 Y61.6319
G1 X122.3915 Y60.4721
G1 X122.0985 Y59.2515
G1 X122 Y58
G1 X122.0985 Y56.7485
G1 X122.3915 Y55.5279
G1 X122.8719 Y54.3681
G1 X123.5279 Y53.2977
G1 X124.3431 Y52.3431
G1 X125.2977 Y51.5279
G1 X126.3681 Y50.8719
G1 X127.5279 Y50.3915
G1 X128.7485 Y50.0985
G1 X130 Y50
G1 X131.2515 Y50.0985
G1 X132.4721 Y50.3915
G1 X133.6319 Y50.8719
G1 X134.7023 Y51.5279
G1 X135.6569 Y52.3431
G1 X136.4721 Y53.2977
G1 X137.1281 Y54.3681
G1 X137.6085 Y55.5279
G1 X137.9015 Y56.7485
G1 X138 Y58
G0 X124 Y52.7449 F3000
G1 X124 Y63.2551 F200
G0 X127 Y65.3898 F3000
G1 X127 Y50.6102 F200
G0 X130 Y50 F3000
G1 X130 Y66 F200
G0 X133 Y65.3898 F3000
G1 X133 Y50.6102 F200
G0 X136 Y52.7449 F3000
G1 X136 Y63.2551 F200
M106 S0
G0 X174 Y42 F3000
M106 S255
G1 X174 Y58 F200
G1 X173.9015 Y59.2515
G1 X173.6085 Y60.4721
G1 X173.1281 Y61.6319
G1 X172.4721 Y62.7023
G1 X171.6569 Y63.6569
G1 X170.7023 Y64.4721
G1 X169.6319 Y65.1281
G1 X168.4721 Y65.6085
G1 X167.2515 Y65.9015
G1 X166 Y66
G1 X164.7485 Y65.9015
G1 X163.5279 Y65.6085
G1 X162.3681 Y65.1281
G1 X161.2977 Y64.4721
G1 X160.3431 Y63.6569
G1 X159.5279 Y62.7023
G1 X158.8719 Y61.6319
G1 X158.3915 Y60.4721
G1 X158.0985 Y59.2515
G1 X158 Y58
G1 X158.0985 Y56.7485
G1 X158.3915 Y55.5279
G1 X158.8719 Y54.3681
G1 X159.5279 Y53.2977
G1 X160.3431 Y52.3431
G1 X161.2977 Y51.5279
G1 X162.3681 Y50.8719
G1 X163.5279 Y50.3915
G1 X164.7485 Y50.0985
G1 X166 Y50
G1 X167.2515 Y50.0985
G1 X168.4721 Y50.3915
G1 X169.6319 Y50.8719
G1 X170.7023 Y51.5279
G1 X171.6569 Y52.3431
G1 X172.4721 Y53.2977
G1 X173.1281 Y54.3681
G1 X173.6085 Y55.5279
G1 X173.9015 Y56.7485
G1 X174 Y58
G0 X160 Y52.7449 F3000
G1 X160 Y63.2551 F200
G0 X163 Y65.3898 F3000
G1 X163 Y50.6102 F200
G0 X166 Y50 F3000
G1 X166 Y66 F200
G0 X169 Y65.3898 F3000
G1 X169 Y50.6102 F200
G0 X172 Y52.7449 F3000
G1 X172 Y63.2551 F200
M106 S0
G4 P333399
G0 Z9.5 F3000
G0 X66 Y42 F3000
M106 S255
G1 X66 Y58 F200
G1 X65.9015 Y59.2515
G1 X65.6085 Y60.4721
G1 X65.1281 Y61.6319
G1 X64.4721 Y62.7023
G1 X63.6569 Y63.6569
G1 X62.7023 Y64.4721
G1 X61.6319 Y65.1281
G1 X60.4721 Y65.6085
G1 X59.2515 Y65.9015
G1 X58 Y66
G1 X56.7485 Y65.9015
G1 X55.5279 Y65.6085
G1 X54.3681 Y65.1281
G1 X53.2977 Y64.4721
G1 X52.3431 Y63.6569
G1 X51.5279 Y62.7023
G1 X50.8719 Y61.6319
G1 X50.3915 Y60.4721
G1 X50.0985 Y59.2515
G1 X50 Y58
G1 X50.0985 Y56.7485
G1 X50.3915 Y55.5279
G1 X50.8719 Y54.3681
G1 X51.5279 Y53.2977
G1 X52.3431 Y52.3431
G1 X53.2977 Y51.5279
G1 X54.3681 Y50.8719
G1 X55.5279 Y50.3915
G1 X56.7485 Y50.0985
G1 X58 Y50
G1 X59.2515 Y50.0985
G1 X60.4721 Y50.3915
G1 X61.6319 Y50.8719
G1 X62.7023 Y51.5279
G1 X63.6569 Y52.3431
G1 X64.4721 Y53.2977
G1 X65.1281 Y54.3681
G1 X65.6085 Y55.5279
G1 X65.9015 Y56.7485
G1 X66 Y58
G0 X57.4733 Y50.0415 F3000
G1 X50.0415 Y57.4733 F200
G0 X50.6533 Y61.1041 F3000
G1 X61.1041 Y50.6533 F200
G0 X63.6569 Y52.3431 F3000
G1 X52.3431 Y63.6569 F200
G0 X54.8959 Y65.3467 F3000
G1 X65.3467 Y54.8959 F200
G0 X65.9585 Y58.5267 F3000
G1 X58.5267 Y65.9585 F200
M106 S0
G0 X102 Y42 F3000
M106 S255
G1 X102 Y58 F200
G1 X101.9015 Y59.2515
G1 X101.6085 Y60.4721
G1 X101.1281 Y61.6319
G1 X100.4721 Y62.7023
G1 X99.6569 Y63.6569
G1 X98.7023 Y64.4721
G1 X97.6319 Y65.1281
G1 X96.4721 Y65.6085
G1 X95.2515 Y65.9015
G1 X94 Y66
G1 X92.7485 Y65.9015
G1 X91.5279 Y65.6085
G1 X90.3681 Y65.1281
G1 X89.2977 Y64.4721
G1 X88.3431 Y63.6569
G1 X87.5279 Y62.7023
G1 X86.8719 Y61.6319
G1 X86.3915 Y60.4721
G1 X86.0985 Y59.2515
G1 X86 Y58
G1 X86.0985 Y56.7485
G1 X86.3915 Y55.5279
G1 X86.8719 Y54.3681
G1 X87.5279 Y53.2977
G1 X88.3431 Y52.3431
G1 X89.2977 Y51.5279
G1 X90.3681 Y50.8719
G1 X91.5279 Y50.3915
G1 X92.7485 Y50.0985
G1 X94 Y50
G1 X95.2515 Y50.0985
G1 X96.4721 Y50.3915
G1 X97.6319 Y50.8719
G1 X98.7023 Y51.5279
G1 X99.6569 Y52.3431
G1 X100.4721 Y53.2977
G1 X101.1281 Y54.3681
G1 X101.6085 Y55.5279
G1 X101.9015 Y56.7485
G1 X102 Y58
G0 X93.4733 Y50.0415 F3000
G1 X86.0415 Y57.4733 F200
G0 X86.6533 Y61.1041 F3000
G1 X97.1041 Y50.6533 F200
G0 X99.6569 Y52.3431 F3000
G1 X88.3431 Y63.6569 F200
G0 X90.8959 Y65.3467 F3000
G1 X101.3467 Y54.8959 F200
G0 X101.9585 Y58.5267 F3000
G1 X94.5267 Y65.9585 F200
M106 S0
G0 X138 Y42 F3000
M106 S255
G1 X138 Y58 F200
G1 X137.9015 Y59.2515
G1 X137.6085 Y60.4721
G1 X137.1281 Y61.6319
G1 X136.4721 Y62.7023
G1 X135.6569 Y63.6569
G1 X134.7023 Y64.4721
G1 X133.6319 Y65.1281
G1 X132.4721 Y65.6085
G1 X131.2515 Y65.9015
G1 X130 Y66
G1 X128.7485 Y65.9015
G1 X127.5279 Y65.6085
G1 X126.3681 Y65.1281
G1 X125.2977 Y64.4721
G1 X124.3431 Y63.6569
G1 X123.5279 Y62.7023
G1 X122.8719 Y61.6319
G1 X122.3915 Y60.4721
G1 X122.0985 Y59.2515
G1 X122 Y58
G1 X122.0985 Y56.7485
G1 X122.3915 Y55.5279
G1 X122.8719 Y54.3681
G1 X123.5279 Y53.2977
G1 X124.3431 Y52.3431
G1 X125.2977 Y51.5279
G1 X126.3681 Y50.8719
G1 X127.5279 Y50.3915
G1 X128.7485 Y50.0985
G1 X130 Y50
G1 X131.2515 Y50.0985
G1 X132.4721 Y50.3915
G1 X133.6319 Y50.8719
G1 X134.7023 Y51.5279
G1 X135.6569 Y52.3431
G1 X136.4721 Y53.2977
G1 X137.1281 Y54.3681
G1 X137.6085 Y55.5279
G1 X137.9015 Y56.7485
G1 X138 Y58
G0 X129.4733 Y50.0415 F3000
G1 X122.0415 Y57.4733 F200
G0 X122.6533 Y61.1041 F3000
G1 X133.1041 Y50.6533 F200
G0 X135.6569 Y52.3431 F3000
G1 X124.3431 Y63.6569 F200
G0 X126.8959 Y65.3467 F3000
G1 X137.3467 Y54.8959 F200
G0 X137.9585 Y58.5267 F3000
G1 X130.5267 Y65.9585 F200
M106 S0
G0 X174 Y42 F3000
M106 S255
G1 X174 Y58 F200
G1 X173.9015 Y59.2515
G1 X173.6085 Y60.4721
G1 X173.1281 Y61.6319
G1 X172.4721 Y62.7023
G1 X171.6569 Y63.6569
G1 X170.7023 Y64.4721
G1 X169.6319 Y65.1281
G1 X168.4721 Y65.6085
G1 X167.2515 Y65.9015
G1 X166 Y66
G1 X164.7485 Y65.9015
G1 X163.5279 Y65.6085
G1 X162.3681 Y65.1281
G1 X161.2977 Y64.4721
G1 X160.3431 Y63.6569
G1 X159.5279 Y62.7023
G1 X158.8719 Y61.6319
G1 X158.3915 Y60.4721
G1 X158.0985 Y59.2515
G1 X158 Y58
G1 X158.0985 Y56.7485
G1 X158.3915 Y55.5279
G1 X158.8719 Y54.3681
G1 X159.5279 Y53.2977
G1 X160.3431 Y52.3431
G1 X161.2977 Y51.5279
G1 X162.3681 Y50.8719
G1 X163.5279 Y50.3915
G1 X164.7485 Y50.0985
G1 X166 Y50
G1 X167.2515 Y50.0985
G1 X168.4721 Y50.3915
G1 X169.6319 Y50.8719
G1 X170.7023 Y51.5279
G1 X171.6569 Y52.3431
G1 X172.4721 Y53.2977
G1 X173.1281 Y54.3681
G1 X173.6085 Y55.5279
G1 X173.9015 Y56.7485
G1 X174 Y58
G0 X165.4733 Y50.0415 F3000
G1 X158.0415 Y57.4733 F200
G0 X158.6533 Y61.1041 F3000
G1 X169.1041 Y50.6533 F200
G0 X171.6569 Y52.3431 F3000
G1 X160.3431 Y63.6569 F200
G0 X162.8959 Y65.3467 F3000
G1 X173.3467 Y54.8959 F200
G0 X173.9585 Y58.5267 F3000
G1 X166.5267 Y65.9585 F200
M106 S0
G4 P333305
G0 Z10 F3000
G0 X66 Y42 F3000
M106 S255
G1 X66 Y58 F200
G1 X65.9015 Y59.2515
G1 X65.6085 Y60.4721
G1 X65.1281 Y61.6319
G1 X64.4721 Y62.7023
G1 X63.6569 Y63.6569
G1 X62.7023 Y64.4721
G1 X61.6319 Y65.1281
G1 X60.4721 Y65.6085
G1 X59.2515 Y65.9015
G1 X58 Y66
G1 X56.7485 Y65.9015
G1 X55.5279 Y65.6085
G1 X54.3681 Y65.1281
G1 X53.2977 Y64.4721
G1 X52.3431 Y63.6569
G1 X51.5279 Y62.7023
G1 X50.8719 Y61.6319
G1 X50.3915 Y60.4721
G1 X50.0985 Y59.2515
G1 X50 Y58
G1 X50.0985 Y56.7485
G1 X50.3915 Y55.5279
G1 X50.8719 Y54.3681
G1 X51.5279 Y53.2977
G1 X52.3431 Y52.3431
G1 X53.2977 Y51.5279
G1 X54.3681 Y50.8719
G1 X55.5279 Y50.3915
G1 X56.7485 Y50.0985
G1 X58 Y50
G1 X59.2515 Y50.0985
G1 X60.4721 Y50.3915
G1 X61.6319 Y50.8719
G1 X62.7023 Y51.5279
G1 X63.6569 Y52.3431
G1 X64.4721 Y53.2977
G1 X65.1281 Y54.3681
G1 X65.6085 Y55.5279
G1 X65.9015 Y56.7485
G1 X66 Y58
G0 X52.7449 Y64 F3000
G1 X63.2551 Y64 F200
G0 X65.3898 Y61 F3000
G1 X50.6102 Y61 F200
G0 X50 Y58 F3000
G1 X66 Y58 F200
G0 X65.3898 Y55 F3000
G1 X50.6102 Y55 F200
G0 X52.7449 Y52 F3000
G1 X63.2551 Y52 F200
M106 S0
G0 X102 Y42 F3000
M106 S255
G1 X102 Y58 F200
G1 X101.9015 Y59.2515
G1 X101.6085 Y60.4721
G1 X101.1281 Y61.6319
G1 X100.4721 Y62.7023
G1 X99.6569 Y63.6569
G1 X98.7023 Y64.4721
G1 X97.6319 Y65.1281
G1 X96.4721 Y65.6085
G1 X95.2515 Y65.9015
G1 X94 Y66
G1 X92.7485 Y65.9015
G1 X91.5279 Y65.6085
G1 X90.3681 Y65.1281
G1 X89.2977 Y64.4721
G1 X88.3431 Y63.6569
G1 X87.5279 Y62.7023
G1 X86.8719 Y61.6319
G1 X86.3915 Y60.4721
G1 X86.0985 Y59.2515
G1 X86 Y58
G1 X86.0985 Y56.7485
G1 X86.3915 Y55.5279
G1 X86.8719 Y54.3681
G1 X87.5279 Y53.2977
G1 X88.3431 Y52.3431
G1 X89.2977 Y51.5279
G1 X90.3681 Y50.8719
G1 X91.5279 Y50.3915
G1 X92.7485 Y50.0985
G1 X94 Y50
G1 X95.2515 Y50.0985
G1 X96.4721 Y50.3915
G1 X97.6319 Y50.8719
G1 X98.7023 Y51.5279
G1 X99.6569 Y52.3431
G1 X100.4721 Y53.2977
G1 X101.1281 Y54.3681
G1 X101.6085 Y55.5279
G1 X101.9015 Y56.7485
G1 X102 Y58
G0 X88.7449 Y64 F3000
G1 X99.2551 Y64 F200
G0 X101.3898 Y61 F3000
G1 X86.6102 Y61 F200
G0 X86 Y58 F3000
G1 X102 Y58 F200
G0 X101.3898 Y55 F3000
G1 X86.6102 Y55 F200
G0 X88.7449 Y52 F3000
G1 X99.2551 Y52 F200
M106 S0
G0 X138 Y42 F3000
M106 S255
G1 X138 Y58 F200
G1 X137.9015 Y59.2515
G1 X137.6085 Y60.4721
G1 X137.1281 Y61.6319
G1 X136.4721 Y62.7023
G1 X135.6569 Y63.6569
G1 X134.7023 Y64.4721
G1 X133.6319 Y65.1281
G1 X132.4721 Y65.6085
G1 X131.2515 Y65.9015
G1 X130 Y66
G1 X128.7485 Y65.9015
G1 X127.5279 Y65.6085
G1 X126.3681 Y65.1281
G1 X125.2977 Y64.4721
G1 X124.3431 Y63.6569
G1 X123.5279 Y62.7023
G1 X122.8719 Y61.6319
G1 X122.3915 Y60.4721
G1 X122.0985 Y59.2515
G1 X122 Y58
G1 X122.0985 Y56.7485
G1 X122.3915 Y55.5279
G1 X122.8719 Y54.3681
G1 X123.5279 Y53.2977
G1 X124.3431 Y52.3431
G1 X125.2977 Y51.5279
G1 X126.3681 Y50.8719
G1 X127.5279 Y50.3915
G1 X128.7485 Y50.0985
G1 X130 Y50
G1 X131.2515 Y50.0985
G1 X132.4721 Y50.3915
G1 X133.6319 Y50.8719
G1 X134.7023 Y51.5279
G1 X135.6569 Y52.3431
G1 X136.4721 Y53.2977
G1 X137.1281 Y54.3681
G1 X137.6085 Y55.5279
G1 X137.9015 Y56.7485
G1 X138 Y58
G0 X124.7449 Y64 F3000
G1 X135.2551 Y64 F200
G0 X137.3898 Y61 F3000
G1 X122.6102 Y61 F200
G0 X122 Y58 F3000
G1 X138 Y58 F200
G0 X137.3898 Y55 F3000
G1 X122.6102 Y55 F200
G0 X124.7449 Y52 F3000
G1 X135.2551 Y52 F200
M106 S0
G0 X174 Y42 F3000
M106 S255
G1 X174 Y58 F200
G1 X173.9015 Y59.2515
G1 X173.6085 Y60.4721
G1 X173.1281 Y61.6319
G1 X172.4721 Y62.7023
G1 X171.6569 Y63.6569
G1 X170.7023 Y64.4721
G1 X169.6319 Y65.1281
G1 X168.4721 Y65.6085
G1 X167.2515 Y65.9015
G1 X166 Y66
G1 X164.7485 Y65.9015
G1 X163.5279 Y65.6085
G1 X162.3681 Y65.1281
G1 X161.2977 Y64.4721
G1 X160.3431 Y63.6569
G1 X159.5279 Y62.7023
G1 X158.8719 Y61.6319
G1 X158.3915 Y60.4721
G1 X158.0985 Y59.2515
G1 X158 Y58
G1 X158.0985 Y56.7485
G1 X158.3915 Y55.5279
G1 X158.8719 Y54.3681
G1 X159.5279 Y53.2977
G1 X160.3431 Y52.3431
G1 X161.2977 Y51.5279
G1 X162.3681 Y50.8719
G1 X163.5279 Y50.3915
G1 X164.7485 Y50.0985
G1 X166 Y50
G1 X167.2515 Y50.0985
G1 X168.4721 Y50.3915
G1 X169.6319 Y50.8719
G1 X170.7023 Y51.5279
G1 X171.6569 Y52.3431
G1 X172.4721 Y53.2977
G1 X173.1281 Y54.3681
G1 X173.6085 Y55.5279
G1 X173.9015 Y56.7485
G1 X174 Y58
G0 X160.7449 Y64 F3000
G1 X171.2551 Y64 F200
G0 X173.3898 Y61 F3000
G1 X158.6102 Y61 F200
G0 X158 Y58 F3000
G1 X174 Y58 F200
G0 X173.3898 Y55 F3000
G1 X158.6102 Y55 F200
G0 X160.7449 Y52 F3000
G1 X171.2551 Y52 F200
M106 S0
G4 P333737
G0 Z10.5 F3000
G0 X66 Y42 F3000
M106 S255
G1 X66 Y58 F200
G1 X65.9015 Y59.2515
G1 X65.6085 Y60.4721
G1 X65.1281 Y61.6319
G1 X64.4721 Y62.7023
G1 X63.6569 Y63.6569
G1 X62.7023 Y64.4721
G1 X61.6319 Y65.1281
G1 X60.4721 Y65.6085
G1 X59.2515 Y65.9015
G1 X58 Y66
G1 X56.7485 Y65.9015
G1 X55.5279 Y65.6085
G1 X54.3681 Y65.1281
G1 X53.2977 Y64.4721
G1 X52.3431 Y63.6569
G1 X51.5279 Y62.7023
G1 X50.8719 Y61.6319
G1 X50.3915 Y60.4721
G1 X50.0985 Y59.2515
G1 X50 Y58
G1 X50.0985 Y56.7485
G1 X50.3915 Y55.5279
G1 X50.8719 Y54.3681
G1 X51.5279 Y53.2977
G1 X52.3431 Y52.3431
G1 X53.2977 Y51.5279
G1 X54.3681 Y50.8719
G1 X55.5279 Y50.3915
G1 X56.7485 Y50.0985
G1 X58 Y50
G1 X59.2515 Y50.0985
G1 X60.4721 Y50.3915
G1 X61.6319 Y50.8719
G1 X62.7023 Y51.5279
G1 X63.6569 Y52.3431
G1 X64.4721 Y53.2977
G1 X65.1281 Y54.3681
G1 X65.6085 Y55.5279
G1 X65.9015 Y56.7485
G1 X66 Y58
G0 X50.0415 Y58.5267 F3000
G1 X57.4733 Y65.9585 F200
G0 X61.1041 Y65.3467 F3000
G1 X50.6533 Y54.8959 F200
G0 X52.3431 Y52.3431 F3000
G1 X63.6569 Y63.6569 F200
G0 X65.3467 Y61.1041 F3000
G1 X54.8959 Y50.6533 F200
G0 X58.5267 Y50.0415 F3000
G1 X65.9585 Y57.4733 F200
M106 S0
G0 X102 Y42 F3000
M106 S255
G1 X102 Y58 F200
G1 X101.9015 Y59.2515
G1 X101.6085 Y60.4721
G1 X101.1281 Y61.6319
G1 X100.4721 Y62.7023
G1 X99.6569 Y63.6569
G1 X98.7023 Y64.4721
G1 X97.6319 Y65.1281
G1 X96.4721 Y65.6085
G1 X95.2515 Y65.9015
G1 X94 Y66
G1 X92.7485 Y65.9015
G1 X91.5279 Y65.6085
G1 X90.3681 Y65.1281
G1 X89.2977 Y64.4721
G1 X88.3431 Y63.6569
G1 X87.5279 Y62.7023
G1 X86.8719 Y61.6319
G1 X86.3915 Y60.4721
G1 X86.0985 Y59.2515
G1 X86 Y58
G1 X86.0985 Y56.7485
G1 X86.3915 Y55.5279
G1 X86.8719 Y54.3681
G1 X87.5279 Y53.2977
G1 X88.3431 Y52.3431
G1 X89.2977 Y51.5279
G1 X90.3681 Y50.8719
G1 X91.5279 Y50.3915
G1 X92.7485 Y50.0985
G1 X94 Y50
G1 X95.2515 Y50.0985
G1 X96.4721 Y50.3915
G1 X97.6319 Y50.8719
G1 X98.7023 Y51.5279
G1 X99.6569 Y52.3431
G1 X100.4721 Y53.2977
G1 X101.1281 Y54.3681
G1 X101.6085 Y55.5279
G1 X101.9015 Y56.7485
G1 X102 Y58
G0 X86.0415 Y58.5267 F3000
G1 X93.4733 Y65.9585 F200
G0 X97.1041 Y65.3467 F3000
G1 X86.6533 Y54.8959 F200
G0 X88.3431 Y52.3431 F3000
G1 X99.6569 Y63.6569 F200
G0 X101.3467 Y61.1041 F3000
G1 X90.8959 Y50.6533 F200
G0 X94.5267 Y50.0415 F3000
G1 X101.9585 Y57.4733 F200
M106 S0
G0 X138 Y42 F3000
M106 S255
G1 X138 Y58 F200
G1 X137.9015 Y59.2515
G1 X137.6085 Y60.4721
G1 X137.1281 Y61.6319
G1 X136.4721 Y62.7023
G1 X135.6569 Y63.6569
G1 X134.7023 Y64.4721
G1 X133.6319 Y65.1281
G1 X132.4721 Y65.6085
G1 X131.2515 Y65.9015
G1 X130 Y66
G1 X128.7485 Y65.9015
G1 X127.5279 Y65.6085
G1 X126.3681 Y65.1281
G1 X125.2977 Y64.4721
G1 X124.3431 Y63.6569
G1 X123.5279 Y62.7023
G1 X122.8719 Y61.6319
G1 X122.3915 Y60.4721
G1 X122.0985 Y59.2515
G1 X122 Y58
G1 X122.0985 Y56.7485
G1 X122.3915 Y55.5279
G1 X122.8719 Y54.3681
G1 X123.5279 Y53.2977
G1 X124.3431 Y52.3431
G1 X125.2977 Y51.5279
G1 X126.3681 Y50.8719
G1 X127.5279 Y50.3915
G1 X128.7485 Y50.0985
G1 X130 Y50
G1 X131.2515 Y50.0985
G1 X132.4721 Y50.3915
G1 X133.6319 Y50.8719
G1 X134.7023 Y51.5279
G1 X135.6569 Y52.3431
G1 X136.4721 Y53.2977
G1 X137.1281 Y54.3681
G1 X137.6085 Y55.5279
G1 X137.9015 Y56.7485
G1 X138 Y58
G0 X122.0415 Y58.5267 F3000
G1 X129.4733 Y65.9585 F200
G0 X133.1041 Y65.3467 F3000
G1 X122.6533 Y54.8959 F200
G0 X124.3431 Y52.3431 F3000
G1 X135.6569 Y63.6569 F200
G0 X137.3467 Y61.1041 F3000
G1 X126.8959 Y50.6533 F200
G0 X130.5267 Y50.0415 F3000
G1 X137.9585 Y57.4733 F200
M106 S0
G0 X174 Y42 F3000
M106 S255
G1 X174 Y58 F200
G1 X173.9015 Y59.2515
G1 X173.6085 Y60.4721
G1 X173.1281 Y61.6319
G1 X172.4721 Y62.7023
G1 X171.6569 Y63.6569
G1 X170.7023 Y64.4721
G1 X169.6319 Y65.1281
G1 X168.4721 Y65.6085
G1 X167.2515 Y65.9015
G1 X166 Y66
G1 X164.7485 Y65.9015
G1 X163.5279 Y65.6085
G1 X162.3681 Y65.1281
G1 X161.2977 Y64.4721
G1 X160.3431 Y63.6569
G1 X159.5279 Y62.7023
G1 X158.8719 Y61.6319
G1 X158.3915 Y60.4721
G1 X158.0985 Y59.2515
G1 X158 Y58
G1 X158.0985 Y56.7485
G1 X158.3915 Y55.5279
G1 X158.8719 Y54.3681
G1 X159.5279 Y53.2977
G1 X160.3431 Y52.3431
G1 X161.2977 Y51.5279
G1 X162.3681 Y50.8719
G1 X163.5279 Y50.3915
G1 X164.7485 Y50.0985
G1 X166 Y50
G1 X167.2515 Y50.0985
G1 X168.4721 Y50.3915
G1 X169.6319 Y50.8719
G1 X170.7023 Y51.5279
G1 X171.6569 Y52.3431
G1 X172.4721 Y53.2977
G1 X173.1281 Y54.3681
G1 X173.6085 Y55.5279
G1 X173.9015 Y56.7485
G1 X174 Y58
G0 X158.0415 Y58.5267 F3000
G1 X165.4733 Y65.9585 F200
G0 X169.1041 Y65.3467 F3000
G1 X158.6533 Y54.8959 F200
G0 X160.3431 Y52.3431 F3000
G1 X171.6569 Y63.6569 F200
G0 X173.3467 Y61.1041 F3000
G1 X162.8959 Y50.6533 F200
G0 X166.5267 Y50.0415 F3000
G1 X173.9585 Y57.4733 F200
M106 S0
G4 P333613
G0 Z11 F3000
G0 X66 Y42 F3000
M106 S255
G1 X66 Y58 F200
G1 X65.9015 Y59.2515
G1 X65.6085 Y60.4721
G1 X65.1281 Y61.6319
G1 X64.4721 Y62.7023
G1 X63.6569 Y63.6569
G1 X62.7023 Y64.4721
G1 X61.6319 Y65.1281
G1 X60.4721 Y65.6085
G1 X59.2515 Y65.9015
G1 X58 Y66
G1 X56.7485 Y65.9015
G1 X55.5279 Y65.6085
G1 X54.3681 Y65.1281
G1 X53.2977 Y64.4721
G1 X52.3431 Y63.6569
G1 X51.5279 Y62.7023
G1 X50.8719 Y61.6319
G1 X50.3915 Y60.4721
G1 X50.0985 Y59.2515
G1 X50 Y58
G1 X50.0985 Y56.7485
G1 X50.3915 Y55.5279
G1 X50.8719 Y54.3681
G1 X51.5279 Y53.2977
G1 X52.3431 Y52.3431
G1 X53.2977 Y51.5279
G1 X54.3681 Y50.8719
G1 X55.5279 Y50.3915
G1 X56.7485 Y50.0985
G1 X58 Y50
G1 X59.2515 Y50.0985
G1 X60.4721 Y50.3915
G1 X61.6319 Y50.8719
G1 X62.7023 Y51.5279
G1 X63.6569 Y52.3431
G1 X64.4721 Y53.2977
G1 X65.1281 Y54.3681
G1 X65.6085 Y55.5279
G1 X65.9015 Y56.7485
G1 X66 Y58
G0 X52 Y52.7449 F3000
G1 X52 Y63.2551 F200
G0 X55 Y65.3898 F3000
G1 X55 Y50.6102 F200
G0 X58 Y50 F3000
G1 X58 Y66 F200
G0 X61 Y65.3898 F3000
G1 X61 Y50.6102 F200
G0 X64 Y52.7449 F3000
G1 X64 Y63.2551 F200
M106 S0
G0 X102 Y42 F3000
M106 S255
G1 X102 Y58 F200
G1 X101.9015 Y59.2515
G1 X101.6085 Y60.4721
G1 X101.1281 Y61.6319
G1 X100.4721 Y62.7023
G1 X99.6569 Y63.6569
G1 X98.7023 Y64.4721
G1 X97.6319 Y65.1281
G1 X96.4721 Y65.6085
G1 X95.2515 Y65.9015
G1 X94 Y66
G1 X92.7485 Y65.9015
G1 X91.5279 Y65.6085
G1 X90.3681 Y65.1281
G1 X89.2977 Y64.4721
G1 X88.3431 Y63.6569
G1 X87.5279 Y62.7023
G1 X86.8719 Y61.6319
G1 X86.3915 Y60.4721
G1 X86.0985 Y59.2515
G1 X86 Y58
G1 X86.0985 Y56.7485
G1 X86.3915 Y55.5279
G1 X86.8719 Y54.3681
G1 X87.5279 Y53.2977
G1 X88.3431 Y52.3431
G1 X89.2977 Y51.5279
G1 X90.3681 Y50.8719
G1 X91.5279 Y50.3915
G1 X92.7485 Y50.0985
G1 X94 Y50
G1 X95.2515 Y50.0985
G1 X96.4721 Y50.3915
G1 X97.6319 Y50.8719
G1 X98.7023 Y51.5279
G1 X99.6569 Y52.3431
G1 X100.4721 Y53.2977
G1 X101.1281 Y54.3681
G1 X101.6085 Y55.5279
G1 X101.9015 Y56.7485
G1 X102 Y58
G0 X88 Y52.7449 F3000
G1 X88 Y63.2551 F200
G0 X91 Y65.3898 F3000
G1 X91 Y50.6102 F200
G0 X94 Y50 F3000
G1 X94 Y66 F200
G0 X97 Y65.3898 F3000
G1 X97 Y50.6102 F200
G0 X100 Y52.7449 F3000
G1 X100 Y63.2551 F200
M106 S0
G0 X138 Y42 F3000
M106 S255
G1 X138 Y58 F200
G1 X137.9015 Y59.2515
G1 X137.6085 Y60.4721
G1 X137.1281 Y61.6319
G1 X136.4721 Y62.7023
G1 X135.6569 Y63.6569
G1 X134.7023 Y64.4721
G1 X133.6319 Y65.1281
G1 X132.4721 Y65.6085
G1 X131.2515 Y65.9015
G1 X130 Y66
G1 X128.7485 Y65.9015
G1 X127.5279 Y65.6085
G1 X126.3681 Y65.1281
G1 X125.2977 Y64.4721
G1 X124.3431 Y63.6569
G1 X123.5279 Y62.7023
G1 X122.8719 Y61.6319
G1 X122.3915 Y60.4721
G1 X122.0985 Y59.2515
G1 X122 Y58
G1 X122.0985 Y56.7485
G1 X122.3915 Y55.5279
G1 X122.8719 Y54.3681
G1 X123.5279 Y53.2977
G1 X124.3431 Y52.3431
G1 X125.2977 Y51.5279
G1 X126.3681 Y50.8719
G1 X127.5279 Y50.3915
G1 X128.7485 Y50.0985
G1 X130 Y50
G1 X131.2515 Y50.0985
G1 X132.4721 Y50.3915
G1 X133.6319 Y50.8719
G1 X134.7023 Y51.5279
G1 X135.6569 Y52.3431
G1 X136.4721 Y53.2977
G1 X137.1281 Y54.3681
G1 X137.6085 Y55.5279
G1 X137.9015 Y56.7485
G1 X138 Y58
G0 X124 Y52.7449 F3000
G1 X124 Y63.2551 F200
G0 X127 Y65.3898 F3000
G1 X127 Y50.6102 F200
G0 X130 Y50 F3000
G1 X130 Y66 F200
G0 X133 Y65.3898 F3000
G1 X133 Y50.6102 F200
G0 X136 Y52.7449 F3000
G1 X136 Y63.2551 F200
M106 S0
G0 X174 Y42 F3000
M106 S255
G1 X174 Y58 F200
G1 X173.9015 Y59.2515
G1 X173.6085 Y60.4721
G1 X173.1281 Y61.6319
G1 X172.4721 Y62.7023
G1 X171.6569 Y63.6569
G1 X170.7023 Y64.4721
G1 X169.6319 Y65.1281
G1 X168.4721 Y65.6085
G1 X167.2515 Y65.9015
G1 X166 Y66
G1 X164.7485 Y65.9015
G1 X163.5279 Y65.6085
G1 X162.3681 Y65.1281
G1 X161.2977 Y64.4721
G1 X160.3431 Y63.6569
G1 X159.5279 Y62.7023
G1 X158.8719 Y61.6319
G1 X158.3915 Y60.4721
G1 X158.0985 Y59.2515
G1 X158 Y58
G1 X158.0985 Y56.7485
G1 X158.3915 Y55.5279
G1 X158.8719 Y54.3681
G1 X159.5279 Y53.2977
G1 X160.3431 Y52.3431
G1 X161.2977 Y51.5279
G1 X162.3681 Y50.8719
G1 X163.5279 Y50.3915
G1 X164.7485 Y50.0985
G1 X166 Y50
G1 X167.2515 Y50.0985
G1 X168.4721 Y50.3915
G1 X169.6319 Y50.8719
G1 X170.7023 Y51.5279
G1 X171.6569 Y52.3431
G1 X172.4721 Y53.2977
G1 X173.1281 Y54.3681
G1 X173.6085 Y55.5279
G1 X173.9015 Y56.7485
G1 X174 Y58
G0 X160 Y52.7449 F3000
G1 X160 Y63.2551 F200
G0 X163 Y65.3898 F3000
G1 X163 Y50.6102 F200
G0 X166 Y50 F3000
G1 X166 Y66 F200
G0 X169 Y65.3898 F3000
G1 X169 Y50.6102 F200
G0 X172 Y52.7449 F3000
G1 X172 Y63.2551 F200
M106 S0
G4 P333359
G0 Z11.5 F3000
G0 X66 Y42 F3000
M106 S255
G1 X66 Y58 F200
G1 X65.9015 Y59.2515
G1 X65.6085 Y60.4721
G1 X65.1281 Y61.6319
G1 X64.4721 Y62.7023
G1 X63.6569 Y63.6569
G1 X62.7023 Y64.4721
G1 X61.6319 Y65.1281
G1 X60.4721 Y65.6085
G1 X59.2515 Y65.9015
G1 X58 Y66
G1 X56.7485 Y65.9015
G1 X55.5279 Y65.6085
G1 X54.3681 Y65.1281
G1 X53.2977 Y64.4721
G1 X52.3431 Y63.6569
G1 X51.5279 Y62.7023
G1 X50.8719 Y61.6319
G1 X50.3915 Y60.4721
G1 X50.0985 Y59.2515
G1 X50 Y58
G1 X50.0985 Y56.7485
G1 X50.3915 Y55.5279
G1 X50.8719 Y54.3681
G1 X51.5279 Y53.2977
G1 X52.3431 Y52.3431
G1 X53.2977 Y51.5279
G1 X54.3681 Y50.8719
G1 X55.5279 Y50.3915
G1 X56.7485 Y50.0985
G1 X58 Y50
G1 X59.2515 Y50.0985
G1 X60.4721 Y50.3915
G1 X61.6319 Y50.8719
G1 X62.7023 Y51.5279
G1 X63.6569 Y52.3431
G1 X64.4721 Y53.2977
G1 X65.1281 Y54.3681
G1 X65.6085 Y55.5279
G1 X65.9015 Y56.7485
G1 X66 Y58
G0 X57.4733 Y50.0415 F3000
